<?xml version="1.0" encoding="UTF-8"?>
<map version="1.10" tiledversion="1.10.1" orientation="orthogonal" renderorder="right-down" width="100" height="100" tilewidth="4" tileheight="4" infinite="1" nextlayerid="5" nextobjectid="3">
 <tileset firstgid="1" source="C2-Overworld-Ref.tsx"/>
 <tileset firstgid="2" source="../../_Tilesets/Original/1.tsx"/>
 <tileset firstgid="1026" source="../../_Tilesets/Original/16.tsx"/>
 <tileset firstgid="2050" source="../../_Tilesets/Original/0.tsx"/>
 <tileset firstgid="3074" source="../../_Tilesets/Original/15.tsx"/>
 <tileset firstgid="4098" source="../../_Tilesets/Original/18.tsx"/>
 <tileset firstgid="5122" source="../Overworld/C2-Overworld-Ref.tsx"/>
 <tileset firstgid="5127" source="../../_Tilesets/Original/10.tsx"/>
 <tileset firstgid="6151" source="../../_Tilesets/Original/13.tsx"/>
 <tileset firstgid="7175" source="../../_Tilesets/Original/24.tsx"/>
 <layer id="1" name="Ref" width="100" height="100" visible="0" locked="1" opacity="0.4">
  <data encoding="csv">
   <chunk x="-112" y="32" width="16" height="16">
0,0,0,0,0,0,0,0,0,0,0,0,0,0,0,0,
0,0,0,0,0,0,0,0,0,0,0,0,0,0,0,0,
0,0,0,0,0,0,0,0,0,0,0,0,0,0,0,0,
0,0,0,0,0,0,0,0,0,0,0,0,0,0,0,0,
0,0,0,0,0,0,0,0,0,0,0,0,0,0,0,0,
0,0,0,0,0,0,0,0,0,0,0,0,0,0,0,0,
0,0,0,0,0,0,0,0,0,0,0,0,0,0,0,0,
0,0,0,0,0,0,0,0,0,0,0,0,0,0,0,0,
0,0,0,0,0,0,0,0,0,0,0,0,0,0,0,0,
0,0,0,0,0,0,0,0,0,0,5125,0,0,0,0,0,
0,0,0,0,0,0,0,0,0,0,0,0,0,0,0,0,
0,0,0,0,0,0,0,0,0,0,0,0,0,0,0,0,
0,0,0,0,0,0,0,0,0,0,0,0,0,0,0,0,
0,0,0,0,0,0,0,0,0,0,0,0,0,0,0,0,
0,0,0,0,0,0,0,0,0,0,0,0,0,0,0,0,
0,0,0,0,0,0,0,0,0,0,0,0,0,0,0,0
</chunk>
  </data>
 </layer>
 <layer id="4" name="Base TODO Add Parallex ingame" width="100" height="100">
  <data encoding="csv">
   <chunk x="-112" y="-80" width="16" height="16">
0,0,0,0,0,0,0,0,0,0,0,0,0,0,0,0,
0,0,0,0,0,0,0,0,0,0,0,0,0,0,0,0,
0,0,0,0,0,0,0,0,0,0,5409,5410,5411,5412,5413,5414,
0,0,0,0,0,0,0,0,0,0,5441,5442,5443,5444,5445,5446,
0,0,0,0,0,0,0,0,0,0,5473,5474,5475,5476,5477,5478,
0,0,0,0,0,0,0,0,0,0,5505,5506,5507,5508,5509,5510,
0,0,0,0,0,0,0,0,0,0,5537,5538,5539,5540,5541,5542,
0,0,0,0,0,0,0,0,0,0,5569,5570,5571,5572,5573,5574,
0,0,0,0,0,0,0,0,0,0,5601,5602,5603,5604,5605,5606,
0,0,0,0,0,0,0,0,0,0,5633,5634,5635,5636,5637,5638,
0,0,0,0,0,0,0,0,0,0,5665,5666,5667,5668,5669,5670,
0,0,0,0,0,0,0,0,0,0,5697,5698,5699,5700,5701,5702,
0,0,0,0,0,0,0,0,0,0,5729,5730,5731,5732,5733,5734,
0,0,0,0,0,0,0,0,0,0,5761,5762,5763,5764,5765,5766,
0,0,0,0,0,0,0,0,0,0,5409,5410,5411,5412,5413,5414,
0,0,0,0,0,0,0,0,0,0,5441,5442,5443,5444,5445,5446
</chunk>
   <chunk x="-96" y="-80" width="16" height="16">
0,0,0,0,0,0,0,0,0,0,0,0,0,0,0,0,
0,0,0,0,0,0,0,0,0,0,0,0,0,0,0,0,
5601,5602,5603,5604,5605,5606,5409,5410,5411,5412,5413,5414,5601,5602,5603,5604,
5633,5634,5635,5636,5637,5638,5441,5442,5443,5444,5445,5446,5633,5634,5635,5636,
5665,5666,5667,5668,5669,5670,5473,5474,5475,5476,5477,5478,5665,5666,5667,5668,
5697,5698,5699,5700,5701,5702,5505,5506,5507,5508,5509,5510,5697,5698,5699,5700,
5729,5730,5731,5732,5733,5734,5537,5538,5539,5540,5541,5542,5729,5730,5731,5732,
5761,5762,5763,5764,5765,5766,5569,5570,5571,5572,5573,5574,5761,5762,5763,5764,
5409,5410,5411,5412,5413,5414,5601,5602,5603,5604,5605,5606,5409,5410,5411,5412,
5441,5442,5443,5444,5445,5446,5633,5634,5635,5636,5637,5638,5441,5442,5443,5444,
5473,5474,5475,5476,5477,5478,5665,5666,5667,5668,5669,5670,5473,5474,5475,5476,
5505,5506,5507,5508,5509,5510,5697,5698,5699,5700,5701,5702,5505,5506,5507,5508,
5537,5538,5539,5540,5541,5542,5729,5730,5731,5732,5733,5734,5537,5538,5539,5540,
5569,5570,5571,5572,5573,5574,5761,5762,5763,5764,5765,5766,5569,5570,5571,5572,
5601,5602,5603,5604,5605,5606,6739,6740,6741,6742,6743,6744,5601,5602,5603,5604,
5633,5634,5635,5636,5637,5638,6771,6772,6773,6774,6775,6776,5633,5634,5635,5636
</chunk>
   <chunk x="-80" y="-80" width="16" height="16">
0,0,0,0,0,0,0,0,0,0,0,0,0,0,0,0,
0,0,0,0,0,0,0,0,0,0,0,0,0,0,0,0,
5605,5606,6739,6740,6741,6742,6743,6744,2147491156,2147491155,8139,8140,8139,8140,8139,8140,
5637,5638,6771,6772,6773,6774,6775,6776,2147491188,2147491187,8171,8172,8171,8172,8171,8172,
5669,5670,6803,6804,6805,6806,6807,6808,2147491158,2147491157,8139,8140,8139,8140,7693,7694,
5701,5702,6835,6836,6837,6838,6839,6840,2147491190,2147491189,8171,8172,8171,8172,7725,7726,
5733,5734,6867,6868,6869,6870,6871,6872,2147491160,2147491159,8139,8140,8139,8140,8139,8140,
5765,5766,6899,6900,6901,6902,6903,6904,2147491192,2147491191,8171,8172,8171,8172,8171,8172,
5413,5414,6931,6932,6933,6934,6935,6936,2147491162,2147491161,8139,8140,8139,8140,8139,8140,
5445,5446,6963,6964,6965,6966,6967,6968,2147491194,2147491193,8171,8172,8171,8172,8171,8172,
5477,5478,6995,6996,6997,6998,6999,7000,2147491272,2147491271,8139,8140,8139,8140,8139,8140,
5509,5510,7027,7028,7029,7030,7031,7032,2147491304,2147491303,8171,8172,8171,8172,8171,8172,
5541,5542,7059,7060,7061,7062,7063,7064,2147491294,2147491293,8139,8140,8139,8140,8139,8140,
5573,5574,7091,7092,7093,7094,7095,7096,2147491326,2147491325,8171,8172,8171,8172,8171,8172,
5605,5606,6739,6740,6741,6742,6743,6744,2147491156,2147491155,8139,8140,8139,8140,8139,8140,
5637,5638,6771,6772,6773,6774,6775,6776,2147491188,2147491187,8171,8172,8171,8172,8171,8172
</chunk>
   <chunk x="-64" y="-80" width="16" height="16">
0,0,0,0,0,0,0,0,0,0,0,0,0,0,0,0,
0,0,0,0,0,0,0,0,0,0,0,0,0,0,0,0,
7631,7632,7633,7634,7635,7636,8139,8140,8139,8140,8139,8140,8139,8140,8139,8140,
7663,7664,7665,7666,7667,7668,8171,8172,8171,8172,8171,8172,8171,8172,8171,8172,
7695,7696,7697,7698,7699,7700,8139,8140,8139,8140,8139,8140,8139,8140,8139,8140,
7727,7728,7729,7730,7731,7732,8171,8172,8171,8172,8171,8172,8171,8172,8171,8172,
8139,8140,8139,8140,8139,8140,8139,8140,8139,8140,8139,8140,8139,8140,8139,8140,
8171,8172,8171,8172,8171,8172,8171,8172,8171,8172,8171,8172,8171,8172,8171,8172,
8139,8140,8139,8140,8139,8140,8139,8140,8139,8140,8139,8140,8139,8140,8139,8140,
8171,8172,8171,8172,8171,8172,8171,8172,8171,8172,8171,8172,8171,8172,8171,8172,
8139,8140,8139,8140,8139,8140,8139,8140,8139,8140,7625,7626,8139,8140,8139,8140,
8171,8172,8171,8172,8171,8172,8171,8172,8171,8172,7657,7658,8171,8172,8171,8172,
7637,7638,7639,7640,7641,7642,7643,7644,7687,7688,7689,7690,7691,7692,8139,8140,
7669,7670,7671,7672,7673,7674,7675,7676,7719,7720,7721,7722,7723,7724,8171,8172,
7701,7702,7703,7704,7705,7706,7707,7708,7709,7710,8139,8140,7631,7632,7633,7634,
7733,7734,7735,7736,7737,7738,7739,7740,7741,7742,8171,8172,7663,7664,7665,7666
</chunk>
   <chunk x="-48" y="-80" width="16" height="16">
0,0,0,0,0,0,0,0,0,0,0,0,0,0,0,0,
0,0,0,0,0,0,0,0,0,0,0,0,0,0,0,0,
8139,8140,8139,8140,8139,8140,8139,8140,8139,8140,8139,8140,8139,8140,8139,8140,
8171,8172,8171,8172,8171,8172,8171,8172,8171,8172,8171,8172,8171,8172,8171,8172,
8139,8140,8139,8140,8139,8140,8139,8140,8139,8140,8139,8140,8139,8140,8139,8140,
8171,8172,8171,8172,8171,8172,8171,8172,8171,8172,8171,8172,8171,8172,8171,8172,
8139,8140,8139,8140,8139,8140,8139,8140,8139,8140,8139,8140,8139,8140,8139,8140,
8171,8172,8171,8172,8171,8172,8171,8172,8171,8172,8171,8172,8171,8172,8171,8172,
8139,8140,8139,8140,8139,8140,8139,8140,8139,8140,8139,8140,8139,8140,8139,8140,
8171,8172,8171,8172,8171,8172,8171,8172,8171,8172,8171,8172,8171,8172,8171,8172,
8139,8140,8139,8140,8139,8140,8139,8140,8139,8140,8139,8140,8139,8140,8139,8140,
8171,8172,8171,8172,8171,8172,8171,8172,8171,8172,8171,8172,8171,8172,8171,8172,
8139,8140,8139,8140,8139,8140,8139,8140,8139,8140,8139,8140,8139,8140,8139,8140,
8171,8172,8171,8172,8171,8172,8171,8172,8171,8172,8171,8172,8171,8172,8171,8172,
7635,7636,8139,8140,8139,8140,8139,8140,8139,8140,8139,8140,8139,8140,8139,8140,
7667,7668,8171,8172,8171,8172,8171,8172,8171,8172,8171,8172,8171,8172,8171,8172
</chunk>
   <chunk x="-32" y="-80" width="16" height="16">
0,0,0,0,0,0,0,0,0,0,0,0,0,0,0,0,
0,0,0,0,0,0,0,0,0,0,0,0,0,0,0,0,
8139,8140,8139,8140,8139,8140,8139,8140,8139,8140,8139,8140,8139,8140,8139,8140,
8171,8172,8171,8172,8171,8172,8171,8172,8171,8172,8171,8172,8171,8172,8171,8172,
8139,8140,8139,8140,8139,8140,8139,8140,8139,8140,8139,8140,8139,8140,8139,8140,
8171,8172,8171,8172,8171,8172,8171,8172,8171,8172,8171,8172,8171,8172,8171,8172,
8139,8140,8139,8140,8139,8140,8139,8140,8139,8140,8139,8140,8139,8140,8139,8140,
8171,8172,8171,8172,8171,8172,8171,8172,8171,8172,8171,8172,8171,8172,8171,8172,
8139,8140,8139,8140,8139,8140,8139,8140,8139,8140,8139,8140,8139,8140,8139,8140,
8171,8172,8171,8172,8171,8172,8171,8172,8171,8172,8171,8172,8171,8172,8171,8172,
8139,8140,8139,8140,8139,8140,8139,8140,8139,8140,8139,8140,8139,8140,7625,7626,
8171,8172,8171,8172,8171,8172,8171,8172,8171,8172,8171,8172,8171,8172,7657,7658,
8139,8140,8139,8140,7637,7638,7639,7640,7641,7642,7643,7644,7687,7688,7689,7690,
8171,8172,8171,8172,7669,7670,7671,7672,7673,7674,7675,7676,7719,7720,7721,7722,
8139,8140,8139,8140,7701,7702,7703,7704,7705,7706,7707,7708,7709,7710,8139,8140,
8171,8172,8171,8172,7733,7734,7735,7736,7737,7738,7739,7740,7741,7742,8171,8172
</chunk>
   <chunk x="-16" y="-80" width="16" height="16">
0,0,0,0,0,0,0,0,0,0,0,0,0,0,0,0,
0,0,0,0,0,0,0,0,0,0,0,0,0,0,0,0,
8139,8140,8139,8140,8139,8140,8139,8140,8139,8140,8139,8140,8139,8140,8139,8140,
8171,8172,8171,8172,8171,8172,8171,8172,8171,8172,8171,8172,8171,8172,8171,8172,
8139,8140,8139,8140,8139,8140,8139,8140,8139,8140,8139,8140,8139,8140,8139,8140,
8171,8172,8171,8172,8171,8172,8171,8172,8171,8172,8171,8172,8171,8172,8171,8172,
8139,8140,8139,8140,8139,8140,8139,8140,8139,8140,8139,8140,8139,8140,8139,8140,
8171,8172,8171,8172,8171,8172,8171,8172,8171,8172,8171,8172,8171,8172,8171,8172,
8139,8140,8139,8140,8139,8140,8139,8140,8139,8140,8139,8140,8139,8140,8139,8140,
8171,8172,8171,8172,8171,8172,8171,8172,8171,8172,8171,8172,8171,8172,8171,8172,
8139,8140,8139,8140,8139,8140,8139,8140,8139,8140,8139,8140,8139,8140,8139,8140,
8171,8172,8171,8172,8171,8172,8171,8172,8171,8172,8171,8172,8171,8172,8171,8172,
7691,7692,8139,8140,8139,8140,8139,8140,8139,8140,8139,8140,8139,8140,8139,8140,
7723,7724,8171,8172,8171,8172,8171,8172,8171,8172,8171,8172,8171,8172,8171,8172,
7631,7632,7633,7634,7635,7636,8139,8140,8139,8140,8139,8140,8139,8140,8139,8140,
7663,7664,7665,7666,7667,7668,8171,8172,8171,8172,8171,8172,8171,8172,8171,8172
</chunk>
   <chunk x="0" y="-80" width="16" height="16">
0,0,0,0,0,0,0,0,0,0,0,0,0,0,0,0,
0,0,0,0,0,0,0,0,0,0,0,0,0,0,0,0,
8139,8140,8139,8140,8139,8140,8139,8140,8139,8140,8139,8140,8139,8140,8139,8140,
8171,8172,8171,8172,8171,8172,8171,8172,8171,8172,8171,8172,8171,8172,8171,8172,
8139,8140,8139,8140,8139,8140,8139,8140,8139,8140,8139,8140,8139,8140,8139,8140,
8171,8172,8171,8172,8171,8172,8171,8172,8171,8172,8171,8172,8171,8172,8171,8172,
8139,8140,8139,8140,8139,8140,8139,8140,8139,8140,8139,8140,8139,8140,8139,8140,
8171,8172,8171,8172,8171,8172,8171,8172,8171,8172,8171,8172,8171,8172,8171,8172,
8139,8140,8139,8140,8139,8140,8139,8140,8139,8140,8139,8140,8139,8140,8139,8140,
8171,8172,8171,8172,8171,8172,8171,8172,8171,8172,8171,8172,8171,8172,8171,8172,
8139,8140,8139,8140,8139,8140,8139,8140,8139,8140,8139,8140,8139,8140,8139,8140,
8171,8172,8171,8172,8171,8172,8171,8172,8171,8172,8171,8172,8171,8172,8171,8172,
8139,8140,8139,8140,8139,8140,8139,8140,8139,8140,8139,8140,8139,8140,8139,8140,
8171,8172,8171,8172,8171,8172,8171,8172,8171,8172,8171,8172,8171,8172,8171,8172,
8139,8140,8139,8140,8139,8140,8139,8140,8139,8140,8139,8140,8139,8140,8139,8140,
8171,8172,8171,8172,8171,8172,8171,8172,8171,8172,8171,8172,8171,8172,8171,8172
</chunk>
   <chunk x="16" y="-80" width="16" height="16">
0,0,0,0,0,0,0,0,0,0,0,0,0,0,0,0,
0,0,0,0,0,0,0,0,0,0,0,0,0,0,0,0,
8139,8140,8139,8140,8139,8140,8139,8140,8139,8140,8139,8140,8139,8140,8139,8140,
8171,8172,8171,8172,8171,8172,8171,8172,8171,8172,8171,8172,8171,8172,8171,8172,
8139,8140,8139,8140,8139,8140,8139,8140,8139,8140,8139,8140,8139,8140,7625,7626,
8171,8172,8171,8172,8171,8172,8171,8172,8171,8172,8171,8172,8171,8172,7657,7658,
8139,8140,8139,8140,7637,7638,7639,7640,7641,7642,7643,7644,7687,7688,7689,7690,
8171,8172,8171,8172,7669,7670,7671,7672,7673,7674,7675,7676,7719,7720,7721,7722,
8139,8140,8139,8140,7701,7702,7703,7704,7705,7706,7707,7708,7709,7710,8139,8140,
8171,8172,8171,8172,7733,7734,7735,7736,7737,7738,7739,7740,7741,7742,8171,8172,
8139,8140,8139,8140,8139,8140,8139,8140,8139,8140,8139,8140,8139,8140,7693,7694,
8171,8172,8171,8172,8171,8172,8171,8172,8171,8172,8171,8172,8171,8172,7725,7726,
8139,8140,8139,8140,8139,8140,8139,8140,8139,8140,8139,8140,8139,8140,8139,8140,
8171,8172,8171,8172,8171,8172,8171,8172,8171,8172,8171,8172,8171,8172,8171,8172,
8139,8140,8139,8140,8139,8140,8139,8140,8139,8140,8139,8140,8139,8140,8139,8140,
8171,8172,8171,8172,8171,8172,8171,8172,8171,8172,8171,8172,8171,8172,8171,8172
</chunk>
   <chunk x="32" y="-80" width="16" height="16">
0,0,0,0,0,0,0,0,0,0,0,0,0,0,0,0,
0,0,0,0,0,0,0,0,0,0,0,0,0,0,0,0,
8139,8140,8139,8140,8139,8140,8139,8140,8139,8140,8139,8140,8139,8140,8139,8140,
8171,8172,8171,8172,8171,8172,8171,8172,8171,8172,8171,8172,8171,8172,8171,8172,
8139,8140,8139,8140,8139,8140,8139,8140,8139,8140,8139,8140,8139,8140,8139,8140,
8171,8172,8171,8172,8171,8172,8171,8172,8171,8172,8171,8172,8171,8172,8171,8172,
7691,7692,8139,8140,8139,8140,8139,8140,8139,8140,8139,8140,8139,8140,8139,8140,
7723,7724,8171,8172,8171,8172,8171,8172,8171,8172,8171,8172,8171,8172,8171,8172,
7631,7632,7633,7634,7635,7636,8139,8140,8139,8140,8139,8140,8139,8140,8139,8140,
7663,7664,7665,7666,7667,7668,8171,8172,8171,8172,8171,8172,8171,8172,8171,8172,
7695,7696,7697,7698,7699,7700,8139,8140,8139,8140,8139,8140,8139,8140,8139,8140,
7727,7728,7729,7730,7731,7732,8171,8172,8171,8172,8171,8172,8171,8172,8171,8172,
8139,8140,8139,8140,8139,8140,8139,8140,8139,8140,8139,8140,8139,8140,8139,8140,
8171,8172,8171,8172,8171,8172,8171,8172,8171,8172,8171,8172,8171,8172,8171,8172,
8139,8140,8139,8140,8139,8140,8139,8140,8139,8140,8139,8140,8139,8140,8139,8140,
8171,8172,8171,8172,8171,8172,8171,8172,8171,8172,8171,8172,8171,8172,8171,8172
</chunk>
   <chunk x="48" y="-80" width="16" height="16">
0,0,0,0,0,0,0,0,0,0,0,0,0,0,0,0,
0,0,0,0,0,0,0,0,0,0,0,0,0,0,0,0,
8139,8140,8139,8140,8139,8140,8139,8140,8139,8140,8139,8140,8139,8140,8139,8140,
8171,8172,8171,8172,8171,8172,8171,8172,8171,8172,8171,8172,8171,8172,8171,8172,
8139,8140,8139,8140,8139,8140,8139,8140,8139,8140,8139,8140,8139,8140,8139,8140,
8171,8172,8171,8172,8171,8172,8171,8172,8171,8172,8171,8172,8171,8172,8171,8172,
8139,8140,8139,8140,8139,8140,8139,8140,8139,8140,8139,8140,8139,8140,8139,8140,
8171,8172,8171,8172,8171,8172,8171,8172,8171,8172,8171,8172,8171,8172,8171,8172,
8139,8140,8139,8140,8139,8140,8139,8140,7631,7632,7633,7634,7635,7636,8139,8140,
8171,8172,8171,8172,8171,8172,8171,8172,7663,7664,7665,7666,7667,7668,8171,8172,
8139,8140,8139,8140,8139,8140,7693,7694,7695,7696,7697,7698,7699,7700,8139,8140,
8171,8172,8171,8172,8171,8172,7725,7726,7727,7728,7729,7730,7731,7732,8171,8172,
8139,8140,8139,8140,8139,8140,8139,8140,8139,8140,8139,8140,8139,8140,8139,8140,
8171,8172,8171,8172,8171,8172,8171,8172,8171,8172,8171,8172,8171,8172,8171,8172,
8139,8140,8139,8140,8139,8140,8139,8140,8139,8140,8139,8140,8139,8140,8139,8140,
8171,8172,8171,8172,8171,8172,8171,8172,8171,8172,8171,8172,8171,8172,8171,8172
</chunk>
   <chunk x="64" y="-80" width="16" height="16">
0,0,0,0,0,0,0,0,0,0,0,0,0,0,0,0,
0,0,0,0,0,0,0,0,0,0,0,0,0,0,0,0,
8139,8140,8139,8140,8139,8140,8139,8140,8139,8140,8139,8140,7507,7508,5601,5602,
8171,8172,8171,8172,8171,8172,8171,8172,8171,8172,8171,8172,7539,7540,5633,5634,
8139,8140,8139,8140,8139,8140,8139,8140,8139,8140,8139,8140,7509,7510,5665,5666,
8171,8172,8171,8172,8171,8172,8171,8172,8171,8172,8171,8172,7541,7542,5697,5698,
8139,8140,8139,8140,8139,8140,8139,8140,8139,8140,8139,8140,7511,7512,5729,5730,
8171,8172,8171,8172,8171,8172,8171,8172,8171,8172,8171,8172,7543,7544,5761,5762,
8139,8140,8139,8140,8139,8140,8139,8140,8139,8140,8139,8140,7513,7514,5409,5410,
8171,8172,8171,8172,8171,8172,8171,8172,8171,8172,8171,8172,7545,7546,5441,5442,
8139,8140,8139,8140,8139,8140,8139,8140,8139,8140,8139,8140,7623,7624,5473,5474,
8171,8172,8171,8172,8171,8172,8171,8172,8171,8172,8171,8172,7655,7656,5505,5506,
8139,8140,8139,8140,8139,8140,8139,8140,8139,8140,8139,8140,7645,7646,5537,5538,
8171,8172,8171,8172,8171,8172,8171,8172,8171,8172,8171,8172,7677,7678,5569,5570,
8139,8140,8139,8140,8139,8140,8139,8140,8139,8140,8139,8140,7507,7508,5601,5602,
8171,8172,8171,8172,8171,8172,8171,8172,8171,8172,8171,8172,7539,7540,5633,5634
</chunk>
   <chunk x="80" y="-80" width="16" height="16">
0,0,0,0,0,0,0,0,0,0,0,0,0,0,0,0,
0,0,0,0,0,0,0,0,0,0,0,0,0,0,0,0,
5603,5604,5605,5606,5409,5410,5411,5412,5413,5414,5601,5602,5603,5604,5605,5606,
5635,5636,5637,5638,5441,5442,5443,5444,5445,5446,5633,5634,5635,5636,5637,5638,
5667,5668,5669,5670,5473,5474,5475,5476,5477,5478,5665,5666,5667,5668,5669,5670,
5699,5700,5701,5702,5505,5506,5507,5508,5509,5510,5697,5698,5699,5700,5701,5702,
5731,5732,5733,5734,5537,5538,5539,5540,5541,5542,5729,5730,5731,5732,5733,5734,
5763,5764,5765,5766,5569,5570,5571,5572,5573,5574,5761,5762,5763,5764,5765,5766,
5411,5412,5413,5414,5601,5602,5603,5604,5605,5606,5409,5410,5411,5412,5413,5414,
5443,5444,5445,5446,5633,5634,5635,5636,5637,5638,5441,5442,5443,5444,5445,5446,
5475,5476,5477,5478,5665,5666,5667,5668,5669,5670,5473,5474,5475,5476,5477,5478,
5507,5508,5509,5510,5697,5698,5699,5700,5701,5702,5505,5506,5507,5508,5509,5510,
5539,5540,5541,5542,5729,5730,5731,5732,5733,5734,5537,5538,5539,5540,5541,5542,
5571,5572,5573,5574,5761,5762,5763,5764,5765,5766,5569,5570,5571,5572,5573,5574,
5603,5604,5605,5606,6733,6734,6735,6736,6737,6738,6925,6926,6927,6928,6929,6930,
5635,5636,5637,5638,6765,6766,6767,6768,6769,6770,6957,6958,6959,6960,6961,6962
</chunk>
   <chunk x="96" y="-80" width="16" height="16">
0,0,0,0,0,0,0,0,0,0,0,0,0,0,0,0,
0,0,0,0,0,0,0,0,0,0,0,0,0,0,0,0,
5409,5410,5411,5412,5413,5414,5601,5602,5603,5604,5605,5606,6739,6740,6741,6742,
5441,5442,5443,5444,5445,5446,5633,5634,5635,5636,5637,5638,6771,6772,6773,6774,
5473,5474,5475,5476,5477,5478,5665,5666,5667,5668,5669,5670,6803,6804,6805,6806,
5505,5506,5507,5508,5509,5510,5697,5698,5699,5700,5701,5702,6835,6836,6837,6838,
5537,5538,5539,5540,5541,5542,5729,5730,5731,5732,5733,5734,6867,6868,6869,6870,
5569,5570,5571,5572,5573,5574,5761,5762,5763,5764,5765,5766,6899,6900,6901,6902,
5601,5602,5603,5604,5605,5606,5409,5410,5411,5412,5413,5414,6931,6932,6933,6934,
5633,5634,5635,5636,5637,5638,5441,5442,5443,5444,5445,5446,6963,6964,6965,6966,
5665,5666,5667,5668,5669,5670,5473,5474,5475,5476,5477,5478,6995,6996,6997,6998,
5697,5698,5699,5700,5701,5702,5505,5506,5507,5508,5509,5510,7027,7028,7029,7030,
5729,5730,5731,5732,5733,5734,5537,5538,5539,5540,5541,5542,7059,7060,7061,7062,
5761,5762,5763,5764,5765,5766,5569,5570,5571,5572,5573,5574,7091,7092,7093,7094,
5409,5410,5411,5412,5413,5414,5601,5602,5603,5604,5605,5606,6739,6740,6741,6742,
5441,5442,5443,5444,5445,5446,5633,5634,5635,5636,5637,5638,6771,6772,6773,6774
</chunk>
   <chunk x="112" y="-80" width="16" height="16">
0,0,0,0,0,0,0,0,0,0,0,0,0,0,0,0,
0,0,0,0,0,0,0,0,0,0,0,0,0,0,0,0,
6743,6744,5601,5602,5603,5604,5605,5606,5409,5410,5411,5412,5413,5414,6925,6926,
6775,6776,5633,5634,5635,5636,5637,5638,5441,5442,5443,5444,5445,5446,6957,6958,
6807,6808,5665,5666,5667,5668,5669,5670,5473,5474,5475,5476,5477,5478,6989,6990,
6839,6840,5697,5698,5699,5700,5701,5702,5505,5506,5507,5508,5509,5510,7021,7022,
6871,6872,5729,5730,5731,5732,5733,5734,5537,5538,5539,5540,5541,5542,7053,7054,
6903,6904,5761,5762,5763,5764,5765,5766,5569,5570,5571,5572,5573,5574,7085,7086,
6935,6936,5409,5410,5411,5412,5413,5414,5601,5602,5603,5604,5605,5606,6733,6734,
6967,6968,5441,5442,5443,5444,5445,5446,5633,5634,5635,5636,5637,5638,6765,6766,
6999,7000,5473,5474,5475,5476,5477,5478,5665,5666,5667,5668,5669,5670,6797,6798,
7031,7032,5505,5506,5507,5508,5509,5510,5697,5698,5699,5700,5701,5702,6829,6830,
7063,7064,5537,5538,5539,5540,5541,5542,5729,5730,5731,5732,5733,5734,6861,6862,
7095,7096,5569,5570,5571,5572,5573,5574,5761,5762,5763,5764,5765,5766,6893,6894,
6743,6744,5601,5602,5603,5604,5605,5606,5409,5410,5411,5412,5413,5414,6925,6926,
6775,6776,5633,5634,5635,5636,5637,5638,5441,5442,5443,5444,5445,5446,6957,6958
</chunk>
   <chunk x="128" y="-80" width="16" height="16">
0,0,0,0,0,0,0,0,0,0,0,0,0,0,0,0,
0,0,0,0,0,0,0,0,0,0,0,0,0,0,0,0,
6927,6928,6929,6930,6733,6734,6735,6736,6737,6738,5601,5602,5603,5604,5605,5606,
6959,6960,6961,6962,6765,6766,6767,6768,6769,6770,5633,5634,5635,5636,5637,5638,
6991,6992,6993,6994,6797,6798,6799,6800,6801,6802,5665,5666,5667,5668,5669,5670,
7023,7024,7025,7026,6829,6830,6831,6832,6833,6834,5697,5698,5699,5700,5701,5702,
7055,7056,7057,7058,6861,6862,6863,6864,6865,6866,5729,5730,5731,5732,5733,5734,
7087,7088,7089,7090,6893,6894,6895,6896,6897,6898,5761,5762,5763,5764,5765,5766,
6735,6736,6737,6738,6925,6926,6927,6928,6929,6930,5409,5410,5411,5412,5413,5414,
6767,6768,6769,6770,6957,6958,6959,6960,6961,6962,5441,5442,5443,5444,5445,5446,
6799,6800,6801,6802,6989,6990,6991,6992,6993,6994,5473,5474,5475,5476,5477,5478,
6831,6832,6833,6834,7021,7022,7023,7024,7025,7026,5505,5506,5507,5508,5509,5510,
6863,6864,6865,6866,7053,7054,7055,7056,7057,7058,5537,5538,5539,5540,5541,5542,
6895,6896,6897,6898,7085,7086,7087,7088,7089,7090,5569,5570,5571,5572,5573,5574,
6927,6928,6929,6930,6733,6734,6735,6736,6737,6738,5601,5602,5603,5604,5605,5606,
6959,6960,6961,6962,6765,6766,6767,6768,6769,6770,5633,5634,5635,5636,5637,5638
</chunk>
   <chunk x="144" y="-80" width="16" height="16">
0,0,0,0,0,0,0,0,0,0,0,0,0,0,0,0,
0,0,0,0,0,0,0,0,0,0,0,0,0,0,0,0,
5409,5410,5411,5412,5413,5414,5601,5602,5603,5604,5605,5606,5409,5410,5411,5412,
5441,5442,5443,5444,5445,5446,5633,5634,5635,5636,5637,5638,5441,5442,5443,5444,
5473,5474,5475,5476,5477,5478,5665,5666,5667,5668,5669,5670,5473,5474,5475,5476,
5505,5506,5507,5508,5509,5510,5697,5698,5699,5700,5701,5702,5505,5506,5507,5508,
5537,5538,5539,5540,5541,5542,5729,5730,5731,5732,5733,5734,5537,5538,5539,5540,
5569,5570,5571,5572,5573,5574,5761,5762,5763,5764,5765,5766,5569,5570,5571,5572,
5601,5602,5603,5604,5605,5606,5409,5410,5411,5412,5413,5414,5601,5602,5603,5604,
5633,5634,5635,5636,5637,5638,5441,5442,5443,5444,5445,5446,5633,5634,5635,5636,
5665,5666,5667,5668,5669,5670,5473,5474,5475,5476,5477,5478,5665,5666,5667,5668,
5697,5698,5699,5700,5701,5702,5505,5506,5507,5508,5509,5510,5697,5698,5699,5700,
5729,5730,5731,5732,5733,5734,5537,5538,5539,5540,5541,5542,5729,5730,5731,5732,
5761,5762,5763,5764,5765,5766,5569,5570,5571,5572,5573,5574,5761,5762,5763,5764,
5409,5410,5411,5412,5413,5414,5601,5602,5603,5604,5605,5606,6739,6740,6741,6742,
5441,5442,5443,5444,5445,5446,5633,5634,5635,5636,5637,5638,6771,6772,6773,6774
</chunk>
   <chunk x="160" y="-80" width="16" height="16">
0,0,0,0,0,0,0,0,0,0,0,0,0,0,0,0,
0,0,0,0,0,0,0,0,0,0,0,0,0,0,0,0,
5413,5414,5601,5602,5603,5604,5605,5606,6739,6740,6741,6742,6743,6744,5601,5602,
5445,5446,5633,5634,5635,5636,5637,5638,6771,6772,6773,6774,6775,6776,5633,5634,
5477,5478,5665,5666,5667,5668,5669,5670,6803,6804,6805,6806,6807,6808,5665,5666,
5509,5510,5697,5698,5699,5700,5701,5702,6835,6836,6837,6838,6839,6840,5697,5698,
5541,5542,5729,5730,5731,5732,5733,5734,6867,6868,6869,6870,6871,6872,5729,5730,
5573,5574,5761,5762,5763,5764,5765,5766,6899,6900,6901,6902,6903,6904,5761,5762,
5605,5606,6739,6740,6741,6742,6743,6744,6931,6932,6933,6934,6935,6936,5409,5410,
5637,5638,6771,6772,6773,6774,6775,6776,6963,6964,6965,6966,6967,6968,5441,5442,
5669,5670,6803,6804,6805,6806,6807,6808,6995,6996,6997,6998,6999,7000,5473,5474,
5701,5702,6835,6836,6837,6838,6839,6840,7027,7028,7029,7030,7031,7032,5505,5506,
5733,5734,6867,6868,6869,6870,6871,6872,7059,7060,7061,7062,7063,7064,5537,5538,
5765,5766,6899,6900,6901,6902,6903,6904,7091,7092,7093,7094,7095,7096,5569,5570,
6743,6744,6931,6932,6933,6934,6935,6936,6739,6740,6741,6742,6743,6744,5601,5602,
6775,6776,6963,6964,6965,6966,6967,6968,6771,6772,6773,6774,6775,6776,5633,5634
</chunk>
   <chunk x="176" y="-80" width="16" height="16">
0,0,0,0,0,0,0,0,0,0,0,0,0,0,0,0,
0,0,0,0,0,0,0,0,0,0,0,0,0,0,0,0,
5603,5604,5605,5606,5409,5410,5411,5412,5413,5414,0,0,0,0,0,0,
5635,5636,5637,5638,5441,5442,5443,5444,5445,5446,0,0,0,0,0,0,
5667,5668,5669,5670,5473,5474,5475,5476,5477,5478,0,0,0,0,0,0,
5699,5700,5701,5702,5505,5506,5507,5508,5509,5510,0,0,0,0,0,0,
5731,5732,5733,5734,5537,5538,5539,5540,5541,5542,0,0,0,0,0,0,
5763,5764,5765,5766,5569,5570,5571,5572,5573,5574,0,0,0,0,0,0,
5411,5412,5413,5414,5601,5602,5603,5604,5605,5606,0,0,0,0,0,0,
5443,5444,5445,5446,5633,5634,5635,5636,5637,5638,0,0,0,0,0,0,
5475,5476,5477,5478,5665,5666,5667,5668,5669,5670,0,0,0,0,0,0,
5507,5508,5509,5510,5697,5698,5699,5700,5701,5702,0,0,0,0,0,0,
5539,5540,5541,5542,5729,5730,5731,5732,5733,5734,0,0,0,0,0,0,
5571,5572,5573,5574,5761,5762,5763,5764,5765,5766,0,0,0,0,0,0,
5603,5604,5605,5606,5409,5410,5411,5412,5413,5414,0,0,0,0,0,0,
5635,5636,5637,5638,5441,5442,5443,5444,5445,5446,0,0,0,0,0,0
</chunk>
   <chunk x="-112" y="-64" width="16" height="16">
0,0,0,0,0,0,0,0,0,0,5473,5474,5475,5476,5477,5478,
0,0,0,0,0,0,0,0,0,0,5505,5506,5507,5508,5509,5510,
0,0,0,0,0,0,0,0,0,0,5537,5538,5539,5540,5541,5542,
0,0,0,0,0,0,0,0,0,0,5569,5570,5571,5572,5573,5574,
0,0,0,0,0,0,0,0,0,0,5601,5602,5603,5604,5605,5606,
0,0,0,0,0,0,0,0,0,0,5633,5634,5635,5636,5637,5638,
0,0,0,0,0,0,0,0,0,0,5665,5666,5667,5668,5669,5670,
0,0,0,0,0,0,0,0,0,0,5697,5698,5699,5700,5701,5702,
0,0,0,0,0,0,0,0,0,0,5729,5730,5731,5732,5733,5734,
0,0,0,0,0,0,0,0,0,0,5761,5762,5763,5764,5765,5766,
0,0,0,0,0,0,0,0,0,0,5409,5410,5411,5412,5413,5414,
0,0,0,0,0,0,0,0,0,0,5441,5442,5443,5444,5445,5446,
0,0,0,0,0,0,0,0,0,0,5473,5474,5475,5476,5477,5478,
0,0,0,0,0,0,0,0,0,0,5505,5506,5507,5508,5509,5510,
0,0,0,0,0,0,0,0,0,0,5537,5538,5539,5540,5541,5542,
0,0,0,0,0,0,0,0,0,0,5569,5570,5571,5572,5573,5574
</chunk>
   <chunk x="-96" y="-64" width="16" height="16">
5665,5666,5667,5668,5669,5670,6803,6804,6805,6806,6807,6808,5665,5666,5667,5668,
5697,5698,5699,5700,5701,5702,6835,6836,6837,6838,6839,6840,5697,5698,5699,5700,
5729,5730,5731,5732,5733,5734,6867,6868,6869,6870,6871,6872,5729,5730,5731,5732,
5761,5762,5763,5764,5765,5766,6899,6900,6901,6902,6903,6904,5761,5762,5763,5764,
5409,5410,5411,5412,5413,5414,6931,6932,6933,6934,6935,6936,6739,6740,6741,6742,
5441,5442,5443,5444,5445,5446,6963,6964,6965,6966,6967,6968,6771,6772,6773,6774,
5473,5474,5475,5476,5477,5478,6995,6996,6997,6998,6999,7000,6803,6804,6805,6806,
5505,5506,5507,5508,5509,5510,7027,7028,7029,7030,7031,7032,6835,6836,6837,6838,
5537,5538,5539,5540,5541,5542,7059,7060,7061,7062,7063,7064,6867,6868,6869,6870,
5569,5570,5571,5572,5573,5574,7091,7092,7093,7094,7095,7096,6899,6900,6901,6902,
5601,5602,5603,5604,5605,5606,6739,6740,6741,6742,6743,6744,6931,6932,6933,6934,
5633,5634,5635,5636,5637,5638,6771,6772,6773,6774,6775,6776,6963,6964,6965,6966,
5665,5666,5667,5668,5669,5670,6803,6804,6805,6806,6807,6808,6995,6996,6997,6998,
5697,5698,5699,5700,5701,5702,6835,6836,6837,6838,6839,6840,7027,7028,7029,7030,
5729,5730,5731,5732,5733,5734,6867,6868,6869,6870,6871,6872,7059,7060,7061,7062,
5761,5762,5763,5764,5765,5766,6899,6900,6901,6902,6903,6904,7091,7092,7093,7094
</chunk>
   <chunk x="-80" y="-64" width="16" height="16">
5669,5670,6803,6804,6805,6806,6807,6808,2147491158,2147491157,8139,8140,8139,8140,8139,8140,
5701,5702,6835,6836,6837,6838,6839,6840,2147491190,2147491189,8171,8172,8171,8172,8171,8172,
5733,5734,6867,6868,6869,6870,6871,6872,2147491160,2147491159,8139,8140,8139,8140,8139,8140,
5765,5766,6899,6900,6901,6902,6903,6904,2147491192,2147491191,8171,8172,8171,8172,8171,8172,
6743,6744,6931,6932,6933,6934,6935,6936,2147491162,2147491161,8139,8140,8139,8140,8139,8140,
6775,6776,6963,6964,6965,6966,6967,6968,2147491194,2147491193,8171,8172,8171,8172,8171,8172,
6807,6808,6995,6996,6997,6998,6999,7000,2147491272,2147491271,8139,8140,8139,8140,8139,8140,
6839,6840,7027,7028,7029,7030,7031,7032,2147491304,2147491303,8171,8172,8171,8172,8171,8172,
6871,6872,7059,7060,7061,7062,7063,7064,2147491294,2147491293,8139,8140,8139,8140,8139,8140,
6903,6904,7091,7092,7093,7094,7095,7096,2147491326,2147491325,8171,8172,8171,8172,8171,8172,
6935,6936,6739,6740,6741,6742,6743,6744,2147491156,2147491155,8139,8140,8139,8140,8139,8140,
6967,6968,6771,6772,6773,6774,6775,6776,2147491188,2147491187,8171,8172,8171,8172,8171,8172,
6999,7000,6803,6804,6805,6806,6807,6808,2147491158,2147491157,8139,8140,8139,8140,8139,8140,
7031,7032,6835,6836,6837,6838,6839,6840,2147491190,2147491189,8171,8172,8171,8172,8171,8172,
7063,7064,6867,6868,6869,6870,6871,6872,2147491160,2147491159,8139,8140,8139,8140,8139,8140,
7095,7096,6899,6900,6901,6902,6903,6904,2147491192,2147491191,8171,8172,8171,8172,8171,8172
</chunk>
   <chunk x="-64" y="-64" width="16" height="16">
8139,8140,8139,8140,8139,8140,8139,8140,8139,8140,7693,7694,7695,7696,7697,7698,
8171,8172,8171,8172,8171,8172,8171,8172,8171,8172,7725,7726,7727,7728,7729,7730,
8139,8140,8139,8140,8139,8140,8139,8140,8139,8140,8139,8140,8139,8140,8139,8140,
8171,8172,8171,8172,8171,8172,8171,8172,8171,8172,8171,8172,8171,8172,8171,8172,
8139,8140,8139,8140,8139,8140,8139,8140,8139,8140,8139,8140,8139,8140,8139,8140,
8171,8172,8171,8172,8171,8172,8171,8172,8171,8172,8171,8172,8171,8172,8171,8172,
8139,8140,8139,8140,8139,8140,8139,8140,8139,8140,8139,8140,8139,8140,8139,8140,
8171,8172,8171,8172,8171,8172,8171,8172,8171,8172,8171,8172,8171,8172,8171,8172,
8139,8140,8139,8140,8139,8140,8139,8140,8139,8140,8139,8140,8139,8140,8139,8140,
8171,8172,8171,8172,8171,8172,8171,8172,8171,8172,8171,8172,8171,8172,8171,8172,
8139,8140,8139,8140,8139,8140,8139,8140,8139,8140,8139,8140,8139,8140,8139,8140,
8171,8172,8171,8172,8171,8172,8171,8172,8171,8172,8171,8172,8171,8172,8171,8172,
8139,8140,8139,8140,8139,8140,8139,8140,8139,8140,8139,8140,8139,8140,8139,8140,
8171,8172,8171,8172,8171,8172,8171,8172,8171,8172,8171,8172,8171,8172,8171,8172,
8139,8140,8139,8140,8035,8036,2147491686,2147491685,2147491684,2147491683,8139,8140,8139,8140,8139,8140,
8171,8172,8171,8172,8067,8068,2147491718,2147491717,2147491716,2147491715,8171,8172,8171,8172,8171,8172
</chunk>
   <chunk x="-48" y="-64" width="16" height="16">
7699,7700,8139,8140,8139,8140,8139,8140,8139,8140,8139,8140,8139,8140,8139,8140,
7731,7732,8171,8172,8171,8172,8171,8172,8171,8172,8171,8172,8171,8172,8171,8172,
8139,8140,8139,8140,8139,8140,8139,8140,8139,8140,8139,8140,8139,8140,8139,8140,
8171,8172,8171,8172,8171,8172,8171,8172,8171,8172,8171,8172,8171,8172,8171,8172,
8139,8140,8139,8140,8139,8140,8139,8140,8139,8140,8139,8140,8139,8140,8139,8140,
8171,8172,8171,8172,8171,8172,8171,8172,8171,8172,8171,8172,8171,8172,8171,8172,
8139,8140,8139,8140,8139,8140,8139,8140,8139,8140,8139,8140,8139,8140,8139,8140,
8171,8172,8171,8172,8171,8172,8171,8172,8171,8172,8171,8172,8171,8172,8171,8172,
8139,8140,8139,8140,8139,8140,8139,8140,8139,8140,8139,8140,8139,8140,8139,8140,
8171,8172,8171,8172,8171,8172,8171,8172,8171,8172,8171,8172,8171,8172,8171,8172,
8139,8140,8139,8140,8139,8140,8139,8140,8139,8140,8139,8140,8139,8140,8139,8140,
8171,8172,8171,8172,8171,8172,8171,8172,8171,8172,8171,8172,8171,8172,8171,8172,
8139,8140,8139,8140,8139,8140,8139,8140,8139,8140,8139,8140,8139,8140,8139,8140,
8171,8172,8171,8172,8171,8172,8171,8172,8171,8172,8171,8172,8171,8172,8171,8172,
8139,8140,8139,8140,8139,8140,8139,8140,8139,8140,8139,8140,8139,8140,8139,8140,
8171,8172,8171,8172,8171,8172,8171,8172,8171,8172,8171,8172,8171,8172,8171,8172
</chunk>
   <chunk x="-32" y="-64" width="16" height="16">
8139,8140,8139,8140,8139,8140,8139,8140,8139,8140,8139,8140,8139,8140,7693,7694,
8171,8172,8171,8172,8171,8172,8171,8172,8171,8172,8171,8172,8171,8172,7725,7726,
8139,8140,8139,8140,8139,8140,8139,8140,8139,8140,8139,8140,8139,8140,8139,8140,
8171,8172,8171,8172,8171,8172,8171,8172,8171,8172,8171,8172,8171,8172,8171,8172,
8139,8140,8139,8140,8139,8140,8139,8140,8139,8140,8139,8140,8139,8140,8139,8140,
8171,8172,8171,8172,8171,8172,8171,8172,8171,8172,8171,8172,8171,8172,8171,8172,
8139,8140,8139,8140,8139,8140,8139,8140,8139,8140,8139,8140,8139,8140,8139,8140,
8171,8172,8171,8172,8171,8172,8171,8172,8171,8172,8171,8172,8171,8172,8171,8172,
8139,8140,8139,8140,8139,8140,8139,8140,8139,8140,8139,8140,8139,8140,8139,8140,
8171,8172,8171,8172,8171,8172,8171,8172,8171,8172,8171,8172,8171,8172,8171,8172,
8139,8140,8139,8140,8139,8140,8139,8140,8139,8140,8139,8140,8139,8140,8139,8140,
8171,8172,8171,8172,8171,8172,8171,8172,8171,8172,8171,8172,8171,8172,8171,8172,
8139,8140,8139,8140,8139,8140,8139,8140,8139,8140,8139,8140,8139,8140,8139,8140,
8171,8172,8171,8172,8171,8172,8171,8172,8171,8172,8171,8172,8171,8172,8171,8172,
8139,8140,8139,8140,8139,8140,8139,8140,8139,8140,8139,8140,8139,8140,8139,8140,
8171,8172,8171,8172,8171,8172,8171,8172,8171,8172,8171,8172,8171,8172,8171,8172
</chunk>
   <chunk x="-16" y="-64" width="16" height="16">
7695,7696,7697,7698,7699,7700,8139,8140,8139,8140,8139,8140,8139,8140,8139,8140,
7727,7728,7729,7730,7731,7732,8171,8172,8171,8172,8171,8172,8171,8172,8171,8172,
8139,8140,8139,8140,8139,8140,8139,8140,8139,8140,8139,8140,8139,8140,8139,8140,
8171,8172,8171,8172,8171,8172,8171,8172,8171,8172,8171,8172,8171,8172,8171,8172,
8139,8140,8139,8140,8139,8140,8139,8140,8139,8140,8139,8140,8139,8140,8139,8140,
8171,8172,8171,8172,8171,8172,8171,8172,8171,8172,8171,8172,8171,8172,8171,8172,
8139,8140,8139,8140,8139,8140,8139,8140,8139,8140,8139,8140,8139,8140,8139,8140,
8171,8172,8171,8172,8171,8172,8171,8172,8171,8172,8171,8172,8171,8172,8171,8172,
8139,8140,8139,8140,8139,8140,8139,8140,8139,8140,8139,8140,8139,8140,8139,8140,
8171,8172,8171,8172,8171,8172,8171,8172,8171,8172,8171,8172,8171,8172,8171,8172,
8139,8140,8139,8140,8139,8140,8139,8140,8139,8140,8139,8140,8139,8140,8139,8140,
8171,8172,8171,8172,8171,8172,8171,8172,8171,8172,8171,8172,8171,8172,8171,8172,
8139,8140,8139,8140,8139,8140,8139,8140,8139,8140,8139,8140,8139,8140,8139,8140,
8171,8172,8171,8172,8171,8172,8171,8172,8171,8172,8171,8172,8171,8172,8171,8172,
8139,8140,8139,8140,8035,8036,2147491686,2147491685,2147491684,2147491683,8035,8036,2147491686,2147491685,2147491684,2147491683,
8171,8172,8171,8172,8067,8068,2147491718,2147491717,2147491716,2147491715,8067,8068,2147491718,2147491717,2147491716,2147491715
</chunk>
   <chunk x="0" y="-64" width="16" height="16">
8139,8140,8139,8140,8139,8140,8139,8140,8139,8140,8139,8140,8139,8140,8139,8140,
8171,8172,8171,8172,8171,8172,8171,8172,8171,8172,8171,8172,8171,8172,8171,8172,
8139,8140,8139,8140,8139,8140,8139,8140,8139,8140,8139,8140,8139,8140,8139,8140,
8171,8172,8171,8172,8171,8172,8171,8172,8171,8172,8171,8172,8171,8172,8171,8172,
8139,8140,8139,8140,8139,8140,8139,8140,8139,8140,8139,8140,8139,8140,8139,8140,
8171,8172,8171,8172,8171,8172,8171,8172,8171,8172,8171,8172,8171,8172,8171,8172,
8139,8140,8139,8140,8139,8140,8139,8140,8139,8140,8139,8140,8139,8140,8139,8140,
8171,8172,8171,8172,8171,8172,8171,8172,8171,8172,8171,8172,8171,8172,8171,8172,
8139,8140,8139,8140,8139,8140,8139,8140,8139,8140,8139,8140,8139,8140,8139,8140,
8171,8172,8171,8172,8171,8172,8171,8172,8171,8172,8171,8172,8171,8172,8171,8172,
8139,8140,8139,8140,8139,8140,8139,8140,8139,8140,8139,8140,8139,8140,8139,8140,
8171,8172,8171,8172,8171,8172,8171,8172,8171,8172,8171,8172,8171,8172,8171,8172,
8139,8140,8139,8140,8139,8140,8139,8140,8139,8140,8139,8140,8139,8140,8139,8140,
8171,8172,8171,8172,8171,8172,8171,8172,8171,8172,8171,8172,8171,8172,8171,8172,
2147491620,2147491619,7629,7630,7971,7972,8035,8036,2147491686,2147491685,2147491684,2147491683,8139,8140,8139,8140,
2147491652,2147491651,7661,7662,8003,8004,8067,8068,2147491718,2147491717,2147491716,2147491715,8171,8172,8171,8172
</chunk>
   <chunk x="16" y="-64" width="16" height="16">
8139,8140,8139,8140,8139,8140,8139,8140,8139,8140,8139,8140,8139,8140,8139,8140,
8171,8172,8171,8172,8171,8172,8171,8172,8171,8172,8171,8172,8171,8172,8171,8172,
8139,8140,8139,8140,8139,8140,8139,8140,8139,8140,8139,8140,8139,8140,8139,8140,
8171,8172,8171,8172,8171,8172,8171,8172,8171,8172,8171,8172,8171,8172,8171,8172,
8139,8140,8139,8140,8139,8140,8139,8140,8139,8140,8139,8140,8139,8140,8139,8140,
8171,8172,8171,8172,8171,8172,8171,8172,8171,8172,8171,8172,8171,8172,8171,8172,
8139,8140,8139,8140,8139,8140,8139,8140,8139,8140,8139,8140,8139,8140,8139,8140,
8171,8172,8171,8172,8171,8172,8171,8172,8171,8172,8171,8172,8171,8172,8171,8172,
8139,8140,8139,8140,8139,8140,8139,8140,8139,8140,8139,8140,8139,8140,8139,8140,
8171,8172,8171,8172,8171,8172,8171,8172,8171,8172,8171,8172,8171,8172,8171,8172,
8139,8140,8139,8140,8139,8140,8139,8140,8139,8140,8139,8140,8139,8140,8139,8140,
8171,8172,8171,8172,8171,8172,8171,8172,8171,8172,8171,8172,8171,8172,8171,8172,
8139,8140,8139,8140,8139,8140,8139,8140,8139,8140,8139,8140,8139,8140,8139,8140,
8171,8172,8171,8172,8171,8172,8171,8172,8171,8172,8171,8172,8171,8172,8171,8172,
8139,8140,8139,8140,8139,8140,8139,8140,8139,8140,8139,8140,8139,8140,8139,8140,
8171,8172,8171,8172,8171,8172,8171,8172,8171,8172,8171,8172,8171,8172,8171,8172
</chunk>
   <chunk x="32" y="-64" width="16" height="16">
8139,8140,8139,8140,8139,8140,8139,8140,8139,8140,8139,8140,8139,8140,8139,8140,
8171,8172,8171,8172,8171,8172,8171,8172,8171,8172,8171,8172,8171,8172,8171,8172,
8139,8140,8139,8140,8139,8140,8139,8140,8139,8140,8139,8140,8139,8140,8139,8140,
8171,8172,8171,8172,8171,8172,8171,8172,8171,8172,8171,8172,8171,8172,8171,8172,
8139,8140,8139,8140,8139,8140,8139,8140,8139,8140,8139,8140,8139,8140,8139,8140,
8171,8172,8171,8172,8171,8172,8171,8172,8171,8172,8171,8172,8171,8172,8171,8172,
8139,8140,8139,8140,8139,8140,8139,8140,8139,8140,8139,8140,8139,8140,8139,8140,
8171,8172,8171,8172,8171,8172,8171,8172,8171,8172,8171,8172,8171,8172,8171,8172,
8139,8140,8139,8140,8139,8140,8139,8140,8139,8140,8139,8140,8139,8140,8139,8140,
8171,8172,8171,8172,8171,8172,8171,8172,8171,8172,8171,8172,8171,8172,8171,8172,
8139,8140,8139,8140,8139,8140,8139,8140,8139,8140,8139,8140,8139,8140,8139,8140,
8171,8172,8171,8172,8171,8172,8171,8172,8171,8172,8171,8172,8171,8172,8171,8172,
8139,8140,8139,8140,8139,8140,8139,8140,8139,8140,8139,8140,8139,8140,8139,8140,
8171,8172,8171,8172,8171,8172,8171,8172,8171,8172,8171,8172,8171,8172,8171,8172,
8139,8140,8139,8140,8139,8140,8139,8140,8139,8140,8139,8140,8139,8140,8139,8140,
8171,8172,8171,8172,8171,8172,8171,8172,8171,8172,8171,8172,8171,8172,8171,8172
</chunk>
   <chunk x="48" y="-64" width="16" height="16">
8139,8140,8139,8140,8139,8140,8139,8140,8139,8140,8139,8140,7625,7626,8139,8140,
8171,8172,8171,8172,8171,8172,8171,8172,8171,8172,8171,8172,7657,7658,8171,8172,
8139,8140,7637,7638,7639,7640,7641,7642,7643,7644,7687,7688,7689,7690,7691,7692,
8171,8172,7669,7670,7671,7672,7673,7674,7675,7676,7719,7720,7721,7722,7723,7724,
8139,8140,7701,7702,7703,7704,7705,7706,7707,7708,7709,7710,8139,8140,7631,7632,
8171,8172,7733,7734,7735,7736,7737,7738,7739,7740,7741,7742,8171,8172,7663,7664,
8139,8140,8139,8140,8139,8140,8139,8140,8139,8140,8139,8140,7693,7694,7695,7696,
8171,8172,8171,8172,8171,8172,8171,8172,8171,8172,8171,8172,7725,7726,7727,7728,
8139,8140,8139,8140,8139,8140,8139,8140,8139,8140,8139,8140,8139,8140,8139,8140,
8171,8172,8171,8172,8171,8172,8171,8172,8171,8172,8171,8172,8171,8172,8171,8172,
8139,8140,8139,8140,8139,8140,8139,8140,8139,8140,8139,8140,8139,8140,8139,8140,
8171,8172,8171,8172,8171,8172,8171,8172,8171,8172,8171,8172,8171,8172,8171,8172,
8139,8140,8139,8140,8139,8140,8139,8140,8139,8140,8139,8140,8139,8140,8139,8140,
8171,8172,8171,8172,8171,8172,8171,8172,8171,8172,8171,8172,8171,8172,8171,8172,
8139,8140,8139,8140,8139,8140,8139,8140,8139,8140,8139,8140,8139,8140,8139,8140,
8171,8172,8171,8172,8171,8172,8171,8172,8171,8172,8171,8172,8171,8172,8171,8172
</chunk>
   <chunk x="64" y="-64" width="16" height="16">
8139,8140,8139,8140,8139,8140,8139,8140,8139,8140,8139,8140,7509,7510,5665,5666,
8171,8172,8171,8172,8171,8172,8171,8172,8171,8172,8171,8172,7541,7542,5697,5698,
8139,8140,8139,8140,8139,8140,8139,8140,8139,8140,8139,8140,7511,7512,5729,5730,
8171,8172,8171,8172,8171,8172,8171,8172,8171,8172,8171,8172,7543,7544,5761,5762,
7633,7634,7635,7636,8139,8140,8139,8140,8139,8140,8139,8140,7513,7514,5409,5410,
7665,7666,7667,7668,8171,8172,8171,8172,8171,8172,8171,8172,7545,7546,5441,5442,
7697,7698,7699,7700,8139,8140,8139,8140,8139,8140,8139,8140,7623,7624,5473,5474,
7729,7730,7731,7732,8171,8172,8171,8172,8171,8172,8171,8172,7655,7656,5505,5506,
8139,8140,8139,8140,8139,8140,8139,8140,8139,8140,8139,8140,7645,7646,5537,5538,
8171,8172,8171,8172,8171,8172,8171,8172,8171,8172,8171,8172,7677,7678,5569,5570,
8139,8140,8139,8140,8139,8140,8139,8140,8139,8140,8139,8140,7507,7508,6919,6920,
8171,8172,8171,8172,8171,8172,8171,8172,8171,8172,8171,8172,7539,7540,6951,6952,
8139,8140,8139,8140,8139,8140,8139,8140,8139,8140,8139,8140,7509,7510,6983,6984,
8171,8172,8171,8172,8171,8172,8171,8172,8171,8172,8171,8172,7541,7542,7015,7016,
8139,8140,8139,8140,8139,8140,8139,8140,8035,8036,8037,8038,7627,7628,7843,7844,
8171,8172,8171,8172,8171,8172,8171,8172,8067,8068,8069,8070,7659,7660,7875,7876
</chunk>
   <chunk x="80" y="-64" width="16" height="16">
5667,5668,5669,5670,6797,6798,6799,6800,6801,6802,6989,6990,6991,6992,6993,6994,
5699,5700,5701,5702,6829,6830,6831,6832,6833,6834,7021,7022,7023,7024,7025,7026,
5731,5732,5733,5734,6861,6862,6863,6864,6865,6866,7053,7054,7055,7056,7057,7058,
5763,5764,5765,5766,6893,6894,6895,6896,6897,6898,7085,7086,7087,7088,7089,7090,
5411,5412,5413,5414,6925,6926,6927,6928,6929,6930,6733,6734,6735,6736,6737,6738,
5443,5444,5445,5446,6957,6958,6959,6960,6961,6962,6765,6766,6767,6768,6769,6770,
5475,5476,5477,5478,6989,6990,6991,6992,6993,6994,6797,6798,6799,6800,6801,6802,
5507,5508,5509,5510,7021,7022,7023,7024,7025,7026,6829,6830,6831,6832,6833,6834,
5539,5540,5541,5542,7053,7054,7055,7056,7057,7058,6861,6862,6863,6864,6865,6866,
5571,5572,5573,5574,7085,7086,7087,7088,7089,7090,6893,6894,6895,6896,6897,6898,
6921,6922,6923,6924,5409,5410,5411,5412,5413,5414,6925,6926,6927,6928,6929,6930,
6953,6954,6955,6956,5441,5442,5443,5444,5445,5446,6957,6958,6959,6960,6961,6962,
6985,6986,6987,6988,5473,5474,5475,5476,5477,5478,6989,6990,6991,6992,6993,6994,
7017,7018,7019,7020,5505,5506,5507,5508,5509,5510,7021,7022,7023,7024,7025,7026,
7573,7574,7569,7570,5537,5538,5539,5540,5541,5542,7053,7054,7055,7056,7057,7058,
7605,7606,7601,7602,5569,5570,5571,5572,5573,5574,7085,7086,7087,7088,7089,7090
</chunk>
   <chunk x="96" y="-64" width="16" height="16">
5473,5474,5475,5476,5477,5478,5665,5666,5667,5668,5669,5670,6803,6804,6805,6806,
5505,5506,5507,5508,5509,5510,5697,5698,5699,5700,5701,5702,6835,6836,6837,6838,
5537,5538,5539,5540,5541,5542,5729,5730,5731,5732,5733,5734,6867,6868,6869,6870,
5569,5570,5571,5572,5573,5574,5761,5762,5763,5764,5765,5766,6899,6900,6901,6902,
5601,5602,5603,5604,5605,5606,5409,5410,5411,5412,5413,5414,6931,6932,6933,6934,
5633,5634,5635,5636,5637,5638,5441,5442,5443,5444,5445,5446,6963,6964,6965,6966,
5665,5666,5667,5668,5669,5670,5473,5474,5475,5476,5477,5478,6995,6996,6997,6998,
5697,5698,5699,5700,5701,5702,5505,5506,5507,5508,5509,5510,7027,7028,7029,7030,
5729,5730,5731,5732,5733,5734,5537,5538,5539,5540,5541,5542,7059,7060,7061,7062,
5761,5762,5763,5764,5765,5766,5569,5570,5571,5572,5573,5574,7091,7092,7093,7094,
5409,5410,5411,5412,5413,5414,5601,5602,5603,5604,5605,5606,6739,6740,6741,6742,
5441,5442,5443,5444,5445,5446,5633,5634,5635,5636,5637,5638,6771,6772,6773,6774,
5473,5474,5475,5476,5477,5478,5665,5666,5667,5668,5669,5670,6803,6804,6805,6806,
5505,5506,5507,5508,5509,5510,5697,5698,5699,5700,5701,5702,6835,6836,6837,6838,
5537,5538,5539,5540,5541,5542,5729,5730,5731,5732,5733,5734,6867,6868,6869,6870,
5569,5570,5571,5572,5573,5574,5761,5762,5763,5764,5765,5766,6899,6900,6901,6902
</chunk>
   <chunk x="112" y="-64" width="16" height="16">
6807,6808,5665,5666,5667,5668,5669,5670,5473,5474,5475,5476,5477,5478,6989,6990,
6839,6840,5697,5698,5699,5700,5701,5702,5505,5506,5507,5508,5509,5510,7021,7022,
6871,6872,5729,5730,5731,5732,5733,5734,5537,5538,5539,5540,5541,5542,7053,7054,
6903,6904,5761,5762,5763,5764,5765,5766,5569,5570,5571,5572,5573,5574,7085,7086,
6935,6936,5409,5410,5411,5412,5413,5414,5601,5602,5603,5604,5605,5606,6733,6734,
6967,6968,5441,5442,5443,5444,5445,5446,5633,5634,5635,5636,5637,5638,6765,6766,
6999,7000,5473,5474,5475,5476,5477,5478,5665,5666,5667,5668,5669,5670,6797,6798,
7031,7032,5505,5506,5507,5508,5509,5510,5697,5698,5699,5700,5701,5702,6829,6830,
7063,7064,5537,5538,5539,5540,5541,5542,5729,5730,5731,5732,5733,5734,6861,6862,
7095,7096,5569,5570,5571,5572,5573,5574,5761,5762,5763,5764,5765,5766,6893,6894,
6743,6744,5601,5602,5603,5604,5605,5606,5409,5410,5411,5412,5413,5414,5601,5602,
6775,6776,5633,5634,5635,5636,5637,5638,5441,5442,5443,5444,5445,5446,5633,5634,
6807,6808,5665,5666,5667,5668,5669,5670,5473,5474,5475,5476,5477,5478,5665,5666,
6839,6840,5697,5698,5699,5700,5701,5702,5505,5506,5507,5508,5509,5510,5697,5698,
6871,6872,5729,5730,5731,5732,5733,5734,5537,5538,5539,5540,5541,5542,5729,5730,
6903,6904,5761,5762,5763,5764,5765,5766,5569,5570,5571,5572,5573,5574,5761,5762
</chunk>
   <chunk x="128" y="-64" width="16" height="16">
6991,6992,6993,6994,6797,6798,6799,6800,6801,6802,5665,5666,5667,5668,5669,5670,
7023,7024,7025,7026,6829,6830,6831,6832,6833,6834,5697,5698,5699,5700,5701,5702,
7055,7056,7057,7058,6861,6862,6863,6864,6865,6866,5729,5730,5731,5732,5733,5734,
7087,7088,7089,7090,6893,6894,6895,6896,6897,6898,5761,5762,5763,5764,5765,5766,
6735,6736,6737,6738,6925,6926,6927,6928,6929,6930,5409,5410,5411,5412,5413,5414,
6767,6768,6769,6770,6957,6958,6959,6960,6961,6962,5441,5442,5443,5444,5445,5446,
6799,6800,6801,6802,6989,6990,6991,6992,6993,6994,5473,5474,5475,5476,5477,5478,
6831,6832,6833,6834,7021,7022,7023,7024,7025,7026,5505,5506,5507,5508,5509,5510,
6863,6864,6865,6866,7053,7054,7055,7056,7057,7058,5537,5538,5539,5540,5541,5542,
6895,6896,6897,6898,7085,7086,7087,7088,7089,7090,5569,5570,5571,5572,5573,5574,
5603,5604,5605,5606,6733,6734,6735,6736,6737,6738,5601,5602,5603,5604,5605,5606,
5635,5636,5637,5638,6765,6766,6767,6768,6769,6770,5633,5634,5635,5636,5637,5638,
5667,5668,5669,5670,6797,6798,6799,6800,6801,6802,5665,5666,5667,5668,5669,5670,
5699,5700,5701,5702,6829,6830,6831,6832,6833,6834,5697,5698,5699,5700,5701,5702,
5731,5732,5733,5734,6861,6862,6863,6864,6865,6866,5729,5730,5731,5732,5733,5734,
5763,5764,5765,5766,6893,6894,6895,6896,6897,6898,5761,5762,5763,5764,5765,5766
</chunk>
   <chunk x="144" y="-64" width="16" height="16">
5473,5474,5475,5476,5477,5478,5665,5666,5667,5668,5669,5670,6803,6804,6805,6806,
5505,5506,5507,5508,5509,5510,5697,5698,5699,5700,5701,5702,6835,6836,6837,6838,
5537,5538,5539,5540,5541,5542,5729,5730,5731,5732,5733,5734,6867,6868,6869,6870,
5569,5570,5571,5572,5573,5574,5761,5762,5763,5764,5765,5766,6899,6900,6901,6902,
5601,5602,5603,5604,5605,5606,5409,5410,5411,5412,5413,5414,6931,6932,6933,6934,
5633,5634,5635,5636,5637,5638,5441,5442,5443,5444,5445,5446,6963,6964,6965,6966,
5665,5666,5667,5668,5669,5670,5473,5474,5475,5476,5477,5478,6995,6996,6997,6998,
5697,5698,5699,5700,5701,5702,5505,5506,5507,5508,5509,5510,7027,7028,7029,7030,
5729,5730,5731,5732,5733,5734,5537,5538,5539,5540,5541,5542,7059,7060,7061,7062,
5761,5762,5763,5764,5765,5766,5569,5570,5571,5572,5573,5574,7091,7092,7093,7094,
5409,5410,5411,5412,5413,5414,5601,5602,5603,5604,5605,5606,6739,6740,6741,6742,
5441,5442,5443,5444,5445,5446,5633,5634,5635,5636,5637,5638,6771,6772,6773,6774,
5473,5474,5475,5476,5477,5478,5665,5666,5667,5668,5669,5670,6803,6804,6805,6806,
5505,5506,5507,5508,5509,5510,5697,5698,5699,5700,5701,5702,6835,6836,6837,6838,
5537,5538,5539,5540,5541,5542,5729,5730,5731,5732,5733,5734,6867,6868,6869,6870,
5569,5570,5571,5572,5573,5574,5761,5762,5763,5764,5765,5766,6899,6900,6901,6902
</chunk>
   <chunk x="160" y="-64" width="16" height="16">
6807,6808,6995,6996,6997,6998,6999,7000,6803,6804,6805,6806,6807,6808,5665,5666,
6839,6840,7027,7028,7029,7030,7031,7032,6835,6836,6837,6838,6839,6840,5697,5698,
6871,6872,7059,7060,7061,7062,7063,7064,6867,6868,6869,6870,6871,6872,5729,5730,
6903,6904,7091,7092,7093,7094,7095,7096,6899,6900,6901,6902,6903,6904,5761,5762,
6935,6936,6739,6740,6741,6742,6743,6744,6931,6932,6933,6934,6935,6936,5409,5410,
6967,6968,6771,6772,6773,6774,6775,6776,6963,6964,6965,6966,6967,6968,5441,5442,
6999,7000,6803,6804,6805,6806,6807,6808,6995,6996,6997,6998,6999,7000,5473,5474,
7031,7032,6835,6836,6837,6838,6839,6840,7027,7028,7029,7030,7031,7032,5505,5506,
7063,7064,6867,6868,6869,6870,6871,6872,7059,7060,7061,7062,7063,7064,5537,5538,
7095,7096,6899,6900,6901,6902,6903,6904,7091,7092,7093,7094,7095,7096,5569,5570,
6743,6744,6931,6932,6933,6934,6935,6936,5409,5410,5411,5412,5413,5414,5601,5602,
6775,6776,6963,6964,6965,6966,6967,6968,5441,5442,5443,5444,5445,5446,5633,5634,
6807,6808,6995,6996,6997,6998,6999,7000,5473,5474,5475,5476,5477,5478,5665,5666,
6839,6840,7027,7028,7029,7030,7031,7032,5505,5506,5507,5508,5509,5510,5697,5698,
6871,6872,7059,7060,7061,7062,7063,7064,5537,5538,5539,5540,5541,5542,5729,5730,
6903,6904,7091,7092,7093,7094,7095,7096,5569,5570,5571,5572,5573,5574,5761,5762
</chunk>
   <chunk x="176" y="-64" width="16" height="16">
5667,5668,5669,5670,5473,5474,5475,5476,5477,5478,0,0,0,0,0,0,
5699,5700,5701,5702,5505,5506,5507,5508,5509,5510,0,0,0,0,0,0,
5731,5732,5733,5734,5537,5538,5539,5540,5541,5542,0,0,0,0,0,0,
5763,5764,5765,5766,5569,5570,5571,5572,5573,5574,0,0,0,0,0,0,
5411,5412,5413,5414,5601,5602,5603,5604,5605,5606,0,0,0,0,0,0,
5443,5444,5445,5446,5633,5634,5635,5636,5637,5638,0,0,0,0,0,0,
5475,5476,5477,5478,5665,5666,5667,5668,5669,5670,0,0,0,0,0,0,
5507,5508,5509,5510,5697,5698,5699,5700,5701,5702,0,0,0,0,0,0,
5539,5540,5541,5542,5729,5730,5731,5732,5733,5734,0,0,0,0,0,0,
5571,5572,5573,5574,5761,5762,5763,5764,5765,5766,0,0,0,0,0,0,
5603,5604,5605,5606,5409,5410,5411,5412,5413,5414,0,0,0,0,0,0,
5635,5636,5637,5638,5441,5442,5443,5444,5445,5446,0,0,0,0,0,0,
5667,5668,5669,5670,5473,5474,5475,5476,5477,5478,0,0,0,0,0,0,
5699,5700,5701,5702,5505,5506,5507,5508,5509,5510,0,0,0,0,0,0,
5731,5732,5733,5734,5537,5538,5539,5540,5541,5542,0,0,0,0,0,0,
5763,5764,5765,5766,5569,5570,5571,5572,5573,5574,0,0,0,0,0,0
</chunk>
   <chunk x="-112" y="-48" width="16" height="16">
0,0,0,0,0,0,0,0,0,0,5601,5602,5603,5604,5605,5606,
0,0,0,0,0,0,0,0,0,0,5633,5634,5635,5636,5637,5638,
0,0,0,0,0,0,0,0,0,0,5665,5666,5667,5668,5669,5670,
0,0,0,0,0,0,0,0,0,0,5697,5698,5699,5700,5701,5702,
0,0,0,0,0,0,0,0,0,0,5729,5730,5731,5732,5733,5734,
0,0,0,0,0,0,0,0,0,0,5761,5762,5763,5764,5765,5766,
0,0,0,0,0,0,0,0,0,0,5409,5410,5411,5412,5413,5414,
0,0,0,0,0,0,0,0,0,0,5441,5442,5443,5444,5445,5446,
0,0,0,0,0,0,0,0,0,0,5473,5474,5475,5476,5477,5478,
0,0,0,0,0,0,0,0,0,0,5505,5506,5507,5508,5509,5510,
0,0,0,0,0,0,0,0,0,0,5537,5538,5539,5540,5541,5542,
0,0,0,0,0,0,0,0,0,0,5569,5570,5571,5572,5573,5574,
0,0,0,0,0,0,0,0,0,0,5601,5602,5603,5604,5605,5606,
0,0,0,0,0,0,0,0,0,0,5633,5634,5635,5636,5637,5638,
0,0,0,0,0,0,0,0,0,0,5665,5666,5667,5668,5669,5670,
0,0,0,0,0,0,0,0,0,0,5697,5698,5699,5700,5701,5702
</chunk>
   <chunk x="-96" y="-48" width="16" height="16">
5409,5410,5411,5412,5413,5414,6931,6932,6933,6934,6935,6936,6739,6740,6741,6742,
5441,5442,5443,5444,5445,5446,6963,6964,6965,6966,6967,6968,6771,6772,6773,6774,
5473,5474,5475,5476,5477,5478,6995,6996,6997,6998,6999,7000,6803,6804,6805,6806,
5505,5506,5507,5508,5509,5510,7027,7028,7029,7030,7031,7032,6835,6836,6837,6838,
5537,5538,5539,5540,5541,5542,7059,7060,7061,7062,7063,7064,6867,6868,6869,6870,
5569,5570,5571,5572,5573,5574,7091,7092,7093,7094,7095,7096,6899,6900,6901,6902,
5601,5602,5603,5604,5605,5606,6739,6740,6741,6742,6743,6744,7955,7956,7957,7958,
5633,5634,5635,5636,5637,5638,6771,6772,6773,6774,6775,6776,7987,7988,7989,7990,
5665,5666,5667,5668,5669,5670,6803,6804,6805,6806,6807,6808,8019,8020,2147491558,2147491557,
5697,5698,5699,5700,5701,5702,6835,6836,6837,6838,6839,6840,8051,8052,2147491590,2147491589,
5729,5730,5731,5732,5733,5734,6867,6868,6869,6870,6871,6872,2147491492,2147491491,2376,2377,
5761,5762,5763,5764,5765,5766,6899,6900,6901,6902,6903,6904,2147491524,2147491523,2408,2409,
5409,5410,5411,5412,5413,5414,6931,6932,6933,6934,6935,6936,2184,2185,2070,2071,
5441,5442,5443,5444,5445,5446,6963,6964,6965,6966,6967,6968,2216,2217,2102,2103,
5473,5474,5475,5476,5477,5478,6995,6996,6997,6998,6999,7000,2134,2135,2066,2067,
5505,5506,5507,5508,5509,5510,7027,7028,7029,7030,7031,7032,2166,2167,2098,2099
</chunk>
   <chunk x="-80" y="-48" width="16" height="16">
6743,6744,7955,7956,7957,7958,2147491558,2147491557,2147491276,2147491275,2147491686,2147491685,2147491684,2147491683,2147491620,2147491619,
6775,6776,7987,7988,7989,7990,2147491590,2147491589,2147491308,2147491307,2147491718,2147491717,2147491716,2147491715,2147491652,2147491651,
6807,6808,8019,8020,2147491558,2147491557,2376,2377,1073744054,1073744055,2066,2067,2147486049,2147486048,2144,2145,
6839,6840,8051,8052,2147491590,2147491589,2408,2409,1073744022,1073744023,2098,2099,2147486081,2147486080,2176,2177,
6871,6872,2147491492,2147491491,2376,2377,2376,2377,2198,2199,2147486049,2147486048,2144,2145,2144,2145,
6903,6904,2147491524,2147491523,2408,2409,2408,2409,2230,2231,2147486081,2147486080,2176,2177,2176,2177,
2147491558,2147491557,2184,2185,2070,2071,2072,2073,2066,2067,2264,2265,2144,2145,2144,2145,
2147491590,2147491589,2216,2217,2102,2103,2104,2105,2098,2099,2296,2297,2176,2177,2176,2177,
2376,2377,2134,2135,2066,2067,2066,2067,2398,2399,2144,2145,2144,2145,2144,2145,
2408,2409,2166,2167,2098,2099,2098,2099,2430,2431,2176,2177,2176,2177,2176,2177,
2376,2377,2198,2199,2066,2067,2066,2067,2462,2463,2144,2145,2144,2145,2144,2145,
2408,2409,2230,2231,2098,2099,2098,2099,2494,2495,2176,2177,2176,2177,2176,2177,
2072,2073,2066,2067,2066,2067,2066,2067,3221227905,3221227904,2144,2145,2144,2145,2144,2145,
2104,2105,2098,2099,2098,2099,2098,2099,3221227873,3221227872,2176,2177,2176,2177,2176,2177,
2066,2067,2066,2067,2066,2067,2066,2067,2398,2399,2144,2145,2144,2145,2144,2145,
2098,2099,2098,2099,2098,2099,2098,2099,2430,2431,2176,2177,2176,2177,2176,2177
</chunk>
   <chunk x="-64" y="-48" width="16" height="16">
7971,7972,2147491622,2147491621,2400,2401,2066,2067,2066,2067,7901,7902,8139,8140,8139,8140,
8003,8004,2147491654,2147491653,2432,2433,2098,2099,2098,2099,7933,7934,8171,8172,8171,8172,
2144,2145,2144,2145,2144,2145,1073744184,1073744185,2147486047,2147486046,7965,7966,8139,8140,8139,8140,
2176,2177,2176,2177,2176,2177,1073744152,1073744153,2147486079,2147486078,7997,7998,8171,8172,8171,8172,
2144,2145,2144,2145,2144,2145,2144,2145,2147486111,2147486110,2066,2067,2147491686,2147491685,2147491684,2147491683,
2176,2177,2176,2177,2176,2177,2176,2177,2147486143,2147486142,2098,2099,2147491718,2147491717,2147491716,2147491715,
2144,2145,2144,2145,2144,2145,2144,2145,2144,2145,1073744184,1073744185,1073744184,1073744185,1073744184,1073744185,
2176,2177,2176,2177,2176,2177,2176,2177,2176,2177,1073744152,1073744153,1073744152,1073744153,1073744152,1073744153,
2144,2145,2144,2145,2144,2145,2144,2145,2144,2145,2144,2145,2144,2145,2144,2145,
2176,2177,2176,2177,2176,2177,2176,2177,2176,2177,2176,2177,2176,2177,2176,2177,
2144,2145,2144,2145,2144,2145,2144,2145,2144,2145,2144,2145,2144,2145,2144,2145,
2176,2177,2176,2177,2176,2177,2176,2177,2176,2177,2176,2177,2176,2177,2176,2177,
2144,2145,2144,2145,2144,2145,2144,2145,2144,2145,2144,2145,2246,2247,2144,2145,
2176,2177,2176,2177,2176,2177,2176,2177,2176,2177,2176,2177,2278,2279,2176,2177,
2144,2145,2144,2145,2144,2145,2144,2145,2144,2145,2144,2145,2144,2145,2144,2145,
2176,2177,2176,2177,2176,2177,2176,2177,2176,2177,2176,2177,2176,2177,2176,2177
</chunk>
   <chunk x="-48" y="-48" width="16" height="16">
8139,8140,8139,8140,8139,8140,8139,8140,8139,8140,8139,8140,8139,8140,8139,8140,
8171,8172,8171,8172,8171,8172,8171,8172,8171,8172,8171,8172,8171,8172,8171,8172,
8139,8140,8139,8140,8139,8140,8139,8140,8139,8140,8139,8140,8139,8140,8139,8140,
8171,8172,8171,8172,8171,8172,8171,8172,8171,8172,8171,8172,8171,8172,8171,8172,
8139,8140,8139,8140,8139,8140,2147491620,2147491619,7629,7630,7971,7972,8139,8140,8139,8140,
8171,8172,8171,8172,8171,8172,2147491652,2147491651,7661,7662,8003,8004,8171,8172,8171,8172,
7969,7970,7971,7972,2147491622,2147491621,2144,2145,2144,2145,2144,2145,7969,7970,7971,7972,
8001,8002,8003,8004,2147491654,2147491653,2176,2177,2176,2177,2176,2177,8001,8002,8003,8004,
2144,2145,2144,2145,2144,2145,2144,2145,2144,2145,2144,2145,2144,2145,2144,2145,
2176,2177,2176,2177,2176,2177,2176,2177,2176,2177,2176,2177,2176,2177,2176,2177,
2144,2145,2144,2145,2144,2145,2144,2145,2144,2145,2144,2145,2144,2145,2144,2145,
2176,2177,2176,2177,2176,2177,2176,2177,2176,2177,2176,2177,2176,2177,2176,2177,
2144,2145,2144,2145,2144,2145,2144,2145,2144,2145,2144,2145,2144,2145,2144,2145,
2176,2177,2176,2177,2176,2177,2176,2177,2176,2177,2176,2177,2176,2177,2176,2177,
2144,2145,2144,2145,2144,2145,2144,2145,2144,2145,2144,2145,2144,2145,2144,2145,
2176,2177,2176,2177,2176,2177,2176,2177,2176,2177,2176,2177,2176,2177,2176,2177
</chunk>
   <chunk x="-32" y="-48" width="16" height="16">
8139,8140,8139,8140,8139,8140,8139,8140,8139,8140,8139,8140,8139,8140,8139,8140,
8171,8172,8171,8172,8171,8172,8171,8172,8171,8172,8171,8172,8171,8172,8171,8172,
8139,8140,8139,8140,8139,8140,8139,8140,8139,8140,8139,8140,8139,8140,8139,8140,
8171,8172,8171,8172,8171,8172,8171,8172,8171,8172,8171,8172,8171,8172,8171,8172,
8139,8140,2147491620,2147491619,7629,7630,7971,7972,8035,8036,2147491686,2147491685,2147491684,2147491683,8035,8036,
8171,8172,2147491652,2147491651,7661,7662,8003,8004,8067,8068,2147491718,2147491717,2147491716,2147491715,8067,8068,
2147491622,2147491621,2144,2145,2144,2145,2144,2145,2400,2401,2066,2067,2066,2067,2066,2067,
2147491654,2147491653,2176,2177,2176,2177,2176,2177,2432,2433,2098,2099,2098,2099,2098,2099,
2144,2145,2144,2145,2144,2145,2144,2145,2144,2145,1073744184,1073744185,2147486047,2147486046,2066,2067,
2176,2177,2176,2177,2176,2177,2176,2177,2176,2177,1073744152,1073744153,2147486079,2147486078,2098,2099,
2144,2145,2144,2145,2144,2145,2144,2145,2144,2145,2144,2145,2147486111,2147486110,2147486049,2147486048,
2176,2177,2176,2177,2176,2177,2176,2177,2176,2177,2176,2177,2147486143,2147486142,2147486081,2147486080,
2144,2145,2144,2145,2144,2145,2144,2145,2144,2145,2144,2145,2144,2145,2144,2145,
2176,2177,2176,2177,2176,2177,2176,2177,2176,2177,2176,2177,2176,2177,2176,2177,
2144,2145,2144,2145,2144,2145,2144,2145,2144,2145,2144,2145,2144,2145,2144,2145,
2176,2177,2176,2177,2176,2177,2176,2177,2176,2177,2176,2177,2176,2177,2176,2177
</chunk>
   <chunk x="-16" y="-48" width="16" height="16">
8139,8140,2147491682,2147491681,2066,2067,2066,2067,2066,2067,2066,2067,2066,2067,2147486049,2147486048,
8171,8172,2147491714,2147491713,2098,2099,2098,2099,2098,2099,2098,2099,2098,2099,2147486081,2147486080,
2147491550,2147491549,2066,2067,2066,2067,2066,2067,2066,2067,2398,2399,1073744184,1073744185,2144,2145,
2147491582,2147491581,2098,2099,2098,2099,2098,2099,2098,2099,2430,2431,1073744152,1073744153,2176,2177,
8037,8038,2066,2067,2066,2067,2066,2067,2066,2067,2462,2463,2144,2145,2144,2145,
8069,8070,2098,2099,2098,2099,2098,2099,2098,2099,2494,2495,2176,2177,2176,2177,
2066,2067,2066,2067,2066,2067,2066,2067,2147486049,2147486048,2144,2145,2144,2145,2144,2145,
2098,2099,2098,2099,2098,2099,2098,2099,2147486081,2147486080,2176,2177,2176,2177,2176,2177,
2066,2067,2066,2067,2398,2399,1073744184,1073744185,2144,2145,2144,2145,2144,2145,2144,2145,
2098,2099,2098,2099,2430,2431,1073744152,1073744153,2176,2177,2176,2177,2176,2177,2176,2177,
1073744184,1073744185,2400,2401,2462,2463,2144,2145,2144,2145,2144,2145,2144,2145,2144,2145,
1073744152,1073744153,2432,2433,2494,2495,2176,2177,2176,2177,2176,2177,2176,2177,2176,2177,
2144,2145,2144,2145,2144,2145,2144,2145,2144,2145,2144,2145,2246,2247,2144,2145,
2176,2177,2176,2177,2176,2177,2176,2177,2176,2177,2176,2177,2278,2279,2176,2177,
2144,2145,2144,2145,2144,2145,2144,2145,2144,2145,2144,2145,2144,2145,2144,2145,
2176,2177,2176,2177,2176,2177,2176,2177,2176,2177,2176,2177,2176,2177,2176,2177
</chunk>
   <chunk x="0" y="-48" width="16" height="16">
2144,2145,2144,2145,2144,2145,2400,2401,2066,2067,2066,2067,7901,7902,8139,8140,
2176,2177,2176,2177,2176,2177,2432,2433,2098,2099,2098,2099,7933,7934,8171,8172,
2144,2145,2144,2145,2144,2145,2144,2145,1073744184,1073744185,2147486047,2147486046,7965,7966,8139,8140,
2176,2177,2176,2177,2176,2177,2176,2177,1073744152,1073744153,2147486079,2147486078,7997,7998,8171,8172,
2144,2145,2144,2145,2144,2145,2144,2145,2144,2145,2147486111,2147486110,2066,2067,2147491686,2147491685,
2176,2177,2176,2177,2176,2177,2176,2177,2176,2177,2147486143,2147486142,2098,2099,2147491718,2147491717,
2144,2145,2144,2145,2144,2145,2144,2145,2246,2247,2144,2145,1073744184,1073744185,1073744184,1073744185,
2176,2177,2176,2177,2176,2177,2176,2177,2278,2279,2176,2177,1073744152,1073744153,1073744152,1073744153,
2144,2145,2144,2145,2144,2145,2144,2145,2144,2145,2144,2145,2144,2145,2144,2145,
2176,2177,2176,2177,2176,2177,2176,2177,2176,2177,2176,2177,2176,2177,2176,2177,
2144,2145,2144,2145,2144,2145,2144,2145,2144,2145,2144,2145,2144,2145,2144,2145,
2176,2177,2176,2177,2176,2177,2176,2177,2176,2177,2176,2177,2176,2177,2176,2177,
2144,2145,2144,2145,2144,2145,2144,2145,2144,2145,2144,2145,2144,2145,2144,2145,
2176,2177,2176,2177,2176,2177,2176,2177,2176,2177,2176,2177,2176,2177,2176,2177,
2144,2145,2144,2145,2144,2145,2144,2145,2144,2145,2144,2145,2144,2145,2144,2145,
2176,2177,2176,2177,2176,2177,2176,2177,2176,2177,2176,2177,2176,2177,2176,2177
</chunk>
   <chunk x="16" y="-48" width="16" height="16">
8139,8140,8139,8140,8139,8140,8139,8140,8139,8140,8139,8140,8139,8140,8139,8140,
8171,8172,8171,8172,8171,8172,8171,8172,8171,8172,8171,8172,8171,8172,8171,8172,
8139,8140,8139,8140,8139,8140,8139,8140,8139,8140,8139,8140,8139,8140,8139,8140,
8171,8172,8171,8172,8171,8172,8171,8172,8171,8172,8171,8172,8171,8172,8171,8172,
2147491684,2147491683,2147491620,2147491619,7629,7630,7971,7972,2147491620,2147491619,7629,7630,7971,7972,8139,8140,
2147491716,2147491715,2147491652,2147491651,7661,7662,8003,8004,2147491652,2147491651,7661,7662,8003,8004,8171,8172,
1073744184,1073744185,2144,2145,2144,2145,2144,2145,2144,2145,2144,2145,2144,2145,7969,7970,
1073744152,1073744153,2176,2177,2176,2177,2176,2177,2176,2177,2176,2177,2176,2177,8001,8002,
2144,2145,2144,2145,2144,2145,2144,2145,2144,2145,2144,2145,2144,2145,2144,2145,
2176,2177,2176,2177,2176,2177,2176,2177,2176,2177,2176,2177,2176,2177,2176,2177,
2144,2145,2144,2145,2144,2145,2144,2145,2144,2145,2144,2145,2144,2145,2144,2145,
2176,2177,2176,2177,2176,2177,2176,2177,2176,2177,2176,2177,2176,2177,2176,2177,
2144,2145,2144,2145,2246,2247,2144,2145,2144,2145,2144,2145,2144,2145,2144,2145,
2176,2177,2176,2177,2278,2279,2176,2177,2176,2177,2176,2177,2176,2177,2176,2177,
2144,2145,2144,2145,2144,2145,2144,2145,2144,2145,2144,2145,2144,2145,2144,2145,
2176,2177,2176,2177,2176,2177,2176,2177,2176,2177,2176,2177,2176,2177,2176,2177
</chunk>
   <chunk x="32" y="-48" width="16" height="16">
8139,8140,8139,8140,8139,8140,8139,8140,8139,8140,8139,8140,8139,8140,8139,8140,
8171,8172,8171,8172,8171,8172,8171,8172,8171,8172,8171,8172,8171,8172,8171,8172,
8139,8140,8139,8140,8139,8140,8139,8140,8139,8140,8139,8140,8139,8140,8139,8140,
8171,8172,8171,8172,8171,8172,8171,8172,8171,8172,8171,8172,8171,8172,8171,8172,
8139,8140,8139,8140,2147491620,2147491619,7629,7630,7971,7972,2147491620,2147491619,7629,7630,7971,7972,
8171,8172,8171,8172,2147491652,2147491651,7661,7662,8003,8004,2147491652,2147491651,7661,7662,8003,8004,
7971,7972,2147491622,2147491621,2144,2145,2144,2145,2144,2145,2144,2145,2144,2145,2144,2145,
8003,8004,2147491654,2147491653,2176,2177,2176,2177,2176,2177,2176,2177,2176,2177,2176,2177,
2144,2145,2144,2145,2144,2145,2144,2145,2144,2145,2144,2145,2144,2145,2144,2145,
2176,2177,2176,2177,2176,2177,2176,2177,2176,2177,2176,2177,2176,2177,2176,2177,
2144,2145,2144,2145,2144,2145,2144,2145,2144,2145,2144,2145,2144,2145,2144,2145,
2176,2177,2176,2177,2176,2177,2176,2177,2176,2177,2176,2177,2176,2177,2176,2177,
2144,2145,2144,2145,2144,2145,2144,2145,2144,2145,2144,2145,2144,2145,2144,2145,
2176,2177,2176,2177,2176,2177,2176,2177,2176,2177,2176,2177,2176,2177,2176,2177,
2144,2145,2144,2145,2144,2145,2144,2145,2144,2145,2144,2145,2144,2145,2144,2145,
2176,2177,2176,2177,2176,2177,2176,2177,2176,2177,2176,2177,2176,2177,2176,2177
</chunk>
   <chunk x="48" y="-48" width="16" height="16">
8139,8140,8139,8140,8139,8140,8139,8140,8139,8140,8139,8140,8139,8140,8139,8140,
8171,8172,8171,8172,8171,8172,8171,8172,8171,8172,8171,8172,8171,8172,8171,8172,
8139,8140,8139,8140,8139,8140,8139,8140,8139,8140,8139,8140,8139,8140,2147491622,2147491621,
8171,8172,8171,8172,8171,8172,8171,8172,8171,8172,8171,8172,8171,8172,2147491654,2147491653,
8139,8140,8139,8140,8139,8140,2147491620,2147491619,7629,7630,7971,7972,2147491622,2147491621,2144,2145,
8171,8172,8171,8172,8171,8172,2147491652,2147491651,7661,7662,8003,8004,2147491654,2147491653,2176,2177,
7969,7970,7971,7972,2147491622,2147491621,2144,2145,2246,2247,2144,2145,2144,2145,2144,2145,
8001,8002,8003,8004,2147491654,2147491653,2176,2177,2278,2279,2176,2177,2176,2177,2176,2177,
2144,2145,2144,2145,2144,2145,2144,2145,2144,2145,2144,2145,2144,2145,2144,2145,
2176,2177,2176,2177,2176,2177,2176,2177,2176,2177,2176,2177,2176,2177,2176,2177,
2144,2145,2144,2145,2144,2145,2144,2145,2144,2145,2144,2145,2144,2145,2144,2145,
2176,2177,2176,2177,2176,2177,2176,2177,2176,2177,2176,2177,2176,2177,2176,2177,
2144,2145,2144,2145,2144,2145,2144,2145,2144,2145,2144,2145,2144,2145,2144,2145,
2176,2177,2176,2177,2176,2177,2176,2177,2176,2177,2176,2177,2176,2177,2176,2177,
2144,2145,2144,2145,2144,2145,2144,2145,2144,2145,2144,2145,2144,2145,2144,2145,
2176,2177,2176,2177,2176,2177,2176,2177,2176,2177,2176,2177,2176,2177,2176,2177
</chunk>
   <chunk x="64" y="-48" width="16" height="16">
2147491620,2147491619,7971,7972,2147491620,2147491619,2147491618,2147491617,2400,2401,2066,2067,2066,2067,7501,7502,
2147491652,2147491651,8003,8004,2147491652,2147491651,2147491650,2147491649,2432,2433,2098,2099,2098,2099,7533,7534,
2144,2145,2144,2145,2144,2145,2144,2145,2144,2145,1073744184,1073744185,2147486047,2147486046,2398,2399,
2176,2177,2176,2177,2176,2177,2176,2177,2176,2177,1073744152,1073744153,2147486079,2147486078,2430,2431,
2144,2145,2144,2145,2144,2145,2144,2145,2144,2145,2144,2145,2147486111,2147486110,2462,2463,
2176,2177,2176,2177,2176,2177,2176,2177,2176,2177,2176,2177,2147486143,2147486142,2494,2495,
2144,2145,2144,2145,2144,2145,2144,2145,2144,2145,2246,2247,2144,2145,2144,2145,
2176,2177,2176,2177,2176,2177,2176,2177,2176,2177,2278,2279,2176,2177,2176,2177,
2144,2145,2144,2145,2144,2145,2144,2145,2144,2145,2144,2145,2144,2145,2144,2145,
2176,2177,2176,2177,2176,2177,2176,2177,2176,2177,2176,2177,2176,2177,2176,2177,
2144,2145,2144,2145,2144,2145,2144,2145,2144,2145,2144,2145,2144,2145,2144,2145,
2176,2177,2176,2177,2176,2177,2176,2177,2176,2177,2176,2177,2176,2177,2176,2177,
2144,2145,2144,2145,2144,2145,2144,2145,2144,2145,2144,2145,2144,2145,2144,2145,
2176,2177,2176,2177,2176,2177,2176,2177,2176,2177,2176,2177,2176,2177,2176,2177,
2144,2145,2144,2145,2144,2145,2144,2145,2144,2145,2144,2145,2144,2145,2144,2145,
2176,2177,2176,2177,2176,2177,2176,2177,2176,2177,2176,2177,2176,2177,2176,2177
</chunk>
   <chunk x="80" y="-48" width="16" height="16">
2147485721,2147485720,2147485719,2147485718,7909,7910,7753,7754,6731,6732,6727,6728,6729,6730,6731,6732,
2147485753,2147485752,2147485751,2147485750,7941,7942,7785,7786,6763,6764,6759,6760,6761,6762,6763,6764,
2400,2401,2066,2067,2147485785,2147485784,7909,7910,7573,7574,6791,6792,6793,6794,6795,6796,
2432,2433,2098,2099,2147485817,2147485816,7941,7942,7605,7606,6823,6824,6825,6826,6827,6828,
2144,2145,2400,2401,2066,2067,2147485721,2147485720,2147485719,2147485718,7569,7570,7571,7572,7573,7574,
2176,2177,2432,2433,2098,2099,2147485753,2147485752,2147485751,2147485750,7601,7602,7603,7604,7605,7606,
2144,2145,2144,2145,2400,2401,2066,2067,2066,2067,7501,7502,7501,7502,7501,7502,
2176,2177,2176,2177,2432,2433,2098,2099,2098,2099,7533,7534,7533,7534,7533,7534,
2144,2145,2144,2145,2144,2145,1073744184,1073744185,2147486047,2147486046,2066,2067,2066,2067,2066,2067,
2176,2177,2176,2177,2176,2177,1073744152,1073744153,2147486079,2147486078,2098,2099,2098,2099,2098,2099,
2144,2145,2144,2145,2144,2145,2144,2145,2147486111,2147486110,2147486049,2147486048,1073744184,1073744185,2400,2401,
2176,2177,2176,2177,2176,2177,2176,2177,2147486143,2147486142,2147486081,2147486080,1073744152,1073744153,2432,2433,
2144,2145,2144,2145,2144,2145,2144,2145,2144,2145,2144,2145,2144,2145,2144,2145,
2176,2177,2176,2177,2176,2177,2176,2177,2176,2177,2176,2177,2176,2177,2176,2177,
2144,2145,2144,2145,2144,2145,2144,2145,2144,2145,2144,2145,2144,2145,2144,2145,
2176,2177,2176,2177,2176,2177,2176,2177,2176,2177,2176,2177,2176,2177,2176,2177
</chunk>
   <chunk x="96" y="-48" width="16" height="16">
6919,6920,6921,6922,6923,6924,6739,6740,6741,6742,6743,6744,6919,6920,6921,6922,
6951,6952,6953,6954,6955,6956,6771,6772,6773,6774,6775,6776,6951,6952,6953,6954,
6983,6984,6985,6986,6987,6988,6803,6804,6805,6806,6807,6808,6983,6984,6985,6986,
7015,7016,7017,7018,7019,7020,6835,6836,6837,6838,6839,6840,7015,7016,7017,7018,
7843,7844,7573,7574,7569,7570,7569,7570,7571,7572,7573,7574,7047,7048,7049,7050,
7875,7876,7605,7606,7601,7602,7601,7602,7603,7604,7605,7606,7079,7080,7081,7082,
7501,7502,2147485721,2147485720,2147485719,2147485718,2136,2137,2147485721,2147485720,2147485719,2147485718,7909,7910,7753,7754,
7533,7534,2147485753,2147485752,2147485751,2147485750,2168,2169,2147485753,2147485752,2147485751,2147485750,7941,7942,7785,7786,
2398,2399,2400,2401,2066,2067,2066,2067,2066,2067,2066,2067,2147485785,2147485784,7909,7910,
2430,2431,2432,2433,2098,2099,2098,2099,2098,2099,2098,2099,2147485817,2147485816,7941,7942,
2462,2463,2144,2145,2400,2401,2066,2067,2066,2067,2066,2067,2066,2067,2147485721,2147485720,
2494,2495,2176,2177,2432,2433,2098,2099,2098,2099,2098,2099,2098,2099,2147485753,2147485752,
2144,2145,2144,2145,2144,2145,2400,2401,2066,2067,2066,2067,2066,2067,2066,2067,
2176,2177,2176,2177,2176,2177,2432,2433,2098,2099,2098,2099,2098,2099,2098,2099,
2144,2145,2144,2145,2144,2145,2144,2145,1073744184,1073744185,2147486047,2147486046,2066,2067,2066,2067,
2176,2177,2176,2177,2176,2177,2176,2177,1073744152,1073744153,2147486079,2147486078,2098,2099,2098,2099
</chunk>
   <chunk x="112" y="-48" width="16" height="16">
6923,6924,5409,5410,5411,5412,5413,5414,5601,5602,5603,5604,5605,5606,5409,5410,
6955,6956,5441,5442,5443,5444,5445,5446,5633,5634,5635,5636,5637,5638,5441,5442,
6987,6988,5473,5474,5475,5476,5477,5478,5665,5666,5667,5668,5669,5670,5473,5474,
7019,7020,5505,5506,5507,5508,5509,5510,5697,5698,5699,5700,5701,5702,5505,5506,
7051,7052,5537,5538,5539,5540,5541,5542,5729,5730,5731,5732,5733,5734,5537,5538,
7083,7084,5569,5570,5571,5572,5573,5574,5761,5762,5763,5764,5765,5766,5569,5570,
7755,7756,6931,6932,6933,6934,6935,6936,6727,6728,6729,6730,6731,6732,5601,5602,
7787,7788,6963,6964,6965,6966,6967,6968,6759,6760,6761,6762,6763,6764,5633,5634,
7573,7574,6995,6996,6997,6998,6999,7000,6791,6792,6793,6794,6795,6796,5665,5666,
7605,7606,7027,7028,7029,7030,7031,7032,6823,6824,6825,6826,6827,6828,5697,5698,
2147485719,2147485718,7569,7570,7571,7572,7573,7574,7569,7570,7571,7572,7573,7574,5729,5730,
2147485751,2147485750,7601,7602,7603,7604,7605,7606,7601,7602,7603,7604,7605,7606,5761,5762,
2066,2067,2147485721,2147485720,2147485719,2147485718,2147485833,2147485832,2376,2377,2376,2377,7497,7498,6727,6728,
2098,2099,2147485753,2147485752,2147485751,2147485750,2147485865,2147485864,2408,2409,2408,2409,7529,7530,6759,6760,
2066,2067,2066,2067,2066,2067,2147485783,2147485782,2376,2377,2376,2377,7499,7500,6791,6792,
2098,2099,2098,2099,2098,2099,2147485815,2147485814,2408,2409,2408,2409,7531,7532,6823,6824
</chunk>
   <chunk x="128" y="-48" width="16" height="16">
5411,5412,5413,5414,6925,6926,6927,6928,6929,6930,6733,6734,6735,6736,6737,6738,
5443,5444,5445,5446,6957,6958,6959,6960,6961,6962,6765,6766,6767,6768,6769,6770,
5475,5476,5477,5478,6989,6990,6991,6992,6993,6994,6797,6798,6799,6800,6801,6802,
5507,5508,5509,5510,7021,7022,7023,7024,7025,7026,6829,6830,6831,6832,6833,6834,
5539,5540,5541,5542,7053,7054,7055,7056,7057,7058,6861,6862,6863,6864,6865,6866,
5571,5572,5573,5574,7085,7086,7087,7088,7089,7090,6893,6894,6895,6896,6897,6898,
5603,5604,5605,5606,6733,6734,6735,6736,6737,6738,6925,6926,6927,6928,6929,6930,
5635,5636,5637,5638,6765,6766,6767,6768,6769,6770,6957,6958,6959,6960,6961,6962,
5667,5668,5669,5670,6797,6798,6799,6800,6801,6802,6989,6990,6991,6992,6993,6994,
5699,5700,5701,5702,6829,6830,6831,6832,6833,6834,7021,7022,7023,7024,7025,7026,
5731,5732,5733,5734,6861,6862,6863,6864,6865,6866,7053,7054,7055,7056,7057,7058,
5763,5764,5765,5766,6893,6894,6895,6896,6897,6898,7085,7086,7087,7088,7089,7090,
6729,6730,6731,6732,6925,6926,6927,6928,6929,6930,6733,6734,6735,6736,6737,6738,
6761,6762,6763,6764,6957,6958,6959,6960,6961,6962,6765,6766,6767,6768,6769,6770,
6793,6794,6795,6796,6989,6990,6991,6992,6993,6994,6797,6798,6799,6800,6801,6802,
6825,6826,6827,6828,7021,7022,7023,7024,7025,7026,6829,6830,6831,6832,6833,6834
</chunk>
   <chunk x="144" y="-48" width="16" height="16">
5601,5602,5603,5604,5605,5606,5409,5410,5411,5412,5413,5414,6931,6932,6933,6934,
5633,5634,5635,5636,5637,5638,5441,5442,5443,5444,5445,5446,6963,6964,6965,6966,
5665,5666,5667,5668,5669,5670,5473,5474,5475,5476,5477,5478,6995,6996,6997,6998,
5697,5698,5699,5700,5701,5702,5505,5506,5507,5508,5509,5510,7027,7028,7029,7030,
5729,5730,5731,5732,5733,5734,5537,5538,5539,5540,5541,5542,7059,7060,7061,7062,
5761,5762,5763,5764,5765,5766,5569,5570,5571,5572,5573,5574,7091,7092,7093,7094,
5409,5410,5411,5412,5413,5414,5601,5602,5603,5604,5605,5606,6739,6740,6741,6742,
5441,5442,5443,5444,5445,5446,5633,5634,5635,5636,5637,5638,6771,6772,6773,6774,
5473,5474,5475,5476,5477,5478,5665,5666,5667,5668,5669,5670,6803,6804,6805,6806,
5505,5506,5507,5508,5509,5510,5697,5698,5699,5700,5701,5702,6835,6836,6837,6838,
5537,5538,5539,5540,5541,5542,5729,5730,5731,5732,5733,5734,6867,6868,6869,6870,
5569,5570,5571,5572,5573,5574,5761,5762,5763,5764,5765,5766,6899,6900,6901,6902,
5601,5602,5603,5604,5605,5606,5409,5410,5411,5412,5413,5414,6931,6932,6933,6934,
5633,5634,5635,5636,5637,5638,5441,5442,5443,5444,5445,5446,6963,6964,6965,6966,
5665,5666,5667,5668,5669,5670,5473,5474,5475,5476,5477,5478,6995,6996,6997,6998,
5697,5698,5699,5700,5701,5702,5505,5506,5507,5508,5509,5510,7027,7028,7029,7030
</chunk>
   <chunk x="160" y="-48" width="16" height="16">
6935,6936,6739,6740,6741,6742,6743,6744,5601,5602,5603,5604,5605,5606,5409,5410,
6967,6968,6771,6772,6773,6774,6775,6776,5633,5634,5635,5636,5637,5638,5441,5442,
6999,7000,6803,6804,6805,6806,6807,6808,5665,5666,5667,5668,5669,5670,5473,5474,
7031,7032,6835,6836,6837,6838,6839,6840,5697,5698,5699,5700,5701,5702,5505,5506,
7063,7064,6867,6868,6869,6870,6871,6872,5729,5730,5731,5732,5733,5734,5537,5538,
7095,7096,6899,6900,6901,6902,6903,6904,5761,5762,5763,5764,5765,5766,5569,5570,
6743,6744,6931,6932,6933,6934,6935,6936,5409,5410,5411,5412,5413,5414,5601,5602,
6775,6776,6963,6964,6965,6966,6967,6968,5441,5442,5443,5444,5445,5446,5633,5634,
6807,6808,6995,6996,6997,6998,6999,7000,5473,5474,5475,5476,5477,5478,5665,5666,
6839,6840,7027,7028,7029,7030,7031,7032,5505,5506,5507,5508,5509,5510,5697,5698,
6871,6872,7059,7060,7061,7062,7063,7064,5537,5538,5539,5540,5541,5542,5729,5730,
6903,6904,7091,7092,7093,7094,7095,7096,5569,5570,5571,5572,5573,5574,5761,5762,
6935,6936,6727,6728,6729,6730,6731,6732,6919,6920,6921,6922,6923,6924,6727,6728,
6967,6968,6759,6760,6761,6762,6763,6764,6951,6952,6953,6954,6955,6956,6759,6760,
6999,7000,6791,6792,6793,6794,6795,6796,6983,6984,6985,6986,6987,6988,6791,6792,
7031,7032,6823,6824,6825,6826,6827,6828,7015,7016,7017,7018,7019,7020,6823,6824
</chunk>
   <chunk x="176" y="-48" width="16" height="16">
5411,5412,5413,5414,5601,5602,5603,5604,5605,5606,0,0,0,0,0,0,
5443,5444,5445,5446,5633,5634,5635,5636,5637,5638,0,0,0,0,0,0,
5475,5476,5477,5478,5665,5666,5667,5668,5669,5670,0,0,0,0,0,0,
5507,5508,5509,5510,5697,5698,5699,5700,5701,5702,0,0,0,0,0,0,
5539,5540,5541,5542,5729,5730,5731,5732,5733,5734,0,0,0,0,0,0,
5571,5572,5573,5574,5761,5762,5763,5764,5765,5766,0,0,0,0,0,0,
5603,5604,5605,5606,5409,5410,5411,5412,5413,5414,0,0,0,0,0,0,
5635,5636,5637,5638,5441,5442,5443,5444,5445,5446,0,0,0,0,0,0,
5667,5668,5669,5670,5473,5474,5475,5476,5477,5478,0,0,0,0,0,0,
5699,5700,5701,5702,5505,5506,5507,5508,5509,5510,0,0,0,0,0,0,
5731,5732,5733,5734,5537,5538,5539,5540,5541,5542,0,0,0,0,0,0,
5763,5764,5765,5766,5569,5570,5571,5572,5573,5574,0,0,0,0,0,0,
6729,6730,6731,6732,6919,6920,6921,6922,6923,6924,0,0,0,0,0,0,
6761,6762,6763,6764,6951,6952,6953,6954,6955,6956,0,0,0,0,0,0,
6793,6794,6795,6796,6983,6984,6985,6986,6987,6988,0,0,0,0,0,0,
6825,6826,6827,6828,7015,7016,7017,7018,7019,7020,0,0,0,0,0,0
</chunk>
   <chunk x="-112" y="-32" width="16" height="16">
0,0,0,0,0,0,0,0,0,0,5729,5730,5731,5732,5733,5734,
0,0,0,0,0,0,0,0,0,0,5761,5762,5763,5764,5765,5766,
0,0,0,0,0,0,0,0,0,0,5409,5410,5411,5412,5413,5414,
0,0,0,0,0,0,0,0,0,0,5441,5442,5443,5444,5445,5446,
0,0,0,0,0,0,0,0,0,0,5473,5474,5475,5476,5477,5478,
0,0,0,0,0,0,0,0,0,0,5505,5506,5507,5508,5509,5510,
0,0,0,0,0,0,0,0,0,0,5537,5538,5539,5540,5541,5542,
0,0,0,0,0,0,0,0,0,0,5569,5570,5571,5572,5573,5574,
0,0,0,0,0,0,0,0,0,0,5601,5602,5603,5604,5605,5606,
0,0,0,0,0,0,0,0,0,0,5633,5634,5635,5636,5637,5638,
0,0,0,0,0,0,0,0,0,0,5665,5666,5667,5668,5669,5670,
0,0,0,0,0,0,0,0,0,0,5697,5698,5699,5700,5701,5702,
0,0,0,0,0,0,0,0,0,0,5729,5730,5731,5732,5733,5734,
0,0,0,0,0,0,0,0,0,0,5761,5762,5763,5764,5765,5766,
0,0,0,0,0,0,0,0,0,0,5409,5410,5411,5412,5413,5414,
0,0,0,0,0,0,0,0,0,0,5441,5442,5443,5444,5445,5446
</chunk>
   <chunk x="-96" y="-32" width="16" height="16">
5537,5538,5539,5540,5541,5542,7059,7060,7061,7062,7063,7064,2198,2199,2066,2067,
5569,5570,5571,5572,5573,5574,7091,7092,7093,7094,7095,7096,2230,2231,2098,2099,
5601,5602,5603,5604,5605,5606,6739,6740,6741,6742,6743,6744,7515,7516,2066,2067,
5633,5634,5635,5636,5637,5638,6771,6772,6773,6774,6775,6776,7547,7548,2098,2099,
5665,5666,5667,5668,5669,5670,6803,6804,6805,6806,6807,6808,7517,7518,2066,2067,
5697,5698,5699,5700,5701,5702,6835,6836,6837,6838,6839,6840,7549,7550,2098,2099,
5729,5730,5731,5732,5733,5734,6867,6868,6869,6870,6871,6872,7519,7520,2066,2067,
5761,5762,5763,5764,5765,5766,6899,6900,6901,6902,6903,6904,7551,7552,2098,2099,
5409,5410,5411,5412,5413,5414,6931,6932,6933,6934,6935,6936,7521,7522,2066,2067,
5441,5442,5443,5444,5445,5446,6963,6964,6965,6966,6967,6968,7553,7554,2098,2099,
5473,5474,5475,5476,5477,5478,6995,6996,6997,6998,6999,7000,7523,7524,2066,2067,
5505,5506,5507,5508,5509,5510,7027,7028,7029,7030,7031,7032,7555,7556,2098,2099,
5537,5538,5539,5540,5541,5542,7059,7060,7061,7062,7063,7064,7525,7526,2066,2067,
5569,5570,5571,5572,5573,5574,7091,7092,7093,7094,7095,7096,7557,7558,2098,2099,
5601,5602,5603,5604,5605,5606,6739,6740,6741,6742,6743,6744,7515,7516,2066,2067,
5633,5634,5635,5636,5637,5638,6771,6772,6773,6774,6775,6776,7547,7548,2098,2099
</chunk>
   <chunk x="-80" y="-32" width="16" height="16">
2066,2067,2066,2067,2066,2067,2066,2067,2462,2463,2144,2145,2144,2145,2144,2145,
2098,2099,2098,2099,2098,2099,2098,2099,2494,2495,2176,2177,2176,2177,2176,2177,
2066,2067,2066,2067,2066,2067,2147486049,2147486048,2144,2145,2144,2145,2144,2145,2144,2145,
2098,2099,2098,2099,2098,2099,2147486081,2147486080,2176,2177,2176,2177,2176,2177,2176,2177,
2066,2067,2398,2399,1073744184,1073744185,2144,2145,2144,2145,2144,2145,2144,2145,2144,2145,
2098,2099,2430,2431,1073744152,1073744153,2176,2177,2176,2177,2176,2177,2176,2177,2176,2177,
2066,2067,2462,2463,2144,2145,2144,2145,2144,2145,2144,2145,2144,2145,2144,2145,
2098,2099,2494,2495,2176,2177,2176,2177,2176,2177,2176,2177,2176,2177,2176,2177,
2066,2067,3221227905,3221227904,2144,2145,2144,2145,2144,2145,2144,2145,2144,2145,2144,2145,
2098,2099,3221227873,3221227872,2176,2177,2176,2177,2176,2177,2176,2177,2176,2177,2176,2177,
2066,2067,2398,2399,2144,2145,2144,2145,2144,2145,2144,2145,2144,2145,2144,2145,
2098,2099,2430,2431,2176,2177,2176,2177,2176,2177,2176,2177,2176,2177,2176,2177,
2066,2067,2462,2463,2144,2145,2144,2145,2144,2145,2144,2145,2144,2145,2144,2145,
2098,2099,2494,2495,2176,2177,2176,2177,2176,2177,2176,2177,2176,2177,2176,2177,
2066,2067,1073744318,1073744319,2144,2145,2144,2145,2144,2145,2144,2145,2144,2145,2144,2145,
2098,2099,1073744286,1073744287,2176,2177,2176,2177,2176,2177,2176,2177,2176,2177,2176,2177
</chunk>
   <chunk x="-64" y="-32" width="16" height="16">
2144,2145,2144,2145,2144,2145,2144,2145,2144,2145,2144,2145,2144,2145,2144,2145,
2176,2177,2176,2177,2176,2177,2176,2177,2176,2177,2176,2177,2176,2177,2176,2177,
2144,2145,2144,2145,2144,2145,2144,2145,2144,2145,2144,2145,2144,2145,2144,2145,
2176,2177,2176,2177,2176,2177,2176,2177,2176,2177,2176,2177,2176,2177,2176,2177,
2144,2145,2144,2145,2144,2145,2144,2145,2144,2145,2144,2145,2144,2145,2144,2145,
2176,2177,2176,2177,2176,2177,2176,2177,2176,2177,2176,2177,2176,2177,2176,2177,
2144,2145,2144,2145,2144,2145,2144,2145,2144,2145,2144,2145,2144,2145,2144,2145,
2176,2177,2176,2177,2176,2177,2176,2177,2176,2177,2176,2177,2176,2177,2176,2177,
2246,2247,2144,2145,2144,2145,2144,2145,2144,2145,2144,2145,8157,8158,8159,8160,
2278,2279,2176,2177,2176,2177,2176,2177,2176,2177,2176,2177,8189,8190,8191,8192,
2144,2145,2144,2145,2144,2145,2144,2145,2144,2145,2147491548,2147491547,8009,8010,8011,8012,
2176,2177,2176,2177,2176,2177,2176,2177,2176,2177,2147491580,2147491579,8041,8042,8043,8044,
2144,2145,2144,2145,2144,2145,2144,2145,2144,2145,2147491612,2147491611,8073,8074,8075,8076,
2176,2177,2176,2177,2176,2177,2176,2177,2176,2177,2147491644,2147491643,8105,8106,8107,8108,
2144,2145,2144,2145,2144,2145,8157,8158,8159,8160,5409,5410,5411,5412,5413,5414,
2176,2177,2176,2177,2176,2177,8189,8190,8191,8192,5441,5442,5443,5444,5445,5446
</chunk>
   <chunk x="-48" y="-32" width="16" height="16">
2144,2145,2144,2145,2144,2145,2144,2145,2144,2145,2144,2145,2144,2145,2144,2145,
2176,2177,2176,2177,2176,2177,2176,2177,2176,2177,2176,2177,2176,2177,2176,2177,
2144,2145,8157,8158,8159,8160,1073749953,1073749954,8157,8158,8159,8160,7503,7504,7505,7506,
2176,2177,8189,8190,8191,8192,1073749921,1073749922,8189,8190,8191,8192,7535,7536,7537,7538,
2147491548,2147491547,8009,8010,8011,8012,6791,6792,6793,6794,6795,6796,8007,8008,8009,8010,
2147491580,2147491579,8041,8042,8043,8044,6823,6824,6825,6826,6827,6828,8039,8040,8041,8042,
2147491612,2147491611,8073,8074,8075,8076,6855,6856,6857,6858,6859,6860,8071,8072,8073,8074,
2147491644,2147491643,8105,8106,8107,8108,6887,6888,6889,6890,6891,6892,8103,8104,8105,8106,
5409,5410,5411,5412,5413,5414,7943,7944,7945,7946,7433,7434,2147491552,2147491551,7433,7434,
5441,5442,5443,5444,5445,5446,7975,7976,7977,7978,7465,7466,2147491584,2147491583,7465,7466,
5473,5474,5475,5476,5477,5478,8007,8008,7905,7906,8139,8140,8139,8140,8139,8140,
5505,5506,5507,5508,5509,5510,8039,8040,7937,7938,8171,8172,8171,8172,8171,8172,
5537,5538,5539,5540,5541,5542,7903,7904,8139,8140,8139,8140,8139,8140,8139,8140,
5569,5570,5571,5572,5573,5574,7935,7936,8171,8172,8171,8172,8171,8172,8171,8172,
7943,7944,7945,7946,7433,7434,8139,8140,8139,8140,8139,8140,8139,8140,8139,8140,
7975,7976,7977,7978,7465,7466,8171,8172,8171,8172,8171,8172,8171,8172,8171,8172
</chunk>
   <chunk x="-32" y="-32" width="16" height="16">
2144,2145,2144,2145,2144,2145,2144,2145,2144,2145,2144,2145,2144,2145,2144,2145,
2176,2177,2176,2177,2176,2177,2176,2177,2176,2177,2176,2177,2176,2177,2176,2177,
7503,7504,1073749953,1073749954,8157,8158,8159,8160,7503,7504,7505,7506,7503,7504,1073749953,1073749954,
7535,7536,1073749921,1073749922,8189,8190,8191,8192,7535,7536,7537,7538,7535,7536,1073749921,1073749922,
8011,8012,6791,6792,6793,6794,6795,6796,8007,8008,8009,8010,8011,8012,6791,6792,
8043,8044,6823,6824,6825,6826,6827,6828,8039,8040,8041,8042,8043,8044,6823,6824,
8075,8076,6855,6856,6857,6858,6859,6860,8071,8072,8073,8074,8075,8076,6855,6856,
8107,8108,6887,6888,6889,6890,6891,6892,8103,8104,8105,8106,8107,8108,6887,6888,
7435,7436,7435,7436,2147491552,2147491551,7433,7434,2147491552,2147491551,7433,7434,7435,7436,2147491084,2147491083,
7467,7468,7467,7468,2147491584,2147491583,7465,7466,2147491584,2147491583,7465,7466,7467,7468,2147491116,2147491115,
8139,8140,8139,8140,8139,8140,8139,8140,8139,8140,8139,8140,8139,8140,8139,8140,
8171,8172,8171,8172,8171,8172,8171,8172,8171,8172,8171,8172,8171,8172,8171,8172,
8139,8140,8139,8140,8139,8140,8139,8140,8139,8140,8139,8140,8139,8140,8139,8140,
8171,8172,8171,8172,8171,8172,8171,8172,8171,8172,8171,8172,8171,8172,8171,8172,
8139,8140,8139,8140,8139,8140,8139,8140,8139,8140,8139,8140,8139,8140,8139,8140,
8171,8172,8171,8172,8171,8172,8171,8172,8171,8172,8171,8172,8171,8172,8171,8172
</chunk>
   <chunk x="-16" y="-32" width="16" height="16">
2144,2145,2144,2145,2144,2145,2144,2145,2144,2145,2144,2145,2144,2145,2144,2145,
2176,2177,2176,2177,2176,2177,2176,2177,2176,2177,2176,2177,2176,2177,2176,2177,
8157,8158,8159,8160,2147491808,2147491807,2147491806,2147491805,2144,2145,2144,2145,2144,2145,2144,2145,
8189,8190,8191,8192,2147491840,2147491839,2147491838,2147491837,2176,2177,2176,2177,2176,2177,2176,2177,
6793,6794,6795,6796,7815,7816,7817,7818,7899,7900,2144,2145,2144,2145,2144,2145,
6825,6826,6827,6828,7847,7848,7849,7850,7931,7932,2176,2177,2176,2177,2176,2177,
6857,6858,6859,6860,7879,7880,7881,7882,7963,7964,2144,2145,2144,2145,2144,2145,
6889,6890,6891,6892,7911,7912,7913,7914,7995,7996,2176,2177,2176,2177,2176,2177,
2147491082,2147491081,7437,7438,7943,7944,7945,7946,7947,7948,1073749953,1073749954,8157,8158,8159,8160,
2147491114,2147491113,7469,7470,7975,7976,7977,7978,7979,7980,1073749921,1073749922,8189,8190,8191,8192,
8139,8140,7509,7510,8007,8008,8009,8010,8011,8012,6791,6792,6793,6794,6795,6796,
8171,8172,7541,7542,8039,8040,8041,8042,8043,8044,6823,6824,6825,6826,6827,6828,
8139,8140,7511,7512,8071,8072,8073,8074,8075,8076,6855,6856,6857,6858,6859,6860,
8171,8172,7543,7544,8103,8104,8105,8106,8107,8108,6887,6888,6889,6890,6891,6892,
8139,8140,7513,7514,5409,5410,5411,5412,5413,5414,5601,5602,5603,5604,5605,5606,
8171,8172,7545,7546,5441,5442,5443,5444,5445,5446,5633,5634,5635,5636,5637,5638
</chunk>
   <chunk x="0" y="-32" width="16" height="16">
2144,2145,2144,2145,2144,2145,2144,2145,2144,2145,2144,2145,2144,2145,2144,2145,
2176,2177,2176,2177,2176,2177,2176,2177,2176,2177,2176,2177,2176,2177,2176,2177,
2144,2145,2144,2145,2144,2145,2144,2145,2144,2145,2144,2145,2144,2145,2144,2145,
2176,2177,2176,2177,2176,2177,2176,2177,2176,2177,2176,2177,2176,2177,2176,2177,
2144,2145,2144,2145,2144,2145,2144,2145,2144,2145,2144,2145,2144,2145,2144,2145,
2176,2177,2176,2177,2176,2177,2176,2177,2176,2177,2176,2177,2176,2177,2176,2177,
2144,2145,2144,2145,2144,2145,2144,2145,2144,2145,2144,2145,2144,2145,2144,2145,
2176,2177,2176,2177,2176,2177,2176,2177,2176,2177,2176,2177,2176,2177,2176,2177,
7503,7504,7505,7506,7503,7504,1073749953,1073749954,8157,8158,8159,8160,7503,7504,7505,7506,
7535,7536,7537,7538,7535,7536,1073749921,1073749922,8189,8190,8191,8192,7535,7536,7537,7538,
8007,8008,8009,8010,8011,8012,6791,6792,6793,6794,6795,6796,8007,8008,8009,8010,
8039,8040,8041,8042,8043,8044,6823,6824,6825,6826,6827,6828,8039,8040,8041,8042,
8071,8072,8073,8074,8075,8076,6855,6856,6857,6858,6859,6860,8071,8072,8073,8074,
8103,8104,8105,8106,8107,8108,6887,6888,6889,6890,6891,6892,8103,8104,8105,8106,
7751,7752,7753,7754,7755,7756,8097,8098,1073750007,1073750008,1073750009,1073750010,1073750011,1073750012,1073750007,1073750008,
7783,7784,7785,7786,7787,7788,8129,8130,1073749975,1073749976,1073749977,1073749978,1073749979,1073749980,1073749975,1073749976
</chunk>
   <chunk x="16" y="-32" width="16" height="16">
2144,2145,2144,2145,2144,2145,2144,2145,2144,2145,2144,2145,2144,2145,2144,2145,
2176,2177,2176,2177,2176,2177,2176,2177,2176,2177,2176,2177,2176,2177,2176,2177,
2144,2145,2144,2145,2144,2145,2144,2145,2144,2145,8157,8158,8159,8160,1073749953,1073749954,
2176,2177,2176,2177,2176,2177,2176,2177,2176,2177,8189,8190,8191,8192,1073749921,1073749922,
2144,2145,2144,2145,2144,2145,2144,2145,2147491548,2147491547,8009,8010,8011,8012,6791,6792,
2176,2177,2176,2177,2176,2177,2176,2177,2147491580,2147491579,8041,8042,8043,8044,6823,6824,
2144,2145,2144,2145,2144,2145,2144,2145,2147491612,2147491611,8073,8074,8075,8076,6855,6856,
2176,2177,2176,2177,2176,2177,2176,2177,2147491644,2147491643,8105,8106,8107,8108,6887,6888,
7503,7504,1073749953,1073749954,8157,8158,8159,8160,7943,7944,7945,7946,7947,7948,7943,7944,
7535,7536,1073749921,1073749922,8189,8190,8191,8192,7975,7976,7977,7978,7979,7980,7975,7976,
8011,8012,6791,6792,6793,6794,6795,6796,8007,8008,8009,8010,8011,8012,8007,8008,
8043,8044,6823,6824,6825,6826,6827,6828,8039,8040,8041,8042,8043,8044,8039,8040,
8075,8076,6855,6856,6857,6858,6859,6860,8071,8072,8073,8074,8075,8076,7903,7904,
8107,8108,6887,6888,6889,6890,6891,6892,8103,8104,8105,8106,8107,8108,7935,7936,
1073750009,1073750010,1073750011,1073750012,1073750007,1073750008,8165,8166,8101,8102,8101,8102,8101,8102,8037,8038,
1073749977,1073749978,1073749979,1073749980,1073749975,1073749976,8197,8198,8133,8134,8133,8134,8133,8134,8069,8070
</chunk>
   <chunk x="32" y="-32" width="16" height="16">
2144,2145,2144,2145,2144,2145,2144,2145,2144,2145,2144,2145,2144,2145,2144,2145,
2176,2177,2176,2177,2176,2177,2176,2177,2176,2177,2176,2177,2176,2177,2176,2177,
8157,8158,8159,8160,7503,7504,7505,7506,7503,7504,1073749953,1073749954,8157,8158,8159,8160,
8189,8190,8191,8192,7535,7536,7537,7538,7535,7536,1073749921,1073749922,8189,8190,8191,8192,
6793,6794,6795,6796,8007,8008,8009,8010,8011,8012,6791,6792,6793,6794,6795,6796,
6825,6826,6827,6828,8039,8040,8041,8042,8043,8044,6823,6824,6825,6826,6827,6828,
6857,6858,6859,6860,8071,8072,8073,8074,8075,8076,6855,6856,6857,6858,6859,6860,
6889,6890,6891,6892,8103,8104,8105,8106,8107,8108,6887,6888,6889,6890,6891,6892,
7945,7946,7433,7434,2147491552,2147491551,7433,7434,7435,7436,7435,7436,2147491552,2147491551,7433,7434,
7977,7978,7465,7466,2147491584,2147491583,7465,7466,7467,7468,7467,7468,2147491584,2147491583,7465,7466,
7905,7906,8139,8140,8139,8140,8139,8140,8139,8140,8139,8140,8139,8140,8139,8140,
7937,7938,8171,8172,8171,8172,8171,8172,8171,8172,8171,8172,8171,8172,8171,8172,
8139,8140,8139,8140,8139,8140,8139,8140,8139,8140,8139,8140,8139,8140,8139,8140,
8171,8172,8171,8172,8171,8172,8171,8172,8171,8172,8171,8172,8171,8172,8171,8172,
8037,8038,8037,8038,7901,7902,8139,8140,8139,8140,8139,8140,8139,8140,8139,8140,
8069,8070,8069,8070,7933,7934,8171,8172,8171,8172,8171,8172,8171,8172,8171,8172
</chunk>
   <chunk x="48" y="-32" width="16" height="16">
2144,2145,2144,2145,2144,2145,2144,2145,2144,2145,2144,2145,2144,2145,2144,2145,
2176,2177,2176,2177,2176,2177,2176,2177,2176,2177,2176,2177,2176,2177,2176,2177,
7503,7504,7505,7506,7503,7504,1073749953,1073749954,8157,8158,8159,8160,7503,7504,7505,7506,
7535,7536,7537,7538,7535,7536,1073749921,1073749922,8189,8190,8191,8192,7535,7536,7537,7538,
8007,8008,8009,8010,8011,8012,6791,6792,6793,6794,6795,6796,8007,8008,8009,8010,
8039,8040,8041,8042,8043,8044,6823,6824,6825,6826,6827,6828,8039,8040,8041,8042,
8071,8072,8073,8074,8075,8076,6855,6856,6857,6858,6859,6860,8071,8072,8073,8074,
8103,8104,8105,8106,8107,8108,6887,6888,6889,6890,6891,6892,8103,8104,8105,8106,
2147491552,2147491551,7433,7434,7435,7436,2147491084,2147491083,2147491082,2147491081,7437,7438,7751,7752,7753,7754,
2147491584,2147491583,7465,7466,7467,7468,2147491116,2147491115,2147491114,2147491113,7469,7470,7783,7784,7785,7786,
8139,8140,8139,8140,8139,8140,8139,8140,8139,8140,7509,7510,7815,7816,7817,7818,
8171,8172,8171,8172,8171,8172,8171,8172,8171,8172,7541,7542,7847,7848,7849,7850,
8139,8140,8139,8140,8139,8140,8035,8036,8037,8038,7627,7628,7569,7570,7571,7572,
8171,8172,8171,8172,8171,8172,8067,8068,8069,8070,7659,7660,7601,7602,7603,7604,
8139,8140,8139,8140,2147491622,2147491621,2400,2401,2066,2067,2066,2067,7501,7502,2147485721,2147485720,
8171,8172,8171,8172,2147491654,2147491653,2432,2433,2098,2099,2098,2099,7533,7534,2147485753,2147485752
</chunk>
   <chunk x="64" y="-32" width="16" height="16">
2144,2145,2144,2145,2144,2145,2144,2145,2144,2145,2144,2145,2144,2145,2144,2145,
2176,2177,2176,2177,2176,2177,2176,2177,2176,2177,2176,2177,2176,2177,2176,2177,
7503,7504,1073749953,1073749954,8157,8158,8159,8160,2147491808,2147491807,2147491806,2147491805,2144,2145,2144,2145,
7535,7536,1073749921,1073749922,8189,8190,8191,8192,2147491840,2147491839,2147491838,2147491837,2176,2177,2176,2177,
8011,8012,6791,6792,6793,6794,6795,6796,7815,7816,7817,7818,7899,7900,2144,2145,
8043,8044,6823,6824,6825,6826,6827,6828,7847,7848,7849,7850,7931,7932,2176,2177,
8075,8076,6855,6856,6857,6858,6859,6860,7879,7880,7881,7882,7963,7964,2144,2145,
8107,8108,6887,6888,6889,6890,6891,6892,7911,7912,7913,7914,7995,7996,2176,2177,
7755,7756,7943,7944,7945,7946,7947,7948,5601,5602,5603,5604,5605,5606,2147491808,2147491807,
7787,7788,7975,7976,7977,7978,7991,7980,5633,5634,5635,5636,5637,5638,2147491840,2147491839,
7819,7820,8007,8008,8009,8010,8023,8012,5665,5666,5667,5668,5669,5670,7815,7816,
7851,7852,8039,8040,8041,8042,8043,8044,5697,5698,5699,5700,5701,5702,7847,7848,
7573,7574,7843,7844,7573,7574,7569,7570,5729,5730,5731,5732,5733,5734,7879,7880,
7605,7606,7875,7876,7605,7606,7601,7602,5761,5762,5763,5764,5765,5766,7911,7912,
2147485719,2147485718,2136,2137,2147485721,2147485720,2147485719,2147485718,7909,7910,7753,7754,7755,7756,7943,7944,
2147485751,2147485750,2168,2169,2147485753,2147485752,2147485751,2147485750,7941,7942,7785,7786,7787,7788,7975,7976
</chunk>
   <chunk x="80" y="-32" width="16" height="16">
2144,2145,2144,2145,2144,2145,2144,2145,2144,2145,2144,2145,2144,2145,2144,2145,
2176,2177,2176,2177,2176,2177,2176,2177,2176,2177,2176,2177,2176,2177,2176,2177,
2144,2145,2144,2145,2144,2145,2144,2145,2144,2145,2144,2145,2144,2145,2144,2145,
2176,2177,2176,2177,2176,2177,2176,2177,2176,2177,2176,2177,2176,2177,2176,2177,
2144,2145,2144,2145,2144,2145,2144,2145,2144,2145,2144,2145,2144,2145,2144,2145,
2176,2177,2176,2177,2176,2177,2176,2177,2176,2177,2176,2177,2176,2177,2176,2177,
2144,2145,2144,2145,2144,2145,2144,2145,2144,2145,2144,2145,2144,2145,2144,2145,
2176,2177,2176,2177,2176,2177,2176,2177,2176,2177,2176,2177,2176,2177,2176,2177,
2147491806,2147491805,2144,2145,2144,2145,2144,2145,2144,2145,2144,2145,2144,2145,2144,2145,
2147491838,2147491837,2176,2177,2176,2177,2176,2177,2176,2177,2176,2177,2176,2177,2176,2177,
7817,7818,7899,7900,2144,2145,2144,2145,2246,2247,2144,2145,2144,2145,2144,2145,
7849,7850,7931,7932,2176,2177,2176,2177,2278,2279,2176,2177,2176,2177,2176,2177,
7881,7882,7963,7964,7833,7834,7835,7836,2147491482,2147491481,2144,2145,2144,2145,2144,2145,
7913,7914,7995,7996,7865,7866,7867,7868,2147491514,2147491513,2176,2177,2176,2177,2176,2177,
7945,7946,7947,7948,7833,7834,7835,7836,2147491482,2147491481,2147491808,2147491807,2147491806,2147491805,2144,2145,
7977,7978,7979,7980,7865,7866,7867,7868,2147491514,2147491513,2147491840,2147491839,2147491838,2147491837,2176,2177
</chunk>
   <chunk x="96" y="-32" width="16" height="16">
2144,2145,2144,2145,2144,2145,2144,2145,2144,2145,2147486111,2147486110,2066,2067,2066,2067,
2176,2177,2176,2177,2176,2177,2176,2177,2176,2177,2147486143,2147486142,2098,2099,2098,2099,
2144,2145,2246,2247,2144,2145,2144,2145,2144,2145,2144,2145,1073744184,1073744185,1073744184,1073744185,
2176,2177,2278,2279,2176,2177,2176,2177,2176,2177,2176,2177,1073744152,1073744153,1073744152,1073744153,
2144,2145,2144,2145,2144,2145,2144,2145,2144,2145,2144,2145,2144,2145,2144,2145,
2176,2177,2176,2177,2176,2177,2176,2177,2176,2177,2176,2177,2176,2177,2176,2177,
2144,2145,2144,2145,2144,2145,2144,2145,2144,2145,2144,2145,2144,2145,2144,2145,
2176,2177,2176,2177,2176,2177,2176,2177,2176,2177,2176,2177,2176,2177,2176,2177,
2144,2145,2144,2145,2144,2145,2144,2145,2144,2145,2144,2145,2144,2145,2144,2145,
2176,2177,2176,2177,2176,2177,2176,2177,2176,2177,2176,2177,2176,2177,2176,2177,
2144,2145,2144,2145,2144,2145,2144,2145,2144,2145,2144,2145,2144,2145,2144,2145,
2176,2177,2176,2177,2176,2177,2176,2177,2176,2177,2176,2177,2176,2177,2176,2177,
2144,2145,2144,2145,2144,2145,2144,2145,2144,2145,2144,2145,2144,2145,2144,2145,
2176,2177,2176,2177,2176,2177,2176,2177,2176,2177,2176,2177,2176,2177,2176,2177,
2144,2145,2246,2247,2144,2145,2144,2145,2144,2145,2144,2145,2144,2145,2144,2145,
2176,2177,2278,2279,2176,2177,2176,2177,2176,2177,2176,2177,2176,2177,2176,2177
</chunk>
   <chunk x="112" y="-32" width="16" height="16">
2066,2067,2066,2067,2066,2067,2147485847,2147485846,2376,2377,2376,2377,2376,2377,6855,6856,
2098,2099,2098,2099,2098,2099,2147485879,2147485878,2408,2409,2408,2409,2408,2409,6887,6888,
1073744184,1073744185,2400,2401,2066,2067,2066,2067,2147485721,2147485720,2147485719,2147485718,2147485833,2147485832,6919,6920,
1073744152,1073744153,2432,2433,2098,2099,2098,2099,2147485753,2147485752,2147485751,2147485750,2147485865,2147485864,6951,6952,
2144,2145,2144,2145,1073744184,1073744185,2147486047,2147486046,2066,2067,2066,2067,2147485783,2147485782,6983,6984,
2176,2177,2176,2177,1073744152,1073744153,2147486079,2147486078,2098,2099,2098,2099,2147485815,2147485814,7015,7016,
2144,2145,2144,2145,2144,2145,2147486111,2147486110,2066,2067,2066,2067,2147485847,2147485846,7843,7844,
2176,2177,2176,2177,2176,2177,2147486143,2147486142,2098,2099,2098,2099,2147485879,2147485878,7875,7876,
2144,2145,2144,2145,2144,2145,2147485913,2147485912,2066,2067,2066,2067,2066,2067,2147485783,2147485782,
2176,2177,2176,2177,2176,2177,2147485945,2147485944,2098,2099,2098,2099,2098,2099,2147485815,2147485814,
2144,2145,2144,2145,2144,2145,2147485913,2147485912,2066,2067,2066,2067,2066,2067,2147485847,2147485846,
2176,2177,2176,2177,2176,2177,2147485945,2147485944,2098,2099,2098,2099,2098,2099,2147485879,2147485878,
2144,2145,2144,2145,2144,2145,2147485913,2147485912,2066,2067,2066,2067,2066,2067,2066,2067,
2176,2177,2176,2177,2176,2177,2147485945,2147485944,2098,2099,2098,2099,2098,2099,2098,2099,
2144,2145,2144,2145,2144,2145,2144,2145,2400,2401,2066,2067,2066,2067,2066,2067,
2176,2177,2176,2177,2176,2177,2176,2177,2432,2433,2098,2099,2098,2099,2098,2099
</chunk>
   <chunk x="128" y="-32" width="16" height="16">
6857,6858,6859,6860,7053,7054,7055,7056,7057,7058,6861,6862,6863,6864,6865,6866,
6889,6890,6891,6892,7085,7086,7087,7088,7089,7090,6893,6894,6895,6896,6897,6898,
6921,6922,6923,6924,5409,5410,5411,5412,5413,5414,6925,6926,6927,6928,6929,6930,
6953,6954,6955,6956,5441,5442,5443,5444,5445,5446,6957,6958,6959,6960,6961,6962,
6985,6986,6987,6988,5473,5474,5475,5476,5477,5478,6989,6990,6991,6992,6993,6994,
7017,7018,7019,7020,5505,5506,5507,5508,5509,5510,7021,7022,7023,7024,7025,7026,
7573,7574,7569,7570,5537,5538,5539,5540,5541,5542,7053,7054,7055,7056,7057,7058,
7605,7606,7601,7602,5569,5570,5571,5572,5573,5574,7085,7086,7087,7088,7089,7090,
2376,2377,2376,2377,6919,6920,6921,6922,6923,6924,6733,6734,6735,6736,6737,6738,
2408,2409,2408,2409,6951,6952,6953,6954,6955,6956,6765,6766,6767,6768,6769,6770,
2376,2377,2376,2377,6983,6984,6985,6986,6987,6988,6797,6798,6799,6800,6801,6802,
2408,2409,2408,2409,7015,7016,7017,7018,7019,7020,6829,6830,6831,6832,6833,6834,
2147485721,2147485720,2147485719,2147485718,7843,7844,7573,7574,7569,7570,6861,6862,6863,6864,6865,6866,
2147485753,2147485752,2147485751,2147485750,7875,7876,7605,7606,7601,7602,6893,6894,6895,6896,6897,6898,
2066,2067,2066,2067,2147485721,2147485720,2147485719,2147485718,2147485833,2147485832,7909,7910,6927,6928,6929,6930,
2098,2099,2098,2099,2147485753,2147485752,2147485751,2147485750,2147485865,2147485864,7941,7942,6959,6960,6961,6962
</chunk>
   <chunk x="144" y="-32" width="16" height="16">
5729,5730,5731,5732,5733,5734,5537,5538,5539,5540,5541,5542,7059,7060,7061,7062,
5761,5762,5763,5764,5765,5766,5569,5570,5571,5572,5573,5574,7091,7092,7093,7094,
5409,5410,5411,5412,5413,5414,6919,6920,6921,6922,6923,6924,7955,7956,7957,7958,
5441,5442,5443,5444,5445,5446,6951,6952,6953,6954,6955,6956,7987,7988,7989,7990,
5473,5474,5475,5476,5477,5478,6983,6984,6985,6986,6987,6988,8019,8020,2147491558,2147491557,
5505,5506,5507,5508,5509,5510,7015,7016,7017,7018,7019,7020,8051,8052,2147491590,2147491589,
5537,5538,5539,5540,5541,5542,7047,7048,7049,7050,7051,7052,2147491492,2147491491,2376,2377,
5569,5570,5571,5572,5573,5574,7079,7080,7081,7082,7083,7084,2147491524,2147491523,2408,2409,
5601,5602,5603,5604,5605,5606,7751,7752,7753,7754,2147491558,2147491557,2184,2185,2070,2071,
5633,5634,5635,5636,5637,5638,7783,7784,7785,7786,2147491590,2147491589,2216,2217,2102,2103,
5665,5666,5667,5668,5669,5670,7815,7816,2147491558,2147491557,2376,2377,2134,2135,2066,2067,
5697,5698,5699,5700,5701,5702,7847,7848,2147491590,2147491589,2408,2409,2166,2167,2098,2099,
5729,5730,5731,5732,5733,5734,2147491492,2147491491,2376,2377,2376,2377,2198,2199,2066,2067,
5761,5762,5763,5764,5765,5766,2147491524,2147491523,2408,2409,2408,2409,2230,2231,2098,2099,
5409,5410,5411,5412,5413,5414,2184,2185,2070,2071,2072,2073,2066,2067,2066,2067,
5441,5442,5443,5444,5445,5446,2216,2217,2102,2103,2104,2105,2098,2099,2098,2099
</chunk>
   <chunk x="160" y="-32" width="16" height="16">
7063,7064,7569,7570,7571,7572,7573,7574,7843,7844,7573,7574,7569,7570,7569,7570,
7095,7096,7601,7602,7603,7604,7605,7606,7875,7876,7605,7606,7601,7602,7601,7602,
2147491558,2147491557,2184,2185,2070,2071,2072,2073,7501,7502,7501,7502,7501,7502,7501,7502,
2147491590,2147491589,2216,2217,2102,2103,2104,2105,7533,7534,7533,7534,7533,7534,7533,7534,
2376,2377,2134,2135,2066,2067,2066,2067,2066,2067,2066,2067,2066,2067,2066,2067,
2408,2409,2166,2167,2098,2099,2098,2099,2098,2099,2098,2099,2098,2099,2098,2099,
2376,2377,2198,2199,2066,2067,2066,2067,2147486049,2147486048,1073744184,1073744185,2400,2401,2147486049,2147486048,
2408,2409,2230,2231,2098,2099,2098,2099,2147486081,2147486080,1073744152,1073744153,2432,2433,2147486081,2147486080,
2072,2073,2066,2067,2066,2067,2147486049,2147486048,2144,2145,2144,2145,2144,2145,2144,2145,
2104,2105,2098,2099,2098,2099,2147486081,2147486080,2176,2177,2176,2177,2176,2177,2176,2177,
2066,2067,2398,2399,1073744184,1073744185,2144,2145,2144,2145,2144,2145,2144,2145,2144,2145,
2098,2099,2430,2431,1073744152,1073744153,2176,2177,2176,2177,2176,2177,2176,2177,2176,2177,
2066,2067,2462,2463,2144,2145,2144,2145,2144,2145,2144,2145,2144,2145,2144,2145,
2098,2099,2494,2495,2176,2177,2176,2177,2176,2177,2176,2177,2176,2177,2176,2177,
2147486049,2147486048,2144,2145,8157,8158,8159,8160,7503,7504,7505,7506,7503,7504,1073749953,1073749954,
2147486081,2147486080,2176,2177,8189,8190,8191,8192,7535,7536,7537,7538,7535,7536,1073749921,1073749922
</chunk>
   <chunk x="176" y="-32" width="16" height="16">
7571,7572,7573,7574,7843,7844,7573,7574,7569,7570,0,0,0,0,0,0,
7603,7604,7605,7606,7875,7876,7605,7606,7601,7602,0,0,0,0,0,0,
7501,7502,7501,7502,7501,7502,7501,7502,7501,7502,0,0,0,0,0,0,
7533,7534,7533,7534,7533,7534,7533,7534,7533,7534,0,0,0,0,0,0,
2066,2067,2066,2067,2066,2067,2066,2067,2066,2067,0,0,0,0,0,0,
2098,2099,2098,2099,2098,2099,2098,2099,2098,2099,0,0,0,0,0,0,
1073744184,1073744185,2400,2401,2147486049,2147486048,1073744184,1073744185,2400,2401,0,0,0,0,0,0,
1073744152,1073744153,2432,2433,2147486081,2147486080,1073744152,1073744153,2432,2433,0,0,0,0,0,0,
2144,2145,2144,2145,2144,2145,8157,8158,8159,8160,0,0,0,0,0,0,
2176,2177,2176,2177,2176,2177,8189,8190,8191,8192,0,0,0,0,0,0,
2144,2145,2144,2145,2147491548,2147491547,8009,8010,8011,8012,0,0,0,0,0,0,
2176,2177,2176,2177,2147491580,2147491579,8041,8042,8043,8044,0,0,0,0,0,0,
2144,2145,2144,2145,2147491612,2147491611,8073,8074,8075,8076,0,0,0,0,0,0,
2176,2177,2176,2177,2147491644,2147491643,8105,8106,8107,8108,0,0,0,0,0,0,
8157,8158,8159,8160,5601,5602,5603,5604,5605,5606,0,0,0,0,0,0,
8189,8190,8191,8192,5633,5634,5635,5636,5637,5638,0,0,0,0,0,0
</chunk>
   <chunk x="-112" y="-16" width="16" height="16">
0,0,0,0,0,0,0,0,0,0,5473,5474,5475,5476,5477,5478,
0,0,0,0,0,0,0,0,0,0,5505,5506,5507,5508,5509,5510,
0,0,0,0,0,0,0,0,0,0,5537,5538,5539,5540,5541,5542,
0,0,0,0,0,0,0,0,0,0,5569,5570,5571,5572,5573,5574,
0,0,0,0,0,0,0,0,0,0,5601,5602,5603,5604,5605,5606,
0,0,0,0,0,0,0,0,0,0,5633,5634,5635,5636,5637,5638,
0,0,0,0,0,0,0,0,0,0,5665,5666,5667,5668,5669,5670,
0,0,0,0,0,0,0,0,0,0,5697,5698,5699,5700,5701,5702,
0,0,0,0,0,0,0,0,0,0,5729,5730,5731,5732,5733,5734,
0,0,0,0,0,0,0,0,0,0,5761,5762,5763,5764,5765,5766,
0,0,0,0,0,0,0,0,0,0,5409,5410,5411,5412,5413,5414,
0,0,0,0,0,0,0,0,0,0,5441,5442,5443,5444,5445,5446,
0,0,0,0,0,0,0,0,0,0,5473,5474,5475,5476,5477,5478,
0,0,0,0,0,0,0,0,0,0,5505,5506,5507,5508,5509,5510,
0,0,0,0,0,0,0,0,0,0,5537,5538,5539,5540,5541,5542,
0,0,0,0,0,0,0,0,0,0,5569,5570,5571,5572,5573,5574
</chunk>
   <chunk x="-96" y="-16" width="16" height="16">
5665,5666,5667,5668,5669,5670,6803,6804,6805,6806,6807,6808,7517,7518,2066,2067,
5697,5698,5699,5700,5701,5702,6835,6836,6837,6838,6839,6840,7549,7550,2098,2099,
5729,5730,5731,5732,5733,5734,6867,6868,6869,6870,6871,6872,7519,7520,2066,2067,
5761,5762,5763,5764,5765,5766,6899,6900,6901,6902,6903,6904,7551,7552,2098,2099,
5409,5410,5411,5412,5413,5414,6931,6932,6933,6934,6935,6936,7521,7522,2066,2067,
5441,5442,5443,5444,5445,5446,6963,6964,6965,6966,6967,6968,7553,7554,2098,2099,
5473,5474,5475,5476,5477,5478,6995,6996,6997,6998,6999,7000,7523,7524,2066,2067,
5505,5506,5507,5508,5509,5510,7027,7028,7029,7030,7031,7032,7555,7556,2098,2099,
5537,5538,5539,5540,5541,5542,7059,7060,7061,7062,7063,7064,7525,7526,2066,2067,
5569,5570,5571,5572,5573,5574,7091,7092,7093,7094,7095,7096,7557,7558,2098,2099,
5601,5602,5603,5604,5605,5606,6739,6740,6741,6742,6743,6744,7515,7516,2066,2067,
5633,5634,5635,5636,5637,5638,6771,6772,6773,6774,6775,6776,7547,7548,2098,2099,
5665,5666,5667,5668,5669,5670,6803,6804,6805,6806,6807,6808,7517,7518,2066,2067,
5697,5698,5699,5700,5701,5702,6835,6836,6837,6838,6839,6840,7549,7550,2098,2099,
5729,5730,5731,5732,5733,5734,6867,6868,6869,6870,6871,6872,7519,7520,2066,2067,
5761,5762,5763,5764,5765,5766,6899,6900,6901,6902,6903,6904,7551,7552,2098,2099
</chunk>
   <chunk x="-80" y="-16" width="16" height="16">
2066,2067,1073744254,1073744255,2144,2145,2144,2145,2144,2145,2144,2145,2144,2145,2144,2145,
2098,2099,1073744222,1073744223,2176,2177,2176,2177,2176,2177,2176,2177,2176,2177,2176,2177,
2066,2067,2066,2067,2522,2523,3221227905,3221227904,2144,2145,2144,2145,2144,2145,2144,2145,
2098,2099,2098,2099,2554,2555,3221227873,3221227872,2176,2177,2176,2177,2176,2177,2176,2177,
2066,2067,2066,2067,2066,2067,2066,2067,3221227905,3221227904,2144,2145,2144,2145,2144,2145,
2098,2099,2098,2099,2098,2099,2098,2099,3221227873,3221227872,2176,2177,2176,2177,2176,2177,
2066,2067,2066,2067,2066,2067,2066,2067,2398,2399,2144,2145,2144,2145,2147491548,2147491547,
2098,2099,2098,2099,2098,2099,2098,2099,2430,2431,2176,2177,2176,2177,2147491580,2147491579,
2066,2067,2066,2067,2066,2067,2066,2067,2462,2463,2144,2145,2144,2145,2147491612,2147491611,
2098,2099,2098,2099,2098,2099,2098,2099,2494,2495,2176,2177,2176,2177,2147491644,2147491643,
2066,2067,2066,2067,2066,2067,2147486049,2147486048,2144,2145,2144,2145,2144,2145,3221233468,3221233467,
2098,2099,2098,2099,2098,2099,2147486081,2147486080,2176,2177,2176,2177,2176,2177,3221233436,3221233435,
2066,2067,2398,2399,1073744184,1073744185,2144,2145,2144,2145,2144,2145,2144,2145,3221233404,3221233403,
2098,2099,2430,2431,1073744152,1073744153,2176,2177,2176,2177,2176,2177,2176,2177,3221233372,3221233371,
2066,2067,2462,2463,2144,2145,2144,2145,2144,2145,2144,2145,2144,2145,2144,2145,
2098,2099,2494,2495,2176,2177,2176,2177,2176,2177,2176,2177,2176,2177,2176,2177
</chunk>
   <chunk x="-64" y="-16" width="16" height="16">
2144,2145,2144,2145,2147491548,2147491547,8009,8010,8011,8012,5473,5474,5475,5476,5477,5478,
2176,2177,2176,2177,2147491580,2147491579,8041,8042,8043,8044,5505,5506,5507,5508,5509,5510,
2144,2145,2144,2145,2147491612,2147491611,8073,8074,8075,8076,5537,5538,5539,5540,5541,5542,
2176,2177,2176,2177,2147491644,2147491643,8105,8106,8107,8108,5569,5570,5571,5572,5573,5574,
8157,8158,8159,8160,5409,5410,5411,5412,5413,5414,5601,5602,5603,5604,5605,5606,
8189,8190,8191,8192,5441,5442,5443,5444,5445,5446,5633,5634,5635,5636,5637,5638,
8009,8010,8011,8012,5473,5474,5475,5476,5477,5478,5665,5666,5667,5668,5669,5670,
8041,8042,8043,8044,5505,5506,5507,5508,5509,5510,5697,5698,5699,5700,5701,5702,
8073,8074,8075,8076,5537,5538,5539,5540,5541,5542,5729,5730,5731,5732,5733,5734,
8105,8106,8107,8108,5569,5570,5571,5572,5573,5574,5761,5762,5763,5764,5765,5766,
7753,7754,7755,7756,5601,5602,5603,5604,5605,5606,7763,7764,7765,7766,7767,7768,
7785,7786,7787,7788,5633,5634,5635,5636,5637,5638,7795,7796,7797,7798,7799,7800,
7817,7818,7819,7820,5665,5666,5667,5668,5669,5670,7827,7828,7829,7830,7831,7832,
7849,7850,7851,7852,5697,5698,5699,5700,5701,5702,7859,7860,7861,7862,7863,7864,
1073750013,1073750014,1073750015,1073750016,5729,5730,5731,5732,5733,5734,7891,7892,7893,7894,7895,7896,
1073749981,1073749982,1073749983,1073749984,5761,5762,5763,5764,5765,5766,7923,7924,7925,7926,7927,7928
</chunk>
   <chunk x="-48" y="-16" width="16" height="16">
8007,8008,7905,7906,8139,8140,8139,8140,8139,8140,8139,8140,8139,8140,8139,8140,
8039,8040,7937,7938,8171,8172,8171,8172,8171,8172,8171,8172,8171,8172,8171,8172,
7433,7434,8139,8140,8139,8140,8139,8140,8139,8140,8139,8140,8139,8140,8139,8140,
7465,7466,8171,8172,8171,8172,8171,8172,8171,8172,8171,8172,8171,8172,8171,8172,
2147491162,2147491161,8139,8140,8139,8140,8139,8140,8139,8140,8139,8140,8139,8140,8139,8140,
2147491194,2147491193,8171,8172,8171,8172,8171,8172,8171,8172,8171,8172,8171,8172,8171,8172,
2147491272,2147491271,8139,8140,8139,8140,8139,8140,8139,8140,8139,8140,8139,8140,8139,8140,
2147491304,2147491303,8171,8172,8171,8172,8171,8172,8171,8172,8171,8172,8171,8172,8171,8172,
2147491294,2147491293,8139,8140,8139,8140,8139,8140,8139,8140,8139,8140,8139,8140,8139,8140,
2147491326,2147491325,8171,8172,8171,8172,8171,8172,8171,8172,8171,8172,8171,8172,8171,8172,
2147491156,2147491155,8139,8140,8139,8140,8139,8140,8139,8140,8139,8140,8139,8140,8139,8140,
2147491188,2147491187,8171,8172,8171,8172,8171,8172,8171,8172,8171,8172,8171,8172,8171,8172,
2147491158,2147491157,8139,8140,8139,8140,8139,8140,8139,8140,8139,8140,8139,8140,8139,8140,
2147491190,2147491189,8171,8172,8171,8172,8171,8172,8171,8172,8171,8172,8171,8172,8171,8172,
2147491160,2147491159,8139,8140,8139,8140,8139,8140,8139,8140,8139,8140,8139,8140,8139,8140,
2147491192,2147491191,8171,8172,8171,8172,8171,8172,8171,8172,8171,8172,8171,8172,8171,8172
</chunk>
   <chunk x="-32" y="-16" width="16" height="16">
8139,8140,8139,8140,8139,8140,8139,8140,8139,8140,8139,8140,8139,8140,8139,8140,
8171,8172,8171,8172,8171,8172,8171,8172,8171,8172,8171,8172,8171,8172,8171,8172,
8139,8140,8139,8140,8139,8140,8139,8140,8139,8140,8139,8140,8139,8140,8139,8140,
8171,8172,8171,8172,8171,8172,8171,8172,8171,8172,8171,8172,8171,8172,8171,8172,
8139,8140,8139,8140,8139,8140,8139,8140,8139,8140,8139,8140,8139,8140,8139,8140,
8171,8172,8171,8172,8171,8172,8171,8172,8171,8172,8171,8172,8171,8172,8171,8172,
8139,8140,8139,8140,8139,8140,8139,8140,8139,8140,8139,8140,8139,8140,8139,8140,
8171,8172,8171,8172,8171,8172,8171,8172,8171,8172,8171,8172,8171,8172,8171,8172,
8139,8140,8139,8140,8139,8140,8139,8140,8139,8140,8139,8140,8139,8140,8139,8140,
8171,8172,8171,8172,8171,8172,8171,8172,8171,8172,8171,8172,8171,8172,8171,8172,
8139,8140,8139,8140,8139,8140,8139,8140,8139,8140,8139,8140,8139,8140,8139,8140,
8171,8172,8171,8172,8171,8172,8171,8172,8171,8172,8171,8172,8171,8172,8171,8172,
8139,8140,8139,8140,8139,8140,8139,8140,8139,8140,8139,8140,8139,8140,8139,8140,
8171,8172,8171,8172,8171,8172,8171,8172,8171,8172,8171,8172,8171,8172,8171,8172,
8139,8140,8139,8140,8139,8140,8139,8140,8139,8140,8139,8140,8139,8140,8139,8140,
8171,8172,8171,8172,8171,8172,8171,8172,8171,8172,8171,8172,8171,8172,8171,8172
</chunk>
   <chunk x="-16" y="-16" width="16" height="16">
8139,8140,7623,7624,5473,5474,5475,5476,5477,5478,5665,5666,5667,5668,5669,5670,
8171,8172,7655,7656,5505,5506,5507,5508,5509,5510,5697,5698,5699,5700,5701,5702,
8139,8140,7645,7646,5537,5538,5539,5540,5541,5542,5729,5730,5731,5732,5733,5734,
8171,8172,7677,7678,5569,5570,5571,5572,5573,5574,5761,5762,5763,5764,5765,5766,
8139,8140,7507,7508,5601,5602,5603,5604,5605,5606,7949,7950,7951,7952,7959,7960,
8171,8172,7539,7540,5633,5634,5635,5636,5637,5638,7981,7982,7983,7984,7991,7992,
8139,8140,7509,7510,5665,5666,5667,5668,5669,5670,8013,8014,8015,8016,8023,8024,
8171,8172,7541,7542,5697,5698,5699,5700,5701,5702,8045,8046,8047,8048,8055,8056,
8139,8140,7511,7512,5729,5730,5731,5732,5733,5734,8077,8078,8079,8080,8097,8098,
8171,8172,7543,7544,5761,5762,5763,5764,5765,5766,8109,8110,8111,8112,8129,8130,
8139,8140,7513,7514,5409,5410,5411,5412,5413,5414,7757,7758,7759,7760,7961,7962,
8171,8172,7545,7546,5441,5442,5443,5444,5445,5446,7789,7790,7791,7792,7993,7994,
8139,8140,7623,7624,5473,5474,5475,5476,5477,5478,7821,7822,7823,7824,8025,8026,
8171,8172,7655,7656,5505,5506,5507,5508,5509,5510,7853,7854,7855,7856,8057,8058,
8139,8140,7645,7646,5537,5538,5539,5540,5541,5542,7885,7886,7887,7888,7895,7896,
8171,8172,7677,7678,5569,5570,5571,5572,5573,5574,7917,7918,7919,7920,7927,7928
</chunk>
   <chunk x="0" y="-16" width="16" height="16">
7815,7816,7817,7818,7819,7820,1073749753,1073749754,2144,2145,2144,2145,2144,2145,2144,2145,
7847,7848,7849,7850,7851,7852,1073749721,1073749722,2176,2177,2176,2177,2176,2177,2176,2177,
7879,7880,7881,7882,7883,7884,7897,7898,2144,2145,2144,2145,2144,2145,2144,2145,
7911,7912,7913,7914,7915,7916,7929,7930,2176,2177,2176,2177,2176,2177,2176,2177,
7949,7950,1073749881,1073749882,1073749883,1073749884,2144,2145,2144,2145,2144,2145,2144,2145,2246,2247,
7981,7982,1073749849,1073749850,1073749851,1073749852,2176,2177,2176,2177,2176,2177,2176,2177,2278,2279,
8097,8098,2144,2145,2144,2145,2144,2145,2144,2145,2144,2145,2144,2145,2144,2145,
8129,8130,2176,2177,2176,2177,2176,2177,2176,2177,2176,2177,2176,2177,2176,2177,
2144,2145,2144,2145,2144,2145,2144,2145,2144,2145,2144,2145,2144,2145,2144,2145,
2176,2177,2176,2177,2176,2177,2176,2177,2176,2177,2176,2177,2176,2177,2176,2177,
2144,2145,2144,2145,2144,2145,2144,2145,2144,2145,2144,2145,2144,2145,2144,2145,
2176,2177,2176,2177,2176,2177,2176,2177,2176,2177,2176,2177,2176,2177,2176,2177,
2144,2145,2144,2145,2144,2145,2144,2145,2144,2145,2144,2145,2144,2145,2144,2145,
2176,2177,2176,2177,2176,2177,2176,2177,2176,2177,2176,2177,2176,2177,2176,2177,
8025,8026,8027,8028,2144,2145,2144,2145,2144,2145,2144,2145,2144,2145,2144,2145,
8057,8058,8059,8060,2176,2177,2176,2177,2176,2177,2176,2177,2176,2177,2176,2177
</chunk>
   <chunk x="16" y="-16" width="16" height="16">
2144,2145,2144,2145,2246,2247,2147486047,2147486046,2066,2067,2066,2067,2066,2067,2066,2067,
2176,2177,2176,2177,2278,2279,2147486079,2147486078,2098,2099,2098,2099,2098,2099,2098,2099,
2144,2145,2246,2247,2144,2145,2147486111,2147486110,2066,2067,2066,2067,2066,2067,2066,2067,
2176,2177,2278,2279,2176,2177,2147486143,2147486142,2098,2099,2098,2099,2098,2099,2098,2099,
2144,2145,2144,2145,2144,2145,2144,2145,1073744184,1073744185,1073744184,1073744185,1073744184,1073744185,2400,2401,
2176,2177,2176,2177,2176,2177,2176,2177,1073744152,1073744153,1073744152,1073744153,1073744152,1073744153,2432,2433,
2144,2145,2144,2145,2144,2145,2144,2145,2144,2145,2144,2145,2144,2145,2144,2145,
2176,2177,2176,2177,2176,2177,2176,2177,2176,2177,2176,2177,2176,2177,2176,2177,
2144,2145,2144,2145,2144,2145,2144,2145,2144,2145,2144,2145,2144,2145,2144,2145,
2176,2177,2176,2177,2176,2177,2176,2177,2176,2177,2176,2177,2176,2177,2176,2177,
2144,2145,2144,2145,2144,2145,2144,2145,2144,2145,2144,2145,2144,2145,2144,2145,
2176,2177,2176,2177,2176,2177,2176,2177,2176,2177,2176,2177,2176,2177,2176,2177,
2144,2145,2144,2145,2144,2145,2144,2145,2144,2145,2144,2145,2144,2145,2144,2145,
2176,2177,2176,2177,2176,2177,2176,2177,2176,2177,2176,2177,2176,2177,2176,2177,
2144,2145,2144,2145,2144,2145,2144,2145,2144,2145,2144,2145,2144,2145,2144,2145,
2176,2177,2176,2177,2176,2177,2176,2177,2176,2177,2176,2177,2176,2177,2176,2177
</chunk>
   <chunk x="32" y="-16" width="16" height="16">
2066,2067,2066,2067,7965,7966,8139,8140,8139,8140,8139,8140,8139,8140,8139,8140,
2098,2099,2098,2099,7997,7998,8171,8172,8171,8172,8171,8172,8171,8172,8171,8172,
2066,2067,2066,2067,2066,2067,2147491686,2147491685,2147491684,2147491683,8139,8140,8139,8140,8139,8140,
2098,2099,2098,2099,2098,2099,2147491718,2147491717,2147491716,2147491715,8171,8172,8171,8172,8171,8172,
2066,2067,2066,2067,2066,2067,2066,2067,2066,2067,7901,7902,8139,8140,8139,8140,
2098,2099,2098,2099,2098,2099,2098,2099,2098,2099,7933,7934,8171,8172,8171,8172,
1073744184,1073744185,2147486047,2147486046,2066,2067,2066,2067,2066,2067,7965,7966,8139,8140,8139,8140,
1073744152,1073744153,2147486079,2147486078,2098,2099,2098,2099,2098,2099,7997,7998,8171,8172,8171,8172,
2144,2145,2147486111,2147486110,2147486049,2147486048,1073744184,1073744185,2400,2401,2066,2067,2147491686,2147491685,2147491684,2147491683,
2176,2177,2147486143,2147486142,2147486081,2147486080,1073744152,1073744153,2432,2433,2098,2099,2147491718,2147491717,2147491716,2147491715,
2144,2145,2144,2145,2144,2145,2144,2145,2144,2145,7431,7432,7431,7432,7431,7432,
2176,2177,2176,2177,2176,2177,2176,2177,2176,2177,7463,7464,7463,7464,7463,7464,
2144,2145,2144,2145,2144,2145,2144,2145,2144,2145,7495,7496,7495,7496,7495,7496,
2176,2177,2176,2177,2176,2177,2176,2177,2176,2177,7527,7528,7527,7528,7527,7528,
2144,2145,2144,2145,2144,2145,2144,2145,2144,2145,7559,7560,7559,7560,7559,7560,
2176,2177,2176,2177,2176,2177,2176,2177,2176,2177,7591,7592,7591,7592,7591,7592
</chunk>
   <chunk x="48" y="-16" width="16" height="16">
8139,8140,7623,7624,7899,7900,2144,2145,1073744184,1073744185,2147486047,2147486046,2398,2399,2400,2401,
8171,8172,7655,7656,7931,7932,2176,2177,1073744152,1073744153,2147486079,2147486078,2430,2431,2432,2433,
8139,8140,7645,7646,7963,7964,2144,2145,2144,2145,2147486111,2147486110,2462,2463,2144,2145,
8171,8172,7677,7678,7995,7996,2176,2177,2176,2177,2147486143,2147486142,2494,2495,2176,2177,
8139,8140,7507,7508,7947,7948,2147491808,2147491807,2147491806,2147491805,2144,2145,2144,2145,2144,2145,
8171,8172,7539,7540,7979,7980,2147491840,2147491839,2147491838,2147491837,2176,2177,2176,2177,2176,2177,
8139,8140,7509,7510,8011,8012,7815,7816,7817,7818,7899,7900,2144,2145,2144,2145,
8171,8172,7541,7542,8043,8044,7847,7848,7849,7850,7931,7932,2176,2177,2176,2177,
8139,8140,7511,7512,8075,8076,7879,7880,7881,7882,7963,7964,2144,2145,2144,2145,
8171,8172,7543,7544,8107,8108,7911,7912,7913,7914,7995,7996,2176,2177,2176,2177,
7431,7432,7431,7432,7431,7432,7431,7432,7431,7432,7431,7432,7431,7432,7431,7432,
7463,7464,7463,7464,7463,7464,7463,7464,7463,7464,7463,7464,7463,7464,7463,7464,
7495,7496,7495,7496,7495,7496,7495,7496,7495,7496,7495,7496,7495,7496,7495,7496,
7527,7528,7527,7528,7527,7528,7527,7528,7527,7528,7527,7528,7527,7528,7527,7528,
7561,7562,7561,7562,7559,7560,7559,7560,7559,7560,7559,7560,7559,7560,7559,7560,
7593,7594,7593,7594,7591,7592,7591,7592,7591,7592,7591,7592,7591,7592,7591,7592
</chunk>
   <chunk x="64" y="-16" width="16" height="16">
2066,2067,2066,2067,2066,2067,2066,2067,2147485785,2147485784,7909,7910,7573,7574,8007,8008,
2098,2099,2098,2099,2098,2099,2098,2099,2147485817,2147485816,7941,7942,7605,7606,8039,8040,
2400,2401,2066,2067,2066,2067,2066,2067,2066,2067,2147485721,2147485720,2147485719,2147485718,7843,7844,
2432,2433,2098,2099,2098,2099,2098,2099,2098,2099,2147485753,2147485752,2147485751,2147485750,7875,7876,
2144,2145,1073744184,1073744185,1073744184,1073744185,1073744184,1073744185,2400,2401,2066,2067,2066,2067,2147485721,2147485720,
2176,2177,1073744152,1073744153,1073744152,1073744153,1073744152,1073744153,2432,2433,2098,2099,2098,2099,2147485753,2147485752,
2144,2145,2144,2145,2144,2145,2144,2145,2144,2145,1073744184,1073744185,2147486047,2147486046,2066,2067,
2176,2177,2176,2177,2176,2177,2176,2177,2176,2177,1073744152,1073744153,2147486079,2147486078,2098,2099,
2144,2145,2144,2145,2144,2145,2144,2145,2144,2145,2144,2145,2147486111,2147486110,2066,2067,
2176,2177,2176,2177,2176,2177,2176,2177,2176,2177,2176,2177,2147486143,2147486142,2098,2099,
7431,7432,2144,2145,2246,2247,2144,2145,2144,2145,2144,2145,2144,2145,2400,2401,
7463,7464,2176,2177,2278,2279,2176,2177,2176,2177,2176,2177,2176,2177,2432,2433,
7495,7496,2144,2145,2144,2145,2144,2145,2144,2145,2144,2145,2144,2145,2144,2145,
7527,7528,2176,2177,2176,2177,2176,2177,2176,2177,2176,2177,2176,2177,2176,2177,
7559,7560,2144,2145,2144,2145,2144,2145,2144,2145,2144,2145,2144,2145,2144,2145,
7591,7592,2176,2177,2176,2177,2176,2177,2176,2177,2176,2177,2176,2177,2176,2177
</chunk>
   <chunk x="80" y="-16" width="16" height="16">
8009,8010,8011,8012,7833,7834,7835,7836,2147491482,2147491481,7815,7816,7817,7818,7899,7900,
8041,8042,8043,8044,7865,7866,7867,7868,2147491514,2147491513,7847,7848,7849,7850,7931,7932,
7573,7574,7569,7570,2376,2377,2376,2377,2376,2377,7879,7880,7881,7882,7963,7964,
7605,7606,7601,7602,2408,2409,2408,2409,2408,2409,7911,7912,7913,7914,7995,7996,
2147485719,2147485718,2147485833,2147485832,2376,2377,2376,2377,7499,7500,7943,7944,7945,7946,7947,7948,
2147485751,2147485750,2147485865,2147485864,2408,2409,2408,2409,7531,7532,7975,7976,7977,7978,7979,7980,
2066,2067,2147485783,2147485782,2376,2377,2376,2377,7497,7498,8007,8008,8009,8010,8011,8012,
2098,2099,2147485815,2147485814,2408,2409,2408,2409,7529,7530,8039,8040,8041,8042,8043,8044,
2066,2067,2147485847,2147485846,2376,2377,2376,2377,7499,7500,8071,8072,8073,8074,8075,8076,
2098,2099,2147485879,2147485878,2408,2409,2408,2409,7531,7532,8103,8104,8105,8106,8107,8108,
2066,2067,2066,2067,2147485721,2147485720,2147485719,2147485718,2147485833,2147485832,7763,7764,7765,7766,7767,7768,
2098,2099,2098,2099,2147485753,2147485752,2147485751,2147485750,2147485865,2147485864,7795,7796,7797,7798,7799,7800,
1073744184,1073744185,2147486047,2147486046,2066,2067,2066,2067,2147485783,2147485782,7827,7828,7829,7830,7831,7832,
1073744152,1073744153,2147486079,2147486078,2098,2099,2098,2099,2147485815,2147485814,7859,7860,7861,7862,7863,7864,
2144,2145,2147486111,2147486110,2066,2067,2066,2067,2147485847,2147485846,7569,7570,7571,7572,7573,7574,
2176,2177,2147486143,2147486142,2098,2099,2098,2099,2147485879,2147485878,7601,7602,7603,7604,7605,7606
</chunk>
   <chunk x="96" y="-16" width="16" height="16">
2144,2145,2144,2145,2144,2145,2144,2145,2144,2145,2144,2145,2144,2145,2144,2145,
2176,2177,2176,2177,2176,2177,2176,2177,2176,2177,2176,2177,2176,2177,2176,2177,
2144,2145,2144,2145,2144,2145,2144,2145,2144,2145,2144,2145,2144,2145,2144,2145,
2176,2177,2176,2177,2176,2177,2176,2177,2176,2177,2176,2177,2176,2177,2176,2177,
2144,2145,2144,2145,2144,2145,2144,2145,2144,2145,2144,2145,2144,2145,2144,2145,
2176,2177,2176,2177,2176,2177,2176,2177,2176,2177,2176,2177,2176,2177,2176,2177,
2144,2145,2144,2145,2144,2145,2144,2145,2144,2145,2144,2145,2144,2145,2144,2145,
2176,2177,2176,2177,2176,2177,2176,2177,2176,2177,2176,2177,2176,2177,2176,2177,
2144,2145,2144,2145,2144,2145,2144,2145,2144,2145,2144,2145,2144,2145,2144,2145,
2176,2177,2176,2177,2176,2177,2176,2177,2176,2177,2176,2177,2176,2177,2176,2177,
1073749953,1073749954,8157,8158,8159,8160,7503,7504,7505,7506,7503,7504,1073749953,1073749954,8157,8158,
1073749921,1073749922,8189,8190,8191,8192,7535,7536,7537,7538,7535,7536,1073749921,1073749922,8189,8190,
7815,7816,7817,7818,7819,7820,8007,8008,8009,8010,8011,8012,6791,6792,6793,6794,
7847,7848,7849,7850,7851,7852,8039,8040,8041,8042,8043,8044,6823,6824,6825,6826,
2147491222,2147491221,2147491220,2147491219,7843,7844,8071,8072,8073,8074,8075,8076,6855,6856,6857,6858,
2147491254,2147491253,2147491252,2147491251,7875,7876,8103,8104,8105,8106,8107,8108,6887,6888,6889,6890
</chunk>
   <chunk x="112" y="-16" width="16" height="16">
2144,2145,2144,2145,2144,2145,2144,2145,2144,2145,1073744184,1073744185,2147486047,2147486046,2066,2067,
2176,2177,2176,2177,2176,2177,2176,2177,2176,2177,1073744152,1073744153,2147486079,2147486078,2098,2099,
2144,2145,2144,2145,2144,2145,2144,2145,2144,2145,2144,2145,2147486111,2147486110,2066,2067,
2176,2177,2176,2177,2176,2177,2176,2177,2176,2177,2176,2177,2147486143,2147486142,2098,2099,
2144,2145,2144,2145,2144,2145,2144,2145,2144,2145,2144,2145,2144,2145,2400,2401,
2176,2177,2176,2177,2176,2177,2176,2177,2176,2177,2176,2177,2176,2177,2432,2433,
2144,2145,2144,2145,2144,2145,2246,2247,2144,2145,2144,2145,2144,2145,2144,2145,
2176,2177,2176,2177,2176,2177,2278,2279,2176,2177,2176,2177,2176,2177,2176,2177,
2144,2145,7833,7834,7835,7836,2147491482,2147491481,2144,2145,2144,2145,2144,2145,2144,2145,
2176,2177,7865,7866,7867,7868,2147491514,2147491513,2176,2177,2176,2177,2176,2177,2176,2177,
8159,8160,7833,7834,7835,7836,2147491482,2147491481,1073749953,1073749954,8157,8158,8159,8160,7503,7504,
8191,8192,7865,7866,7867,7868,2147491514,2147491513,1073749921,1073749922,8189,8190,8191,8192,7535,7536,
6795,6796,7833,7834,7835,7836,2147491482,2147491481,6791,6792,6793,6794,6795,6796,6983,6984,
6827,6828,7865,7866,7867,7868,2147491514,2147491513,6823,6824,6825,6826,6827,6828,7015,7016,
6859,6860,7833,7834,7835,7836,2147491482,2147491481,6855,6856,6857,6858,6859,6860,7047,7048,
6891,6892,7865,7866,7867,7868,2147491514,2147491513,6887,6888,6889,6890,6891,6892,7079,7080
</chunk>
   <chunk x="128" y="-16" width="16" height="16">
2066,2067,2066,2067,2066,2067,2066,2067,2147485783,2147485782,7769,7770,6991,6992,6993,6994,
2098,2099,2098,2099,2098,2099,2098,2099,2147485815,2147485814,7801,7802,7023,7024,7025,7026,
2066,2067,2066,2067,2066,2067,2066,2067,2147485847,2147485846,1073749699,1073749700,7055,7056,7057,7058,
2098,2099,2098,2099,2098,2099,2098,2099,2147485879,2147485878,1073749667,1073749668,7087,7088,7089,7090,
2066,2067,2066,2067,2066,2067,3221227577,3221227576,3221227575,3221227574,7909,7910,6735,6736,6737,6738,
2098,2099,2098,2099,2098,2099,3221227545,3221227544,3221227543,3221227542,7941,7942,6767,6768,6769,6770,
1073744184,1073744185,2147486047,2147486046,3221227703,3221227702,3221227689,3221227688,2376,2377,7769,7770,6799,6800,6801,6802,
1073744152,1073744153,2147486079,2147486078,3221227671,3221227670,3221227657,3221227656,2408,2409,7801,7802,6831,6832,6833,6834,
2144,2145,2147486111,2147486110,3221227639,3221227638,2376,2377,2376,2377,1073749699,1073749700,6863,6864,6865,6866,
2176,2177,2147486143,2147486142,3221227607,3221227606,2408,2409,2408,2409,1073749667,1073749668,6895,6896,6897,6898,
7505,7506,7503,7504,1073749699,1073749700,1073749429,1073749430,1073749425,1073749426,6727,6728,6729,6730,6731,6732,
7537,7538,7535,7536,1073749667,1073749668,1073749397,1073749398,1073749393,1073749394,6759,6760,6761,6762,6763,6764,
6985,6986,6987,6988,6791,6792,6793,6794,6795,6796,6791,6792,6793,6794,6795,6796,
7017,7018,7019,7020,6823,6824,6825,6826,6827,6828,6823,6824,6825,6826,6827,6828,
7049,7050,7051,7052,6855,6856,6857,6858,6859,6860,7569,7570,7571,7572,7573,7574,
7081,7082,7083,7084,6887,6888,6889,6890,6891,6892,7601,7602,7603,7604,7605,7606
</chunk>
   <chunk x="144" y="-16" width="16" height="16">
5473,5474,5475,5476,5477,5478,2134,2135,2066,2067,2066,2067,2398,2399,1073744184,1073744185,
5505,5506,5507,5508,5509,5510,2166,2167,2098,2099,2098,2099,2430,2431,1073744152,1073744153,
5537,5538,5539,5540,5541,5542,2198,2199,2066,2067,2066,2067,2462,2463,2144,2145,
5569,5570,5571,5572,5573,5574,2230,2231,2098,2099,2098,2099,2494,2495,2176,2177,
6919,6920,6921,6922,6923,6924,2066,2067,2066,2067,2147486049,2147486048,2144,2145,8157,8158,
6951,6952,6953,6954,6955,6956,2098,2099,2098,2099,2147486081,2147486080,2176,2177,8189,8190,
6983,6984,6985,6986,6987,6988,2398,2399,1073744184,1073744185,2144,2145,2147491548,2147491547,8009,8010,
7015,7016,7017,7018,7019,7020,2430,2431,1073744152,1073744153,2176,2177,2147491580,2147491579,8041,8042,
7843,7844,7573,7574,7569,7570,2462,2463,2144,2145,2144,2145,2147491612,2147491611,8073,8074,
7875,7876,7605,7606,7601,7602,2494,2495,2176,2177,2176,2177,2147491644,2147491643,8105,8106,
2184,2185,2070,2071,2072,2073,3221227905,3221227904,2144,2145,2144,2145,3221233468,3221233467,7753,7754,
2216,2217,2102,2103,2104,2105,3221227873,3221227872,2176,2177,2176,2177,3221233436,3221233435,7785,7786,
2134,2135,2066,2067,2066,2067,2398,2399,2144,2145,2144,2145,3221233404,3221233403,7817,7818,
2166,2167,2098,2099,2098,2099,2430,2431,2176,2177,2176,2177,3221233372,3221233371,7849,7850,
2198,2199,2066,2067,2066,2067,2462,2463,2144,2145,2144,2145,2144,2145,1073750013,1073750014,
2230,2231,2098,2099,2098,2099,2494,2495,2176,2177,2176,2177,2176,2177,1073749981,1073749982
</chunk>
   <chunk x="160" y="-16" width="16" height="16">
2144,2145,2147491548,2147491547,8009,8010,8011,8012,8007,8008,8009,8010,8011,8012,6791,6792,
2176,2177,2147491580,2147491579,8041,8042,8043,8044,8039,8040,8041,8042,8043,8044,6823,6824,
2144,2145,2147491612,2147491611,8073,8074,8075,8076,8071,8072,8073,8074,8075,8076,6855,6856,
2176,2177,2147491644,2147491643,8105,8106,8107,8108,8103,8104,8105,8106,8107,8108,6887,6888,
8159,8160,5601,5602,5603,5604,5605,5606,6733,6734,6735,6736,6737,6738,5601,5602,
8191,8192,5633,5634,5635,5636,5637,5638,6765,6766,6767,6768,6769,6770,5633,5634,
8011,8012,5665,5666,5667,5668,5669,5670,6797,6798,6799,6800,6801,6802,5665,5666,
8043,8044,5697,5698,5699,5700,5701,5702,6829,6830,6831,6832,6833,6834,5697,5698,
8075,8076,5729,5730,5731,5732,5733,5734,6861,6862,6863,6864,6865,6866,5729,5730,
8107,8108,5761,5762,5763,5764,5765,5766,6893,6894,6895,6896,6897,6898,5761,5762,
7755,7756,5409,5410,5411,5412,5413,5414,5601,5602,5603,5604,5605,6930,5409,5410,
7787,7788,5441,5442,5443,5444,5445,5446,5633,5634,5635,5636,5637,6962,5441,5442,
7819,7820,5473,5474,5475,5476,5477,5478,5665,5666,5667,5668,5669,6994,5473,5474,
7851,7852,5505,5506,5507,5508,5509,5510,5697,5698,5699,5700,5701,7026,5505,5506,
1073750015,1073750016,5537,5538,5539,5540,5541,5542,5729,5730,5731,5732,5733,7058,5537,5538,
1073749983,1073749984,5569,5570,5571,5572,5573,5574,5761,5762,5763,5764,5765,7090,5569,5570
</chunk>
   <chunk x="176" y="-16" width="16" height="16">
6793,6794,6795,6796,5665,5666,5667,5668,5669,5670,0,0,0,0,0,0,
6825,6826,6827,6828,5697,5698,5699,5700,5701,5702,0,0,0,0,0,0,
6857,6858,6859,6860,5729,5730,5731,5732,5733,5734,0,0,0,0,0,0,
6889,6890,6891,6892,5761,5762,5763,5764,5765,5766,0,0,0,0,0,0,
5603,5604,5605,5606,6733,6734,6735,6736,6737,6738,0,0,0,0,0,0,
5635,5636,5637,5638,6765,6766,6767,6768,6769,6770,0,0,0,0,0,0,
5667,5668,5669,5670,6797,6798,6799,6800,6801,6802,0,0,0,0,0,0,
5699,5700,5701,5702,6829,6830,6831,6832,6833,6834,0,0,0,0,0,0,
5731,5732,5733,5734,6861,6862,6863,6864,6865,6866,0,0,0,0,0,0,
5763,5764,5765,5766,6893,6894,6895,6896,6897,6898,0,0,0,0,0,0,
5411,5412,5413,5414,6925,6926,6927,6928,6929,6930,0,0,0,0,0,0,
5443,5444,5445,5446,6957,6958,6959,6960,6961,6962,0,0,0,0,0,0,
5475,5476,5477,5478,6989,6990,6991,6992,6993,6994,0,0,0,0,0,0,
5507,5508,5509,5510,7021,7022,7023,7024,7025,7026,0,0,0,0,0,0,
5539,5540,5541,5542,7053,7054,7055,7056,7057,7058,0,0,0,0,0,0,
5571,5572,5573,5574,7085,7086,7087,7088,7089,7090,0,0,0,0,0,0
</chunk>
   <chunk x="-112" y="0" width="16" height="16">
0,0,0,0,0,0,0,0,0,0,5601,5602,5603,5604,5605,5606,
0,0,0,0,0,0,0,0,0,0,5633,5634,5635,5636,5637,5638,
0,0,0,0,0,0,0,0,0,0,5665,5666,5667,5668,5669,5670,
0,0,0,0,0,0,0,0,0,0,5697,5698,5699,5700,5701,5702,
0,0,0,0,0,0,0,0,0,0,5729,5730,5731,5732,5733,5734,
0,0,0,0,0,0,0,0,0,0,5761,5762,5763,5764,5765,5766,
0,0,0,0,0,0,0,0,0,0,5409,5410,5411,5412,5413,5414,
0,0,0,0,0,0,0,0,0,0,5441,5442,5443,5444,5445,5446,
0,0,0,0,0,0,0,0,0,0,5473,5474,5475,5476,5477,5478,
0,0,0,0,0,0,0,0,0,0,5505,5506,5507,5508,5509,5510,
0,0,0,0,0,0,0,0,0,0,5537,5538,5539,5540,5541,5542,
0,0,0,0,0,0,0,0,0,0,5569,5570,5571,5572,5573,5574,
0,0,0,0,0,0,0,0,0,0,5601,5602,5603,5604,5605,5606,
0,0,0,0,0,0,0,0,0,0,5633,5634,5635,5636,5637,5638,
0,0,0,0,0,0,0,0,0,0,5665,5666,5667,5668,5669,5670,
0,0,0,0,0,0,0,0,0,0,5697,5698,5699,5700,5701,5702
</chunk>
   <chunk x="-96" y="0" width="16" height="16">
5409,5410,5411,5412,5413,5414,6931,6932,6933,6934,6935,6936,7521,7522,2066,2067,
5441,5442,5443,5444,5445,5446,6963,6964,6965,6966,6967,6968,7553,7554,2098,2099,
5473,5474,5475,5476,5477,5478,6995,6996,6997,6998,6999,7000,7523,7524,2066,2067,
5505,5506,5507,5508,5509,5510,7027,7028,7029,7030,7031,7032,7555,7556,2098,2099,
5537,5538,5539,5540,5541,5542,7059,7060,7061,7062,7063,7064,7525,7526,2066,2067,
5569,5570,5571,5572,5573,5574,7091,7092,7093,7094,7095,7096,7557,7558,2098,2099,
5601,5602,5603,5604,5605,5606,6739,6740,6741,6742,6743,6744,7515,7516,2066,2067,
5633,5634,5635,5636,5637,5638,6771,6772,6773,6774,6775,6776,7547,7548,2098,2099,
5665,5666,5667,5668,5669,5670,6803,6804,6805,6806,6807,6808,7517,7518,2066,2067,
5697,5698,5699,5700,5701,5702,6835,6836,6837,6838,6839,6840,7549,7550,2098,2099,
5729,5730,5731,5732,5733,5734,6867,6868,6869,6870,6871,6872,7519,7520,2066,2067,
5761,5762,5763,5764,5765,5766,6899,6900,6901,6902,6903,6904,7551,7552,2098,2099,
6739,6740,6741,6742,6743,6744,6931,6932,6933,6934,6935,6936,7521,7522,2066,2067,
6771,6772,6773,6774,6775,6776,6963,6964,6965,6966,6967,6968,7553,7554,2098,2099,
6803,6804,6805,6806,6807,6808,6995,6996,6997,6998,6999,7000,7523,7524,2066,2067,
6835,6836,6837,6838,6839,6840,7027,7028,7029,7030,7031,7032,7555,7556,2098,2099
</chunk>
   <chunk x="-80" y="0" width="16" height="16">
2066,2067,3221227905,3221227904,2144,2145,2144,2145,2144,2145,2246,2247,2144,2145,2144,2145,
2098,2099,3221227873,3221227872,2176,2177,2176,2177,2176,2177,2278,2279,2176,2177,2176,2177,
2066,2067,2398,2399,2144,2145,2144,2145,2144,2145,2144,2145,2144,2145,2144,2145,
2098,2099,2430,2431,2176,2177,2176,2177,2176,2177,2176,2177,2176,2177,2176,2177,
2066,2067,2462,2463,2144,2145,2144,2145,2144,2145,2144,2145,2144,2145,2144,2145,
2098,2099,2494,2495,2176,2177,2176,2177,2176,2177,2176,2177,2176,2177,2176,2177,
2066,2067,1073744318,1073744319,2144,2145,2144,2145,2144,2145,2144,2145,2144,2145,2144,2145,
2098,2099,1073744286,1073744287,2176,2177,2176,2177,2176,2177,2176,2177,2176,2177,2176,2177,
2066,2067,1073744254,1073744255,2144,2145,2144,2145,2144,2145,2144,2145,2144,2145,2144,2145,
2098,2099,1073744222,1073744223,2176,2177,2176,2177,2176,2177,2176,2177,2176,2177,2176,2177,
2066,2067,2066,2067,2522,2523,3221227905,3221227904,2328,2329,2328,2329,2147485977,2147485976,2144,2145,
2098,2099,2098,2099,2554,2555,3221227873,3221227872,2360,2361,2360,2361,2147486009,2147486008,2176,2177,
2066,2067,2066,2067,2066,2067,2066,2067,2066,2067,2066,2067,2066,2067,1073744318,1073744319,
2098,2099,2098,2099,2098,2099,2098,2099,2098,2099,2098,2099,2098,2099,1073744286,1073744287,
2066,2067,2066,2067,2066,2067,2066,2067,2066,2067,2066,2067,2066,2067,1073744254,1073744255,
2098,2099,2098,2099,2098,2099,2098,2099,2098,2099,2098,2099,2098,2099,1073744222,1073744223
</chunk>
   <chunk x="-64" y="0" width="16" height="16">
2144,2145,2144,2145,3221233468,3221233467,7753,7754,7755,7756,7955,7956,7957,7958,7959,7960,
2176,2177,2176,2177,3221233436,3221233435,7785,7786,7787,7788,7987,7988,7989,7990,7991,7992,
2144,2145,2144,2145,3221233404,3221233403,7817,7818,7819,7820,8019,8020,8021,8022,8023,8024,
2176,2177,2176,2177,3221233372,3221233371,7849,7850,7851,7852,8051,8052,8053,8054,8055,8056,
2144,2145,2144,2145,2144,2145,1073750013,1073750014,1073750015,1073750016,8083,8084,8085,8086,8087,8088,
2176,2177,2176,2177,2176,2177,1073749981,1073749982,1073749983,1073749984,8115,8116,8117,8118,8119,8120,
2144,2145,2144,2145,2144,2145,2144,2145,2144,2145,1073750013,1073750014,1073750015,1073750016,7767,7768,
2176,2177,2176,2177,2176,2177,2176,2177,2176,2177,1073749981,1073749982,1073749983,1073749984,7799,7800,
2144,2145,2144,2145,2144,2145,2144,2145,2144,2145,2144,2145,2144,2145,3221233468,3221233467,
2176,2177,2176,2177,2176,2177,2176,2177,2176,2177,2176,2177,2176,2177,3221233436,3221233435,
2144,2145,2144,2145,2144,2145,2144,2145,2144,2145,2144,2145,2144,2145,3221233404,3221233403,
2176,2177,2176,2177,2176,2177,2176,2177,2176,2177,2176,2177,2176,2177,3221233372,3221233371,
2144,2145,2144,2145,2144,2145,2144,2145,2144,2145,2144,2145,2144,2145,2144,2145,
2176,2177,2176,2177,2176,2177,2176,2177,2176,2177,2176,2177,2176,2177,2176,2177,
2144,2145,2144,2145,2144,2145,2144,2145,2144,2145,2144,2145,2144,2145,2144,2145,
2176,2177,2176,2177,2176,2177,2176,2177,2176,2177,2176,2177,2176,2177,2176,2177
</chunk>
   <chunk x="-48" y="0" width="16" height="16">
2147491162,2147491161,8139,8140,8139,8140,8139,8140,8139,8140,8139,8140,8139,8140,8139,8140,
2147491194,2147491193,8171,8172,8171,8172,8171,8172,8171,8172,8171,8172,8171,8172,8171,8172,
2147491272,2147491271,8139,8140,8139,8140,8139,8140,8139,8140,8139,8140,8139,8140,8139,8140,
2147491304,2147491303,8171,8172,8171,8172,8171,8172,8171,8172,8171,8172,8171,8172,8171,8172,
2147491294,2147491293,8139,8140,8139,8140,8139,8140,8139,8140,8139,8140,8139,8140,8139,8140,
2147491326,2147491325,8171,8172,8171,8172,8171,8172,8171,8172,8171,8172,8171,8172,8171,8172,
2147491162,2147491161,8139,8140,8139,8140,8139,8140,8139,8140,8139,8140,8139,8140,8139,8140,
2147491194,2147491193,8171,8172,8171,8172,8171,8172,8171,8172,8171,8172,8171,8172,8171,8172,
2147491272,2147491271,8139,8140,8139,8140,8139,8140,8139,8140,8139,8140,8139,8140,8139,8140,
2147491304,2147491303,8171,8172,8171,8172,8171,8172,8171,8172,8171,8172,8171,8172,8171,8172,
2147491294,2147491293,8139,8140,8139,8140,8139,8140,8139,8140,8139,8140,8139,8140,8139,8140,
2147491326,2147491325,8171,8172,8171,8172,8171,8172,8171,8172,8171,8172,8171,8172,8171,8172,
7973,7974,2147491620,2147491619,7971,7972,8139,8140,8139,8140,8139,8140,8139,8140,8139,8140,
8005,8006,2147491652,2147491651,8003,8004,8171,8172,8171,8172,8171,8172,8171,8172,8171,8172,
2144,2145,2144,2145,2144,2145,7973,7974,8139,8140,8139,8140,8139,8140,8139,8140,
2176,2177,2176,2177,2176,2177,8005,8006,8171,8172,8171,8172,8171,8172,8171,8172
</chunk>
   <chunk x="-32" y="0" width="16" height="16">
8139,8140,8139,8140,8139,8140,8139,8140,8139,8140,8139,8140,8139,8140,8139,8140,
8171,8172,8171,8172,8171,8172,8171,8172,8171,8172,8171,8172,8171,8172,8171,8172,
8139,8140,8139,8140,8139,8140,8139,8140,8139,8140,8139,8140,8139,8140,8139,8140,
8171,8172,8171,8172,8171,8172,8171,8172,8171,8172,8171,8172,8171,8172,8171,8172,
8139,8140,8139,8140,8139,8140,8139,8140,8139,8140,8139,8140,8139,8140,8139,8140,
8171,8172,8171,8172,8171,8172,8171,8172,8171,8172,8171,8172,8171,8172,8171,8172,
8139,8140,8139,8140,8139,8140,8139,8140,8139,8140,8139,8140,8139,8140,8139,8140,
8171,8172,8171,8172,8171,8172,8171,8172,8171,8172,8171,8172,8171,8172,8171,8172,
8139,8140,8139,8140,8139,8140,8139,8140,8139,8140,8139,8140,8139,8140,8139,8140,
8171,8172,8171,8172,8171,8172,8171,8172,8171,8172,8171,8172,8171,8172,8171,8172,
8139,8140,8139,8140,8139,8140,8139,8140,8139,8140,8139,8140,8139,8140,8139,8140,
8171,8172,8171,8172,8171,8172,8171,8172,8171,8172,8171,8172,8171,8172,8171,8172,
8139,8140,8139,8140,8139,8140,8139,8140,8139,8140,8139,8140,8139,8140,8139,8140,
8171,8172,8171,8172,8171,8172,8171,8172,8171,8172,8171,8172,8171,8172,8171,8172,
8139,8140,8139,8140,8139,8140,8139,8140,8139,8140,8139,8140,8139,8140,8139,8140,
8171,8172,8171,8172,8171,8172,8171,8172,8171,8172,8171,8172,8171,8172,8171,8172
</chunk>
   <chunk x="-16" y="0" width="16" height="16">
8139,8140,8139,8140,2147491084,2147491083,2147491082,2147491081,7947,7948,6925,6926,6927,6928,6929,6930,
8171,8172,8171,8172,2147491116,2147491115,2147491114,2147491113,7979,7980,6957,6958,6959,6960,6961,6962,
8139,8140,8139,8140,8139,8140,7507,7508,8011,8012,6989,6990,6991,6992,6993,6994,
8171,8172,8171,8172,8171,8172,7539,7540,8043,8044,7021,7022,7023,7024,7025,7026,
8139,8140,8139,8140,8139,8140,7509,7510,8075,8076,7053,7054,7055,7056,7057,7058,
8171,8172,8171,8172,8171,8172,7541,7542,8107,8108,7085,7086,7087,7088,7089,7090,
8139,8140,8139,8140,8139,8140,7513,7514,7755,7756,6733,6734,6735,6736,6737,6738,
8171,8172,8171,8172,8171,8172,7545,7546,7787,7788,6765,6766,6767,6768,6769,6770,
8139,8140,8139,8140,8139,8140,8139,8140,2147491082,2147491081,6797,6798,6799,6800,6801,6802,
8171,8172,8171,8172,8171,8172,8171,8172,2147491114,2147491113,6829,6830,6831,6832,6833,6834,
8139,8140,8139,8140,8139,8140,8139,8140,7645,7646,6861,6862,6863,6864,6865,6866,
8171,8172,8171,8172,8171,8172,8171,8172,7677,7678,6893,6894,6895,6896,6897,6898,
8139,8140,8139,8140,8139,8140,8139,8140,7507,7508,6925,6926,6927,6928,6929,6930,
8171,8172,8171,8172,8171,8172,8171,8172,7539,7540,6957,6958,6959,6960,6961,6962,
8139,8140,8139,8140,8139,8140,8139,8140,7509,7510,6989,6990,6991,6992,6993,6994,
8171,8172,8171,8172,8171,8172,8171,8172,7541,7542,7021,7022,7023,7024,7025,7026
</chunk>
   <chunk x="0" y="0" width="16" height="16">
7955,7956,8029,8030,7503,7504,2147491808,2147491807,2147491806,2147491805,2144,2145,2144,2145,2144,2145,
7987,7988,8061,8062,7535,7536,2147491840,2147491839,2147491838,2147491837,2176,2177,2176,2177,2176,2177,
7827,7828,7763,7764,8029,8030,7815,7816,7817,7818,7899,7900,2144,2145,2144,2145,
7859,7860,7795,7796,8061,8062,7847,7848,7849,7850,7931,7932,2176,2177,2176,2177,
7891,7892,7893,7894,7895,7896,7879,7880,7881,7882,7963,7964,2144,2145,2144,2145,
7923,7924,7925,7926,7927,7928,7911,7912,7913,7914,7995,7996,2176,2177,2176,2177,
6931,6932,6933,6934,6935,6936,7763,7764,7765,7766,7767,7768,7503,7504,7505,7506,
6963,6964,6965,6966,6967,6968,7795,7796,7797,7798,7799,7800,7535,7536,7537,7538,
6995,6996,6997,6998,6999,7000,7827,7828,7829,7830,7831,7832,8007,8008,8009,8010,
7027,7028,7029,7030,7031,7032,7859,7860,7861,7862,7863,7864,8039,8040,8041,8042,
7059,7060,7061,7062,7063,7064,7891,7892,7893,7894,7895,7896,8071,8072,8073,8074,
7091,7092,7093,7094,7095,7096,7923,7924,7925,7926,7927,7928,8103,8104,8105,8106,
7763,7764,7765,7766,7767,7768,6931,6932,6933,6934,6935,6936,7763,7764,7765,7766,
7795,7796,7797,7798,7799,7800,6963,6964,6965,6966,6967,6968,7795,7796,7797,7798,
7827,7828,7829,7830,7831,7832,6995,6996,6997,6998,6999,7000,7827,7828,7829,7830,
7859,7860,7861,7862,7863,7864,7027,7028,7029,7030,7031,7032,7859,7860,7861,7862
</chunk>
   <chunk x="16" y="0" width="16" height="16">
2144,2145,2144,2145,2144,2145,2144,2145,2144,2145,2144,2145,2144,2145,2144,2145,
2176,2177,2176,2177,2176,2177,2176,2177,2176,2177,2176,2177,2176,2177,2176,2177,
2144,2145,2144,2145,2144,2145,2144,2145,2144,2145,2144,2145,2144,2145,2144,2145,
2176,2177,2176,2177,2176,2177,2176,2177,2176,2177,2176,2177,2176,2177,2176,2177,
2144,2145,2144,2145,2144,2145,2144,2145,2144,2145,2144,2145,2144,2145,2144,2145,
2176,2177,2176,2177,2176,2177,2176,2177,2176,2177,2176,2177,2176,2177,2176,2177,
7503,7504,1073749953,1073749954,8157,8158,8159,8160,7503,7504,7505,7506,7503,7504,1073749953,1073749954,
7535,7536,1073749921,1073749922,8189,8190,8191,8192,7535,7536,7537,7538,7535,7536,1073749921,1073749922,
8011,8012,7815,7816,7817,7818,7819,7820,8007,8008,8009,8010,8011,8012,7815,7816,
8043,8044,7847,7848,7849,7850,7851,7852,8039,8040,8041,8042,8043,8044,7847,7848,
8075,8076,7879,7880,7881,7882,7883,7884,8071,8072,8073,8074,8075,8076,7879,7880,
8107,8108,7911,7912,7913,7914,7915,7916,8103,8104,8105,8106,8107,8108,7911,7912,
7767,7768,5601,5602,5603,5604,5605,5606,5409,5410,5411,5412,5413,5414,5601,5602,
7799,7800,5633,5634,5635,5636,5637,5638,5441,5442,5443,5444,5445,5446,5633,5634,
7831,7832,5665,5666,5667,5668,5669,5670,5473,5474,5475,5476,5477,5478,5665,5666,
7863,7864,5697,5698,5699,5700,5701,5702,5505,5506,5507,5508,5509,5510,5697,5698
</chunk>
   <chunk x="32" y="0" width="16" height="16">
2144,2145,2144,2145,2144,2145,2144,2145,2144,2145,2144,2145,8157,8158,8159,8160,
2176,2177,2176,2177,2176,2177,2176,2177,2176,2177,2176,2177,8189,8190,8191,8192,
2144,2145,2144,2145,2144,2145,2144,2145,2144,2145,2147491548,2147491547,8009,8010,8011,8012,
2176,2177,2176,2177,2176,2177,2176,2177,2176,2177,2147491580,2147491579,8041,8042,8043,8044,
2144,2145,2144,2145,2144,2145,2144,2145,2144,2145,2147491612,2147491611,8073,8074,8075,8076,
2176,2177,2176,2177,2176,2177,2176,2177,2176,2177,2147491644,2147491643,8105,8106,8107,8108,
8157,8158,8159,8160,7503,7504,7505,7506,7503,7504,7943,7944,7945,7946,7433,7434,
8189,8190,8191,8192,7535,7536,7537,7538,7535,7536,7975,7976,7977,7978,7465,7466,
7817,7818,7819,7820,8007,8008,8009,8010,8011,8012,8007,8008,7905,7906,8139,8140,
7849,7850,7851,7852,8039,8040,8041,8042,8043,8044,8039,8040,7937,7938,8171,8172,
7881,7882,7883,7884,8071,8072,8073,8074,8075,8076,7903,7904,8139,8140,8139,8140,
7913,7914,7915,7916,8103,8104,8105,8106,8107,8108,7935,7936,8171,8172,8171,8172,
5603,5604,5605,5606,5409,5410,5411,5412,5413,5414,2147491156,2147491155,8139,8140,8139,8140,
5635,5636,5637,5638,5441,5442,5443,5444,5445,5446,2147491188,2147491187,8171,8172,8171,8172,
5667,5668,5669,5670,5473,5474,5475,5476,5477,5478,2147491158,2147491157,8139,8140,8139,8140,
5699,5700,5701,5702,5505,5506,5507,5508,5509,5510,2147491190,2147491189,8171,8172,8171,8172
</chunk>
   <chunk x="48" y="0" width="16" height="16">
2147491156,2147491155,7513,7514,7755,7756,7943,7944,7945,7946,7947,7948,2147491808,2147491807,2147491806,2147491805,
2147491188,2147491187,7545,7546,7787,7788,7975,7976,7977,7978,7979,7980,2147491840,2147491839,2147491838,2147491837,
2147491158,2147491157,8139,8140,2147491082,2147491081,8007,8008,8009,8010,8011,8012,7815,7816,7817,7818,
2147491190,2147491189,8171,8172,2147491114,2147491113,8039,8040,8041,8042,8043,8044,7847,7848,7849,7850,
2147491162,2147491161,8139,8140,7645,7646,8071,8072,8073,8074,8075,8076,7879,7880,7881,7882,
2147491194,2147491193,8171,8172,7677,7678,8103,8104,8105,8106,8107,8108,7911,7912,7913,7914,
8139,8140,8139,8140,8139,8140,2147491552,2147491551,7433,7434,7435,7436,2147491084,2147491083,2147491082,2147491081,
8171,8172,8171,8172,8171,8172,2147491584,2147491583,7465,7466,7467,7468,2147491116,2147491115,2147491114,2147491113,
8139,8140,8139,8140,8139,8140,8139,8140,8139,8140,8139,8140,8139,8140,7507,7508,
8171,8172,8171,8172,8171,8172,8171,8172,8171,8172,8171,8172,8171,8172,7539,7540,
8139,8140,8139,8140,8139,8140,8139,8140,8139,8140,8139,8140,8139,8140,7509,7510,
8171,8172,8171,8172,8171,8172,8171,8172,8171,8172,8171,8172,8171,8172,7541,7542,
8139,8140,8139,8140,8139,8140,8139,8140,8139,8140,8139,8140,8139,8140,7513,7514,
8171,8172,8171,8172,8171,8172,8171,8172,8171,8172,8171,8172,8171,8172,7545,7546,
8139,8140,8139,8140,8139,8140,8139,8140,8139,8140,8139,8140,8139,8140,8139,8140,
8171,8172,8171,8172,8171,8172,8171,8172,8171,8172,8171,8172,8171,8172,8171,8172
</chunk>
   <chunk x="64" y="0" width="16" height="16">
2144,2145,2144,2145,2144,2145,2144,2145,2144,2145,2144,2145,2144,2145,2144,2145,
2176,2177,2176,2177,2176,2177,2176,2177,2176,2177,2176,2177,2176,2177,2176,2177,
7899,7900,2144,2145,2144,2145,2144,2145,2144,2145,2144,2145,2144,2145,2144,2145,
7931,7932,2176,2177,2176,2177,2176,2177,2176,2177,2176,2177,2176,2177,2176,2177,
7963,7964,2144,2145,2144,2145,2144,2145,2144,2145,2144,2145,2144,2145,2144,2145,
7995,7996,2176,2177,2176,2177,2176,2177,2176,2177,2176,2177,2176,2177,2176,2177,
7947,7948,2147491808,2147491807,2147491806,2147491805,2144,2145,2144,2145,2144,2145,2144,2145,2144,2145,
7979,7980,2147491840,2147491839,2147491838,2147491837,2176,2177,2176,2177,2176,2177,2176,2177,2176,2177,
8011,8012,7815,7816,7817,7818,7899,7900,2144,2145,2144,2145,2144,2145,2144,2145,
8043,8044,7847,7848,7849,7850,7931,7932,2176,2177,2176,2177,2176,2177,2176,2177,
8075,8076,7879,7880,7881,7882,7963,7964,2144,2145,2144,2145,2144,2145,2144,2145,
8107,8108,7911,7912,7913,7914,7995,7996,2176,2177,2176,2177,2176,2177,2176,2177,
7755,7756,6925,6926,6927,6928,6929,6930,1073749953,1073749954,8157,8158,8159,8160,7503,7504,
7787,7788,6957,6958,6959,6960,6961,6962,1073749921,1073749922,8189,8190,8191,8192,7535,7536,
2147491082,2147491081,6989,6990,6991,6992,6993,6994,6791,6792,6793,6794,6795,6796,8007,8008,
2147491114,2147491113,7021,7022,7023,7024,7025,7026,6823,6824,6825,6826,6827,6828,8039,8040
</chunk>
   <chunk x="80" y="0" width="16" height="16">
2144,2145,2144,2145,2400,2401,2066,2067,2066,2067,7501,7502,7501,7502,7501,7502,
2176,2177,2176,2177,2432,2433,2098,2099,2098,2099,7533,7534,7533,7534,7533,7534,
2144,2145,2144,2145,2144,2145,1073744184,1073744185,2147486047,2147486046,2066,2067,2066,2067,2066,2067,
2176,2177,2176,2177,2176,2177,1073744152,1073744153,2147486079,2147486078,2098,2099,2098,2099,2098,2099,
2144,2145,2144,2145,2144,2145,2144,2145,2147486111,2147486110,2147486049,2147486048,1073744184,1073744185,2400,2401,
2176,2177,2176,2177,2176,2177,2176,2177,2147486143,2147486142,2147486081,2147486080,1073744152,1073744153,2432,2433,
2144,2145,2144,2145,2144,2145,2144,2145,2144,2145,2144,2145,8157,8158,8159,8160,
2176,2177,2176,2177,2176,2177,2176,2177,2176,2177,2176,2177,8189,8190,8191,8192,
2144,2145,2144,2145,2144,2145,2144,2145,2144,2145,2147491548,2147491547,8009,8010,8011,8012,
2176,2177,2176,2177,2176,2177,2176,2177,2176,2177,2147491580,2147491579,8041,8042,8043,8044,
2144,2145,2144,2145,2144,2145,2144,2145,2144,2145,2147491612,2147491611,8073,8074,8075,8076,
2176,2177,2176,2177,2176,2177,2176,2177,2176,2177,2147491644,2147491643,8105,8106,8107,8108,
7505,7506,7503,7504,1073749953,1073749954,8157,8158,8159,8160,7943,7944,7945,7946,7947,7948,
7537,7538,7535,7536,1073749921,1073749922,8189,8190,8191,8192,7975,7976,7977,7978,7979,7980,
8009,8010,8011,8012,6791,6792,6793,6794,6795,6796,8007,8008,8009,8010,8011,8012,
8041,8042,8043,8044,6823,6824,6825,6826,6827,6828,8039,8040,8041,8042,8043,8044
</chunk>
   <chunk x="96" y="0" width="16" height="16">
7501,7502,2147485721,2147485720,2147485719,2147485718,7843,7844,7759,7760,7761,7762,5601,5602,5603,5604,
7533,7534,2147485753,2147485752,2147485751,2147485750,7875,7876,7791,7792,7793,7794,5633,5634,5635,5636,
2398,2399,2400,2401,2066,2067,7769,7770,7823,7824,7825,7826,5665,5666,5667,5668,
2430,2431,2432,2433,2098,2099,7801,7802,7855,7856,7857,7858,5697,5698,5699,5700,
2462,2463,2144,2145,2400,2401,1073749765,1073749766,7887,7888,7889,7890,5729,5730,5731,5732,
2494,2495,2176,2177,2432,2433,1073749733,1073749734,7919,7920,7921,7922,5761,5762,5763,5764,
7503,7504,7505,7506,7503,7504,6925,6926,6927,6928,6929,6930,5409,5410,5411,5412,
7535,7536,7537,7538,7535,7536,6957,6958,6959,6960,6961,6962,5441,5442,5443,5444,
8007,8008,8009,8010,8011,8012,6989,6990,6991,6992,6993,6994,5473,5474,5475,5476,
8039,8040,8041,8042,8043,8044,7021,7022,7023,7024,7025,7026,5505,5506,5507,5508,
8071,8072,8073,8074,8075,8076,7053,7054,7055,7056,7057,7058,5537,5538,5539,5540,
8103,8104,8105,8106,8107,8108,7085,7086,7087,7088,7089,7090,5569,5570,5571,5572,
5409,5410,5411,5412,5413,5414,6733,6734,6735,6736,6737,6738,7943,7944,7945,7958,
5441,5442,5443,5444,5445,5446,6765,6766,6767,6768,6769,6770,7975,7976,7977,7990,
5473,5474,5475,5476,5477,5478,6797,6798,6799,6800,6801,6802,8007,8008,8009,8022,
5505,5506,5507,5508,5509,5510,6829,6830,6831,6832,6833,6834,8039,8040,8041,8054
</chunk>
   <chunk x="112" y="0" width="16" height="16">
5605,5606,7833,7834,7835,7836,2147491482,2147491481,5601,5602,5603,5604,5605,5606,5409,5410,
5637,5638,7865,7866,7867,7868,2147491514,2147491513,5633,5634,5635,5636,5637,5638,5441,5442,
5669,5670,7833,7834,7835,7836,2147491482,2147491481,5665,5666,5667,5668,5669,5670,5473,5474,
5701,5702,7865,7866,7867,7868,2147491514,2147491513,5697,5698,5699,5700,5701,5702,5505,5506,
5733,5734,7833,7834,7835,7836,2147491482,2147491481,5729,5730,5731,5732,5733,5734,5537,5538,
5765,5766,7865,7866,7867,7868,2147491514,2147491513,5761,5762,5763,5764,5765,5766,5569,5570,
5413,5414,7833,7834,7835,7836,2147491482,2147491481,5409,5410,5411,5412,5413,5414,5601,5602,
5445,5446,7865,7866,7867,7868,2147491514,2147491513,5441,5442,5443,5444,5445,5446,5633,5634,
5477,5478,7833,7834,7835,7836,2147491482,2147491481,5473,5474,5475,5476,5477,5478,5665,5666,
5509,5510,7865,7866,7867,7868,2147491514,2147491513,5505,5506,5507,5508,5509,5510,5697,5698,
5541,5542,7833,7834,7835,7836,2147491482,2147491481,5537,5538,5539,5540,5541,5542,5729,5730,
5573,5574,7865,7866,7867,7868,2147491514,2147491513,5569,5570,5571,5572,5573,5574,5761,5762,
7959,7960,7833,7834,7835,7836,2147491482,2147491481,7943,7944,7945,7958,7959,7960,7751,7752,
7991,7992,7865,7866,7867,7868,2147491514,2147491513,7975,7976,7977,7990,7991,7992,7783,7784,
8023,8024,7833,7834,7835,7836,2147491482,2147491481,8007,8008,8009,8022,8023,8024,7815,7816,
8055,8056,7865,7866,7867,7868,2147491514,2147491513,8039,8040,8041,8054,8055,8056,7847,7848
</chunk>
   <chunk x="128" y="0" width="16" height="16">
5411,5412,5413,5414,5601,5602,5603,5604,5605,5606,3221233004,3221233003,2376,2377,2376,2377,
5443,5444,5445,5446,5633,5634,5635,5636,5637,5638,3221232972,3221232971,2408,2409,2408,2409,
5475,5476,5477,5478,5665,5666,5667,5668,5669,5670,2147491146,2147491145,2376,2377,2376,2377,
5507,5508,5509,5510,5697,5698,5699,5700,5701,5702,2147491178,2147491177,2408,2409,2408,2409,
5539,5540,5541,5542,5729,5730,5731,5732,5733,5734,2147491148,2147491147,2376,2377,2376,2377,
5571,5572,5573,5574,5761,5762,5763,5764,5765,5766,2147491180,2147491179,2408,2409,2408,2409,
5603,5604,5605,5606,5409,5410,5411,5412,5413,5414,3221233004,3221233003,2376,2377,2376,2377,
5635,5636,5637,5638,5441,5442,5443,5444,5445,5446,3221232972,3221232971,2408,2409,2408,2409,
5667,5668,5669,5670,5473,5474,5475,5476,5477,5478,2147491146,2147491145,2376,2377,2376,2377,
5699,5700,5701,5702,5505,5506,5507,5508,5509,5510,2147491178,2147491177,2408,2409,2408,2409,
5731,5732,5733,5734,5537,5538,5539,5540,5541,5542,2147491148,2147491147,2376,2377,2376,2377,
5763,5764,5765,5766,5569,5570,5571,5572,5573,5574,2147491180,2147491179,2408,2409,2408,2409,
7753,7754,7755,7756,7751,7752,7753,7754,2147491558,2147491557,2376,2377,2376,2377,2134,2135,
7785,7786,7787,7788,7783,7784,7785,7786,2147491590,2147491589,2408,2409,2408,2409,2166,2167,
7817,7818,7819,7820,7815,7816,2147491558,2147491557,2376,2377,2376,2377,2184,2185,2198,2199,
7849,7850,7851,7852,7847,7848,2147491590,2147491589,2408,2409,2408,2409,2216,2217,2230,2231
</chunk>
   <chunk x="144" y="0" width="16" height="16">
1073744054,1073744055,2066,2067,2066,2067,1073744318,1073744319,2144,2145,2144,2145,2144,2145,2144,2145,
1073744022,1073744023,2098,2099,2098,2099,1073744286,1073744287,2176,2177,2176,2177,2176,2177,2176,2177,
2198,2199,2066,2067,2066,2067,1073744254,1073744255,2144,2145,2144,2145,2144,2145,2144,2145,
2230,2231,2098,2099,2098,2099,1073744222,1073744223,2176,2177,2176,2177,2176,2177,2176,2177,
2198,2199,2066,2067,2066,2067,2066,2067,2522,2523,3221227905,3221227904,2144,2145,2144,2145,
2230,2231,2098,2099,2098,2099,2098,2099,2554,2555,3221227873,3221227872,2176,2177,2176,2177,
1073744054,1073744055,2066,2067,2066,2067,2066,2067,2066,2067,2147486049,2147486048,2144,2145,2144,2145,
1073744022,1073744023,2098,2099,2098,2099,2098,2099,2098,2099,2147486081,2147486080,2176,2177,2176,2177,
2198,2199,2066,2067,2066,2067,2398,2399,1073744184,1073744185,2144,2145,2144,2145,2144,2145,
2230,2231,2098,2099,2098,2099,2430,2431,1073744152,1073744153,2176,2177,2176,2177,2176,2177,
2198,2199,2066,2067,2066,2067,2462,2463,2144,2145,2144,2145,2144,2145,2144,2145,
2230,2231,2098,2099,2098,2099,2494,2495,2176,2177,2176,2177,2176,2177,2176,2177,
2066,2067,2066,2067,2147486049,2147486048,2144,2145,2246,2247,2144,2145,2144,2145,2144,2145,
2098,2099,2098,2099,2147486081,2147486080,2176,2177,2278,2279,2176,2177,2176,2177,2176,2177,
2398,2399,1073744184,1073744185,2144,2145,2144,2145,2144,2145,2144,2145,2144,2145,2144,2145,
2430,2431,1073744152,1073744153,2176,2177,2176,2177,2176,2177,2176,2177,2176,2177,2176,2177
</chunk>
   <chunk x="160" y="0" width="16" height="16">
2144,2145,3221233468,3221233467,7753,7754,7755,7756,6733,6734,6735,6736,6737,6738,5601,5602,
2176,2177,3221233436,3221233435,7785,7786,7787,7788,6765,6766,6767,6768,6769,6770,5633,5634,
2144,2145,3221233404,3221233403,7817,7818,7819,7820,6797,6798,6799,6800,6801,6802,5665,5666,
2176,2177,3221233372,3221233371,7849,7850,7851,7852,6829,6830,6831,6832,6833,6834,5697,5698,
2144,2145,2144,2145,1073750013,1073750014,1073750015,1073750016,6861,6862,6863,6864,6865,6866,5729,5730,
2176,2177,2176,2177,1073749981,1073749982,1073749983,1073749984,6893,6894,6895,6896,6897,6898,5761,5762,
2144,2145,2144,2145,2144,2145,2144,2145,2147491746,2147491745,7945,7946,7947,6930,5409,5410,
2176,2177,2176,2177,2176,2177,2176,2177,2147491778,2147491777,7977,7978,7979,6962,5441,5442,
2144,2145,2144,2145,2144,2145,2144,2145,2147491610,2147491609,8009,8010,8011,6994,5473,5474,
2176,2177,2176,2177,2176,2177,2176,2177,2147491642,2147491641,8041,8042,8043,7026,5505,5506,
2144,2145,2144,2145,2144,2145,2144,2145,3221233602,3221233601,8073,8074,8075,7058,5537,5538,
2176,2177,2176,2177,2176,2177,2176,2177,3221233570,3221233569,8105,8106,8107,7090,5569,5570,
2144,2145,2144,2145,8157,8158,8159,8160,6733,6734,6735,6736,6737,6738,5601,5602,
2176,2177,2176,2177,8189,8190,8191,8192,6765,6766,6767,6768,6769,6770,5633,5634,
2144,2145,2147491548,2147491547,8009,8010,8011,8012,6797,6798,6799,6800,6801,6802,5665,5666,
2176,2177,2147491580,2147491579,8041,8042,8043,8044,6829,6830,6831,6832,6833,6834,5697,5698
</chunk>
   <chunk x="176" y="0" width="16" height="16">
5603,5604,5605,5606,6733,6734,6735,6736,6737,6738,0,0,0,0,0,0,
5635,5636,5637,5638,6765,6766,6767,6768,6769,6770,0,0,0,0,0,0,
5667,5668,5669,5670,6797,6798,6799,6800,6801,6802,0,0,0,0,0,0,
5699,5700,5701,5702,6829,6830,6831,6832,6833,6834,0,0,0,0,0,0,
5731,5732,5733,5734,6861,6862,6863,6864,6865,6866,0,0,0,0,0,0,
5763,5764,5765,5766,6893,6894,6895,6896,6897,6898,0,0,0,0,0,0,
5411,5412,5413,5414,6925,6926,6927,6928,6929,6930,0,0,0,0,0,0,
5443,5444,5445,5446,6957,6958,6959,6960,6961,6962,0,0,0,0,0,0,
5475,5476,5477,5478,6989,6990,6991,6992,6993,6994,0,0,0,0,0,0,
5507,5508,5509,5510,7021,7022,7023,7024,7025,7026,0,0,0,0,0,0,
5539,5540,5541,5542,7053,7054,7055,7056,7057,7058,0,0,0,0,0,0,
5571,5572,5573,5574,7085,7086,7087,7088,7089,7090,0,0,0,0,0,0,
5603,5604,5605,5606,6733,6734,6735,6736,6737,6738,0,0,0,0,0,0,
5635,5636,5637,5638,6765,6766,6767,6768,6769,6770,0,0,0,0,0,0,
5667,5668,5669,5670,6797,6798,6799,6800,6801,6802,0,0,0,0,0,0,
5699,5700,5701,5702,6829,6830,6831,6832,6833,6834,0,0,0,0,0,0
</chunk>
   <chunk x="-112" y="16" width="16" height="16">
0,0,0,0,0,0,0,0,0,0,5729,5730,5731,5732,5733,5734,
0,0,0,0,0,0,0,0,0,0,5761,5762,5763,5764,5765,5766,
0,0,0,0,0,0,0,0,0,0,6739,6740,6741,6742,6743,6744,
0,0,0,0,0,0,0,0,0,0,6771,6772,6773,6774,6775,6776,
0,0,0,0,0,0,0,0,0,0,6803,6804,6805,6806,6807,6808,
0,0,0,0,0,0,0,0,0,0,6835,6836,6837,6838,6839,6840,
0,0,0,0,0,0,0,0,0,0,6867,6868,6869,6870,6871,6872,
0,0,0,0,0,0,0,0,0,0,6899,6900,6901,6902,6903,6904,
0,0,0,0,0,0,0,0,0,0,7943,7944,7945,7946,7947,7948,
0,0,0,0,0,0,0,0,0,0,7975,7976,7977,7978,7979,7980,
0,0,0,0,0,0,0,0,0,0,8007,8008,8009,8010,8011,8012,
0,0,0,0,0,0,0,0,0,0,8039,8040,8041,8042,8043,8044,
0,0,0,0,0,0,0,0,0,0,7843,7844,7573,7574,7569,7570,
0,0,0,0,0,0,0,0,0,0,7875,7876,7605,7606,7601,7602,
0,0,0,0,0,0,0,0,0,0,2184,2185,2070,2071,2072,2073,
0,0,0,0,0,0,0,0,0,0,2216,2217,2102,2103,2104,2105
</chunk>
   <chunk x="-96" y="16" width="16" height="16">
6867,6868,6869,6870,6871,6872,7059,7060,7061,7062,7063,7064,7525,7526,2066,2067,
6899,6900,6901,6902,6903,6904,7091,7092,7093,7094,7095,7096,7557,7558,2098,2099,
6931,6932,6933,6934,6935,6936,7955,7956,7957,7958,2147491558,2147491557,1073744054,1073744055,2066,2067,
6963,6964,6965,6966,6967,6968,7987,7988,7989,7990,2147491590,2147491589,1073744022,1073744023,2098,2099,
6995,6996,6997,6998,6999,7000,8019,8020,2147491558,2147491557,2376,2377,2198,2199,2066,2067,
7027,7028,7029,7030,7031,7032,8051,8052,2147491590,2147491589,2408,2409,2230,2231,2098,2099,
7059,7060,7061,7062,7063,7064,2147491492,2147491491,2376,2377,2376,2377,2198,2199,2066,2067,
7091,7092,7093,7094,7095,7096,2147491524,2147491523,2408,2409,2408,2409,2230,2231,2098,2099,
6931,6932,6933,6934,2147491558,2147491557,2184,2185,2070,2071,2072,2073,2066,2067,2066,2067,
6963,6964,6965,6966,2147491590,2147491589,2216,2217,2102,2103,2104,2105,2098,2099,2098,2099,
6995,6996,2147491492,2147491491,2376,2377,2134,2135,2066,2067,2066,2067,2066,2067,2066,2067,
7027,7028,2147491524,2147491523,2408,2409,2166,2167,2098,2099,2098,2099,2098,2099,2098,2099,
2147491492,2147491491,2376,2377,2376,2377,2198,2199,2066,2067,2066,2067,2066,2067,2066,2067,
2147491524,2147491523,2408,2409,2408,2409,2230,2231,2098,2099,2098,2099,2098,2099,2098,2099,
7501,7502,7501,7502,7501,7502,2066,2067,2066,2067,2066,2067,2066,2067,2066,2067,
7533,7534,7533,7534,7533,7534,2098,2099,2098,2099,2098,2099,2098,2099,2098,2099
</chunk>
   <chunk x="-80" y="16" width="16" height="16">
2066,2067,2066,2067,2066,2067,2066,2067,2066,2067,2066,2067,2066,2067,2066,2067,
2098,2099,2098,2099,2098,2099,2098,2099,2098,2099,2098,2099,2098,2099,2098,2099,
2066,2067,2066,2067,2066,2067,2066,2067,2066,2067,2066,2067,2066,2067,2066,2067,
2098,2099,2098,2099,2098,2099,2098,2099,2098,2099,2098,2099,2098,2099,2098,2099,
2066,2067,2066,2067,2066,2067,2066,2067,2066,2067,2066,2067,2066,2067,2066,2067,
2098,2099,2098,2099,2098,2099,2098,2099,2098,2099,2098,2099,2098,2099,2098,2099,
2066,2067,2066,2067,2066,2067,2066,2067,2066,2067,2066,2067,2066,2067,2066,2067,
2098,2099,2098,2099,2098,2099,2098,2099,2098,2099,2098,2099,2098,2099,2098,2099,
2066,2067,2066,2067,2066,2067,2066,2067,2066,2067,2066,2067,2066,2067,2066,2067,
2098,2099,2098,2099,2098,2099,2098,2099,2098,2099,2098,2099,2098,2099,2098,2099,
2066,2067,2066,2067,2066,2067,2066,2067,2066,2067,2066,2067,2066,2067,2066,2067,
2098,2099,2098,2099,2098,2099,2098,2099,2098,2099,2098,2099,2098,2099,2098,2099,
2066,2067,2066,2067,2066,2067,2066,2067,2066,2067,2066,2067,2066,2067,2066,2067,
2098,2099,2098,2099,2098,2099,2098,2099,2098,2099,2098,2099,2098,2099,2098,2099,
2066,2067,2066,2067,2066,2067,2066,2067,2066,2067,2066,2067,2066,2067,2066,2067,
2098,2099,2098,2099,2098,2099,2098,2099,2098,2099,2098,2099,2098,2099,2098,2099
</chunk>
   <chunk x="-64" y="16" width="16" height="16">
2522,2523,3221227905,3221227904,2144,2145,2144,2145,2144,2145,2144,2145,2144,2145,2144,2145,
2554,2555,3221227873,3221227872,2176,2177,2176,2177,2176,2177,2176,2177,2176,2177,2176,2177,
2066,2067,2066,2067,3221227905,3221227904,2144,2145,2144,2145,2144,2145,2144,2145,2144,2145,
2098,2099,2098,2099,3221227873,3221227872,2176,2177,2176,2177,2176,2177,2176,2177,2176,2177,
2066,2067,2066,2067,2398,2399,2144,2145,2144,2145,2144,2145,2144,2145,2144,2145,
2098,2099,2098,2099,2430,2431,2176,2177,2176,2177,2176,2177,2176,2177,2176,2177,
2066,2067,2066,2067,2462,2463,2144,2145,2144,2145,2144,2145,2144,2145,2144,2145,
2098,2099,2098,2099,2494,2495,2176,2177,2176,2177,2176,2177,2176,2177,2176,2177,
2066,2067,2066,2067,3221227905,3221227904,2144,2145,2144,2145,2144,2145,2144,2145,2144,2145,
2098,2099,2098,2099,3221227873,3221227872,2176,2177,2176,2177,2176,2177,2176,2177,2176,2177,
2066,2067,2066,2067,2398,2399,2144,2145,2144,2145,2144,2145,2144,2145,2144,2145,
2098,2099,2098,2099,2430,2431,2176,2177,2176,2177,2176,2177,2176,2177,2176,2177,
2066,2067,2066,2067,2462,2463,2144,2145,2144,2145,2144,2145,2144,2145,2144,2145,
2098,2099,2098,2099,2494,2495,2176,2177,2176,2177,2176,2177,2176,2177,2176,2177,
2066,2067,2147486049,2147486048,2144,2145,2144,2145,2144,2145,2144,2145,2144,2145,2144,2145,
2098,2099,2147486081,2147486080,2176,2177,2176,2177,2176,2177,2176,2177,2176,2177,2176,2177
</chunk>
   <chunk x="-48" y="16" width="16" height="16">
2144,2145,2144,2145,2144,2145,8089,8090,8139,8140,8139,8140,8139,8140,8139,8140,
2176,2177,2176,2177,2176,2177,8121,8122,8171,8172,8171,8172,8171,8172,8171,8172,
2144,2145,2144,2145,2144,2145,2144,2145,7973,7974,8139,8140,8139,8140,8139,8140,
2176,2177,2176,2177,2176,2177,2176,2177,8005,8006,8171,8172,8171,8172,8171,8172,
2144,2145,2144,2145,2144,2145,2144,2145,3221233602,3221233601,2147491272,2147491271,8139,8140,8139,8140,
2176,2177,2176,2177,2176,2177,2176,2177,3221233570,3221233569,2147491304,2147491303,8171,8172,8171,8172,
2144,2145,2144,2145,2144,2145,8089,8090,7881,7882,2147491294,2147491293,8139,8140,8139,8140,
2176,2177,2176,2177,2176,2177,8121,8122,7913,7914,2147491326,2147491325,8171,8172,8171,8172,
2144,2145,2144,2145,2144,2145,8089,8090,7945,7946,8135,8136,8135,8136,8135,8136,
2176,2177,2176,2177,2176,2177,8121,8122,7977,7978,8167,8168,8167,8168,8167,8168,
2144,2145,2144,2145,2144,2145,8089,8090,8009,8010,7837,7838,2066,2067,7839,7840,
2176,2177,2176,2177,2176,2177,8121,8122,8041,8042,7869,7870,2098,2099,7871,7872,
2144,2145,2144,2145,2144,2145,3221233602,3221233601,8091,8092,1073749507,1073749508,7713,7714,7715,7716,
2176,2177,2176,2177,2176,2177,3221233570,3221233569,8123,8124,1073749475,1073749476,7745,7746,7747,7748,
2144,2145,8157,8158,8159,8160,7751,7752,8093,8094,7651,7652,7653,7654,7647,7648,
2176,2177,8189,8190,8191,8192,7783,7784,8125,8126,7683,7684,7685,7686,7679,7680
</chunk>
   <chunk x="-32" y="16" width="16" height="16">
8139,8140,8139,8140,8139,8140,8139,8140,8139,8140,8139,8140,8139,8140,8139,8140,
8171,8172,8171,8172,8171,8172,8171,8172,8171,8172,8171,8172,8171,8172,8171,8172,
8139,8140,8139,8140,8139,8140,8139,8140,8139,8140,8139,8140,8139,8140,8139,8140,
8171,8172,8171,8172,8171,8172,8171,8172,8171,8172,8171,8172,8171,8172,8171,8172,
8139,8140,8139,8140,8139,8140,8139,8140,8139,8140,8139,8140,8139,8140,8139,8140,
8171,8172,8171,8172,8171,8172,8171,8172,8171,8172,8171,8172,8171,8172,8171,8172,
8139,8140,8139,8140,8139,8140,8139,8140,8139,8140,8139,8140,8139,8140,8139,8140,
8171,8172,8171,8172,8171,8172,8171,8172,8171,8172,8171,8172,8171,8172,8171,8172,
8135,8136,8135,8136,8135,8136,8135,8136,8135,8136,8135,8136,8135,8136,8135,8136,
8167,8168,8167,8168,8167,8168,8167,8168,8167,8168,8167,8168,8167,8168,8167,8168,
8137,8138,8137,8138,8137,8138,8137,8138,8137,8138,8137,8138,8137,8138,7837,7838,
8169,8170,8169,8170,8169,8170,8169,8170,8169,8170,8169,8170,8169,8170,7869,7870,
7717,7718,8139,8140,8139,8140,8139,8140,8139,8140,8139,8140,7841,7842,7713,7714,
7749,7750,8171,8172,8171,8172,8171,8172,8171,8172,8171,8172,7873,7874,7745,7746,
7649,7650,7563,7564,7565,7566,7567,7568,8141,8142,8141,8142,8141,8142,8141,8142,
7681,7682,7595,7596,7597,7598,7599,7600,8173,8174,8173,8174,8173,8174,8173,8174
</chunk>
   <chunk x="-16" y="16" width="16" height="16">
8139,8140,8139,8140,8139,8140,8139,8140,7511,7512,7053,7054,7055,7056,7057,7058,
8171,8172,8171,8172,8171,8172,8171,8172,7543,7544,7085,7086,7087,7088,7089,7090,
8139,8140,8139,8140,8139,8140,8139,8140,7513,7514,6733,6734,6735,6736,6737,6738,
8171,8172,8171,8172,8171,8172,8171,8172,7545,7546,6765,6766,6767,6768,6769,6770,
8139,8140,8139,8140,8139,8140,8139,8140,7623,7624,6797,6798,6799,6800,6801,6802,
8171,8172,8171,8172,8171,8172,8171,8172,7655,7656,6829,6830,6831,6832,6833,6834,
8139,8140,8139,8140,8139,8140,8139,8140,7645,7646,6861,6862,6863,6864,6865,6866,
8171,8172,8171,8172,8171,8172,8171,8172,7677,7678,6893,6894,6895,6896,6897,6898,
8135,8136,8135,8136,8135,8136,8135,8136,8135,8136,8099,8100,7951,7952,7953,7954,
8167,8168,8167,8168,8167,8168,8167,8168,8167,8168,8131,8132,7983,7984,7985,7986,
7839,7840,8137,8138,8137,8138,8137,8138,8137,8138,8163,8164,8015,8016,8017,8018,
7871,7872,8169,8170,8169,8170,8169,8170,8169,8170,8195,8196,8047,8048,8049,8050,
7715,7716,7717,7718,8139,8140,8139,8140,8139,8140,8161,8162,8079,8080,8081,8082,
7747,7748,7749,7750,8171,8172,8171,8172,8171,8172,8193,8194,8111,8112,8113,8114,
8141,8142,8141,8142,8141,8142,8141,8142,8141,8142,8163,8164,7759,7760,7761,7762,
8173,8174,8173,8174,8173,8174,8173,8174,8173,8174,8195,8196,7791,7792,7793,7794
</chunk>
   <chunk x="0" y="16" width="16" height="16">
7891,7892,7893,7894,7895,7896,7059,7060,7061,7062,7063,7064,7891,7892,7893,7894,
7923,7924,7925,7926,7927,7928,7091,7092,7093,7094,7095,7096,7923,7924,7925,7926,
5601,5602,5603,5604,5605,5606,7763,7764,7765,7766,7767,7768,2147491156,2147491155,2147491082,2147491081,
5633,5634,5635,5636,5637,5638,7795,7796,7797,7798,7799,7800,2147491188,2147491187,2147491114,2147491113,
5665,5666,5667,5668,5669,5670,7827,7828,7829,7830,7831,7832,2147491158,2147491157,7507,7508,
5697,5698,5699,5700,5701,5702,7859,7860,7861,7862,7863,7864,2147491190,2147491189,7539,7540,
5729,5730,5731,5732,5733,5734,7891,7892,7893,7894,7895,7896,2147491162,2147491161,7509,7510,
5761,5762,5763,5764,5765,5766,7923,7924,7925,7926,7927,7928,2147491194,2147491193,7541,7542,
5409,5410,5411,5412,5413,5414,7955,7956,7957,7958,2147491748,2147491747,8135,8136,8099,8100,
5441,5442,5443,5444,5445,5446,7987,7988,7989,7990,2147491780,2147491779,8167,8168,8131,8132,
5473,5474,5475,5476,5477,5478,8019,8020,8021,8022,2147491812,2147491811,8137,8138,8163,8164,
5505,5506,5507,5508,5509,5510,8051,8052,8053,8054,2147491844,2147491843,8169,8170,8195,8196,
5537,5538,5539,5540,5541,5542,8083,8084,8085,8086,2147491810,2147491809,8139,8140,8161,8162,
5569,5570,5571,5572,5573,5574,8115,8116,8117,8118,2147491842,2147491841,8171,8172,8193,8194,
5601,5602,5603,5604,5605,5606,7763,7764,7765,7766,2147491812,2147491811,8141,8142,8163,8164,
5633,5634,5635,5636,5637,5638,7795,7796,7797,7798,2147491844,2147491843,8173,8174,8195,8196
</chunk>
   <chunk x="16" y="16" width="16" height="16">
7895,7896,5729,5730,5731,5732,5733,5734,5537,5538,5539,5540,5541,5542,5729,5730,
7927,7928,5761,5762,5763,5764,5765,5766,5569,5570,5571,5572,5573,5574,5761,5762,
7947,7948,6733,6734,6735,6736,6737,6738,5601,5602,5603,5604,5605,5606,7763,7764,
7979,7980,6765,6766,6767,6768,6769,6770,5633,5634,5635,5636,5637,5638,7795,7796,
8011,8012,6797,6798,6799,6800,6801,6802,5665,5666,5667,5668,5669,5670,7827,7828,
8043,8044,6829,6830,6831,6832,6833,6834,5697,5698,5699,5700,5701,5702,7859,7860,
8075,8076,6861,6862,6863,6864,6865,6866,5729,5730,5731,5732,5733,5734,7891,7892,
8107,8108,6893,6894,6895,6896,6897,6898,5761,5762,5763,5764,5765,5766,7923,7924,
7947,7948,6925,6926,6927,6928,6929,6930,5409,5410,5411,5412,5413,5414,7955,7956,
7979,7980,6957,6958,6959,6960,6961,6962,5441,5442,5443,5444,5445,5446,7987,7988,
8011,8012,6989,6990,6991,6992,6993,6994,5473,5474,5475,5476,5477,5478,8019,8020,
8043,8044,7021,7022,7023,7024,7025,7026,5505,5506,5507,5508,5509,5510,8051,8052,
8075,8076,7053,7054,7055,7056,7057,7058,5537,5538,5539,5540,5541,5542,8083,8084,
8107,8108,7085,7086,7087,7088,7089,7090,5569,5570,5571,5572,5573,5574,8115,8116,
7755,7756,6733,6734,6735,6736,6737,6738,5601,5602,5603,5604,5605,5606,7763,7764,
7787,7788,6765,6766,6767,6768,6769,6770,5633,5634,5635,5636,5637,5638,7795,7796
</chunk>
   <chunk x="32" y="16" width="16" height="16">
5731,5732,5733,5734,5537,5538,5539,5540,5541,5542,2147491162,2147491161,8139,8140,8139,8140,
5763,5764,5765,5766,5569,5570,5571,5572,5573,5574,2147491194,2147491193,8171,8172,8171,8172,
7765,7766,7767,7768,7943,7944,7945,7946,7433,7434,8139,8140,8139,8140,8139,8140,
7797,7798,7799,7800,7975,7976,7977,7978,7465,7466,8171,8172,8171,8172,8171,8172,
7829,7830,7831,7832,8007,8008,7905,7906,8139,8140,8139,8140,8139,8140,8139,8140,
7861,7862,7863,7864,8039,8040,7937,7938,8171,8172,8171,8172,8171,8172,8171,8172,
7893,7894,7895,7896,7903,7904,8139,8140,8139,8140,8139,8140,8139,8140,8139,8140,
7925,7926,7927,7928,7935,7936,8171,8172,8171,8172,8171,8172,8171,8172,8171,8172,
7957,7958,2147491748,2147491747,8135,8136,8135,8136,8135,8136,8135,8136,8135,8136,8135,8136,
7989,7990,2147491780,2147491779,8167,8168,8167,8168,8167,8168,8167,8168,8167,8168,8167,8168,
8021,8022,2147491812,2147491811,8137,8138,8137,8138,8137,8138,8137,8138,8137,8138,8137,8138,
8053,8054,2147491844,2147491843,8169,8170,8169,8170,8169,8170,8169,8170,8169,8170,8169,8170,
8085,8086,2147491810,2147491809,8139,8140,8139,8140,8139,8140,8139,8140,8139,8140,8139,8140,
8117,8118,2147491842,2147491841,8171,8172,8171,8172,8171,8172,8171,8172,8171,8172,8171,8172,
7765,7766,2147491812,2147491811,8141,8142,8141,8142,8141,8142,8141,8142,8141,8142,8141,8142,
7797,7798,2147491844,2147491843,8173,8174,8173,8174,8173,8174,8173,8174,8173,8174,8173,8174
</chunk>
   <chunk x="48" y="16" width="16" height="16">
8139,8140,8139,8140,8139,8140,8139,8140,8139,8140,8139,8140,8139,8140,8139,8140,
8171,8172,8171,8172,8171,8172,8171,8172,8171,8172,8171,8172,8171,8172,8171,8172,
8139,8140,8139,8140,8139,8140,8139,8140,8139,8140,8139,8140,8139,8140,8139,8140,
8171,8172,8171,8172,8171,8172,8171,8172,8171,8172,8171,8172,8171,8172,8171,8172,
8139,8140,8139,8140,8139,8140,8139,8140,8139,8140,8139,8140,8139,8140,8139,8140,
8171,8172,8171,8172,8171,8172,8171,8172,8171,8172,8171,8172,8171,8172,8171,8172,
8139,8140,8139,8140,8139,8140,8139,8140,8139,8140,8139,8140,8139,8140,8139,8140,
8171,8172,8171,8172,8171,8172,8171,8172,8171,8172,8171,8172,8171,8172,8171,8172,
8135,8136,8135,8136,8135,8136,8135,8136,8135,8136,8135,8136,8135,8136,8135,8136,
8167,8168,8167,8168,8167,8168,8167,8168,8167,8168,8167,8168,8167,8168,8167,8168,
8137,8138,8137,8138,8137,8138,8137,8138,8137,8138,8137,8138,8137,8138,8137,8138,
8169,8170,8169,8170,8169,8170,8169,8170,8169,8170,8169,8170,8169,8170,8169,8170,
8139,8140,8139,8140,8139,8140,8139,8140,8139,8140,8139,8140,8139,8140,8139,8140,
8171,8172,8171,8172,8171,8172,8171,8172,8171,8172,8171,8172,8171,8172,8171,8172,
8141,8142,8141,8142,8141,8142,8141,8142,8141,8142,8141,8142,8141,8142,8141,8142,
8173,8174,8173,8174,8173,8174,8173,8174,8173,8174,8173,8174,8173,8174,8173,8174
</chunk>
   <chunk x="64" y="16" width="16" height="16">
7645,7646,7053,7054,7055,7056,7057,7058,6855,6856,6857,6858,6859,6860,8071,8072,
7677,7678,7085,7086,7087,7088,7089,7090,6887,6888,6889,6890,6891,6892,8103,8104,
7507,7508,6733,6734,6735,6736,6737,6738,6925,6926,6927,6928,6929,6930,7757,7758,
7539,7540,6765,6766,6767,6768,6769,6770,6957,6958,6959,6960,6961,6962,7789,7790,
7509,7510,6797,6798,6799,6800,6801,6802,6989,6990,6991,6992,6993,6994,7821,7822,
7541,7542,6829,6830,6831,6832,6833,6834,7021,7022,7023,7024,7025,7026,7853,7854,
7513,7514,6861,6862,6863,6864,6865,6866,7053,7054,7055,7056,7057,7058,7885,7886,
7545,7546,6893,6894,6895,6896,6897,6898,7085,7086,7087,7088,7089,7090,7917,7918,
8135,8136,8099,8100,7951,7952,7953,7954,6733,6734,6735,6736,6737,6738,5601,5602,
8167,8168,8131,8132,7983,7984,7985,7986,6765,6766,6767,6768,6769,6770,5633,5634,
8137,8138,8163,8164,8015,8016,8017,8018,6797,6798,6799,6800,6801,6802,5665,5666,
8169,8170,8195,8196,8047,8048,8049,8050,6829,6830,6831,6832,6833,6834,5697,5698,
8139,8140,8161,8162,8079,8080,8081,8082,6861,6862,6863,6864,6865,6866,5729,5730,
8171,8172,8193,8194,8111,8112,8113,8114,6893,6894,6895,6896,6897,6898,5761,5762,
8141,8142,8163,8164,7759,7760,7761,7762,6925,6926,6927,6928,6929,6930,5409,5410,
8173,8174,8195,8196,7791,7792,7793,7794,6957,6958,6959,6960,6961,6962,5441,5442
</chunk>
   <chunk x="80" y="16" width="16" height="16">
8073,8074,8075,8076,6855,6856,6857,6858,6859,6860,8071,8072,8073,8074,8075,8076,
8105,8106,8107,8108,6887,6888,6889,6890,6891,6892,8103,8104,8105,8106,8107,8108,
7759,7760,7755,7756,5601,5602,5603,5604,5605,5606,5409,5410,5411,5412,5413,5414,
7791,7792,7787,7788,5633,5634,5635,5636,5637,5638,5441,5442,5443,5444,5445,5446,
7823,7824,7819,7820,5665,5666,5667,5668,5669,5670,5473,5474,5475,5476,5477,5478,
7855,7856,7851,7852,5697,5698,5699,5700,5701,5702,5505,5506,5507,5508,5509,5510,
7887,7888,7883,7884,5729,5730,5731,5732,5733,5734,5537,5538,5539,5540,5541,5542,
7919,7920,7915,7916,5761,5762,5763,5764,5765,5766,5569,5570,5571,5572,5573,5574,
5603,5604,5605,5606,5409,5410,5411,5412,5413,5414,5601,5602,5603,5604,5605,5606,
5635,5636,5637,5638,5441,5442,5443,5444,5445,5446,5633,5634,5635,5636,5637,5638,
5667,5668,5669,5670,5473,5474,5475,5476,5477,5478,5665,5666,5667,5668,5669,5670,
5699,5700,5701,5702,5505,5506,5507,5508,5509,5510,5697,5698,5699,5700,5701,5702,
5731,5732,5733,5734,5537,5538,5539,5540,5541,5542,5729,5730,5731,5732,5733,5734,
5763,5764,5765,5766,5569,5570,5571,5572,5573,5574,5761,5762,5763,5764,5765,5766,
5411,5412,5413,5414,5601,5602,5603,5604,5605,5606,5409,5410,5411,5412,5413,5414,
5443,5444,5445,5446,5633,5634,5635,5636,5637,5638,5441,5442,5443,5444,5445,5446
</chunk>
   <chunk x="96" y="16" width="16" height="16">
5537,5538,5539,5540,5541,5542,6861,6862,6863,6864,2147491558,2147491557,7843,7844,7573,7574,
5569,5570,5571,5572,5573,5574,6893,6894,6895,6896,2147491590,2147491589,7875,7876,7605,7606,
5601,5602,5603,5604,5605,5606,7949,7950,7951,7952,2147491418,2147491417,7501,7502,2147485721,2147485720,
5633,5634,5635,5636,5637,5638,7981,7982,7983,7984,2147491450,2147491449,7533,7534,2147485753,2147485752,
5665,5666,5667,5668,5669,5670,8013,8014,8015,8016,2147491418,2147491417,2398,2399,2400,2401,
5697,5698,5699,5700,5701,5702,8045,8046,8047,8048,2147491450,2147491449,2430,2431,2432,2433,
5729,5730,5731,5732,5733,5734,8077,8078,8079,8080,2147491418,2147491417,2462,2463,2144,2145,
5761,5762,5763,5764,5765,5766,8109,8110,8111,8112,2147491450,2147491449,2494,2495,2176,2177,
5409,5410,5411,5412,5413,5414,7757,7758,7759,7760,8097,8098,2144,2145,2144,2145,
5441,5442,5443,5444,5445,5446,7789,7790,7791,7792,8129,8130,2176,2177,2176,2177,
5473,5474,5475,5476,5477,5478,7821,7822,7823,7824,7961,7962,2144,2145,2144,2145,
5505,5506,5507,5508,5509,5510,7853,7854,7855,7856,7993,7994,2176,2177,2176,2177,
5537,5538,5539,5540,5541,5542,7885,7886,7887,7888,8025,8026,2144,2145,2144,2145,
5569,5570,5571,5572,5573,5574,7917,7918,7919,7920,8057,8058,2176,2177,2176,2177,
5601,5602,5603,5604,5605,5606,6925,6926,6927,6928,6929,6930,2147491808,2147491807,2147491806,2147491805,
5633,5634,5635,5636,5637,5638,6957,6958,6959,6960,6961,6962,2147491840,2147491839,2147491838,2147491837
</chunk>
   <chunk x="112" y="16" width="16" height="16">
7569,7570,2376,2377,2376,2377,2376,2377,7843,7844,7573,7574,7569,7570,7569,7570,
7601,7602,2408,2409,2408,2409,2408,2409,7875,7876,7605,7606,7601,7602,7601,7602,
2147485719,2147485718,7501,7502,7501,7502,7501,7502,7501,7502,2147485721,2147485720,2147485719,2147485718,2136,2137,
2147485751,2147485750,7533,7534,7533,7534,7533,7534,7533,7534,2147485753,2147485752,2147485751,2147485750,2168,2169,
2066,2067,2066,2067,2066,2067,2066,2067,2398,2399,2400,2401,2066,2067,2066,2067,
2098,2099,2098,2099,2098,2099,2098,2099,2430,2431,2432,2433,2098,2099,2098,2099,
2400,2401,2147486049,2147486048,1073744184,1073744185,2400,2401,2462,2463,2144,2145,2400,2401,2066,2067,
2432,2433,2147486081,2147486080,1073744152,1073744153,2432,2433,2494,2495,2176,2177,2432,2433,2098,2099,
2144,2145,2144,2145,2144,2145,2144,2145,2144,2145,2144,2145,2144,2145,1073744184,1073744185,
2176,2177,2176,2177,2176,2177,2176,2177,2176,2177,2176,2177,2176,2177,1073744152,1073744153,
2144,2145,2144,2145,2144,2145,2144,2145,2144,2145,2144,2145,2144,2145,2144,2145,
2176,2177,2176,2177,2176,2177,2176,2177,2176,2177,2176,2177,2176,2177,2176,2177,
2144,2145,2144,2145,2144,2145,2144,2145,2144,2145,2144,2145,2144,2145,2144,2145,
2176,2177,2176,2177,2176,2177,2176,2177,2176,2177,2176,2177,2176,2177,2176,2177,
2144,2145,2144,2145,2144,2145,2144,2145,2144,2145,2144,2145,2144,2145,2144,2145,
2176,2177,2176,2177,2176,2177,2176,2177,2176,2177,2176,2177,2176,2177,2176,2177
</chunk>
   <chunk x="128" y="16" width="16" height="16">
7571,7572,7573,7574,2147491492,2147491491,2376,2377,2376,2377,2070,2071,2072,2073,2066,2067,
7603,7604,7605,7606,2147491524,2147491523,2408,2409,2408,2409,2102,2103,2104,2105,2098,2099,
2147485721,2147485720,2147485719,2147485718,2136,2137,2147485721,2147485720,2072,2073,2066,2067,2066,2067,2147486049,2147486048,
2147485753,2147485752,2147485751,2147485750,2168,2169,2147485753,2147485752,2104,2105,2098,2099,2098,2099,2147486081,2147486080,
2066,2067,2066,2067,2066,2067,2066,2067,2066,2067,2398,2399,1073744184,1073744185,2144,2145,
2098,2099,2098,2099,2098,2099,2098,2099,2098,2099,2430,2431,1073744152,1073744153,2176,2177,
2066,2067,2066,2067,2066,2067,2066,2067,2066,2067,2462,2463,2144,2145,2144,2145,
2098,2099,2098,2099,2098,2099,2098,2099,2098,2099,2494,2495,2176,2177,2176,2177,
1073744184,1073744185,1073744184,1073744185,1073744184,1073744185,1073744184,1073744185,1073744184,1073744185,2144,2145,8157,8158,8159,8160,
1073744152,1073744153,1073744152,1073744153,1073744152,1073744153,1073744152,1073744153,1073744152,1073744153,2176,2177,8189,8190,8191,8192,
2144,2145,2144,2145,2144,2145,2144,2145,2144,2145,2147491548,2147491547,8009,8010,8011,8012,
2176,2177,2176,2177,2176,2177,2176,2177,2176,2177,2147491580,2147491579,8041,8042,8043,8044,
2144,2145,2144,2145,2144,2145,2144,2145,2144,2145,2147491612,2147491611,8073,8074,8075,8076,
2176,2177,2176,2177,2176,2177,2176,2177,2176,2177,2147491644,2147491643,8105,8106,8107,8108,
2144,2145,2144,2145,2144,2145,8157,8158,8159,8160,5409,5410,5411,5412,5413,5414,
2176,2177,2176,2177,2176,2177,8189,8190,8191,8192,5441,5442,5443,5444,5445,5446
</chunk>
   <chunk x="144" y="16" width="16" height="16">
2462,2463,2144,2145,2144,2145,2144,2145,2144,2145,2144,2145,2144,2145,2144,2145,
2494,2495,2176,2177,2176,2177,2176,2177,2176,2177,2176,2177,2176,2177,2176,2177,
2144,2145,2144,2145,2144,2145,2144,2145,2144,2145,2144,2145,2144,2145,8157,8158,
2176,2177,2176,2177,2176,2177,2176,2177,2176,2177,2176,2177,2176,2177,8189,8190,
2144,2145,2144,2145,2144,2145,2144,2145,2144,2145,2144,2145,2147491548,2147491547,8009,8010,
2176,2177,2176,2177,2176,2177,2176,2177,2176,2177,2176,2177,2147491580,2147491579,8041,8042,
2144,2145,2144,2145,2144,2145,2144,2145,2144,2145,2144,2145,2147491612,2147491611,8073,8074,
2176,2177,2176,2177,2176,2177,2176,2177,2176,2177,2176,2177,2147491644,2147491643,8105,8106,
1073749953,1073749954,8157,8158,8159,8160,7503,7504,7505,7506,7503,7504,6739,6740,6741,6742,
1073749921,1073749922,8189,8190,8191,8192,7535,7536,7537,7538,7535,7536,6771,6772,6773,6774,
7815,7816,7817,7818,7819,7820,8007,8008,8009,8010,8011,8012,6803,6804,6805,6806,
7847,7848,7849,7850,7851,7852,8039,8040,8041,8042,8043,8044,6835,6836,6837,6838,
7879,7880,7881,7882,7883,7884,8071,8072,8073,8074,8075,8076,6867,6868,6869,6870,
7911,7912,7913,7914,7915,7916,8103,8104,8105,8106,8107,8108,6899,6900,6901,6902,
5601,5602,5603,5604,5605,5606,6739,6740,6741,6742,6743,6744,6931,6932,6933,6934,
5633,5634,5635,5636,5637,5638,6771,6772,6773,6774,6775,6776,6963,6964,6965,6966
</chunk>
   <chunk x="160" y="16" width="16" height="16">
2144,2145,2147491612,2147491611,8073,8074,8075,8076,6861,6862,6863,6864,6865,6866,5729,5730,
2176,2177,2147491644,2147491643,8105,8106,8107,8108,6893,6894,6895,6896,6897,6898,5761,5762,
8159,8160,5409,5410,5411,5412,5413,5414,5601,5602,5603,5604,5605,6930,5409,5410,
8191,8192,5441,5442,5443,5444,5445,5446,5633,5634,5635,5636,5637,6962,5441,5442,
8011,8012,5473,5474,5475,5476,5477,5478,5665,5666,5667,5668,5669,6994,5473,5474,
8043,8044,5505,5506,5507,5508,5509,5510,5697,5698,5699,5700,5701,7026,5505,5506,
8075,8076,5537,5538,5539,5540,5541,5542,5729,5730,5731,5732,5733,7058,5537,5538,
8107,8108,5569,5570,5571,5572,5573,5574,5761,5762,5763,5764,5765,7090,5569,5570,
6743,6744,5601,5602,5603,5604,5605,5606,6733,6734,6735,6736,6737,6738,5601,5602,
6775,6776,5633,5634,5635,5636,5637,5638,6765,6766,6767,6768,6769,6770,5633,5634,
6807,6808,5665,5666,5667,5668,5669,5670,6797,6798,6799,6800,6801,6802,5665,5666,
6839,6840,5697,5698,5699,5700,5701,5702,6829,6830,6831,6832,6833,6834,5697,5698,
6871,6872,5729,5730,5731,5732,5733,5734,6861,6862,6863,6864,6865,6866,5729,5730,
6903,6904,5761,5762,5763,5764,5765,5766,6893,6894,6895,6896,6897,6898,5761,5762,
6935,6936,5409,5410,5411,5412,5413,5414,5601,5602,5603,5604,5605,6930,5409,5410,
6967,6968,5441,5442,5443,5444,5445,5446,5633,5634,5635,5636,5637,6962,5441,5442
</chunk>
   <chunk x="176" y="16" width="16" height="16">
5731,5732,5733,5734,6861,6862,6863,6864,6865,6866,0,0,0,0,0,0,
5763,5764,5765,5766,6893,6894,6895,6896,6897,6898,0,0,0,0,0,0,
5411,5412,5413,5414,6925,6926,6927,6928,6929,6930,0,0,0,0,0,0,
5443,5444,5445,5446,6957,6958,6959,6960,6961,6962,0,0,0,0,0,0,
5475,5476,5477,5478,6989,6990,6991,6992,6993,6994,0,0,0,0,0,0,
5507,5508,5509,5510,7021,7022,7023,7024,7025,7026,0,0,0,0,0,0,
5539,5540,5541,5542,7053,7054,7055,7056,7057,7058,0,0,0,0,0,0,
5571,5572,5573,5574,7085,7086,7087,7088,7089,7090,0,0,0,0,0,0,
5603,5604,5605,5606,6733,6734,6735,6736,6737,6738,0,0,0,0,0,0,
5635,5636,5637,5638,6765,6766,6767,6768,6769,6770,0,0,0,0,0,0,
5667,5668,5669,5670,6797,6798,6799,6800,6801,6802,0,0,0,0,0,0,
5699,5700,5701,5702,6829,6830,6831,6832,6833,6834,0,0,0,0,0,0,
5731,5732,5733,5734,6861,6862,6863,6864,6865,6866,0,0,0,0,0,0,
5763,5764,5765,5766,6893,6894,6895,6896,6897,6898,0,0,0,0,0,0,
5411,5412,5413,5414,6925,6926,6927,6928,6929,6930,0,0,0,0,0,0,
5443,5444,5445,5446,6957,6958,6959,6960,6961,6962,0,0,0,0,0,0
</chunk>
   <chunk x="-112" y="32" width="16" height="16">
0,0,0,0,0,0,0,0,0,0,2134,2135,2066,2067,2066,2067,
0,0,0,0,0,0,0,0,0,0,2166,2167,2098,2099,2098,2099,
0,0,0,0,0,0,0,0,0,0,2198,2199,2066,2067,2066,2067,
0,0,0,0,0,0,0,0,0,0,2230,2231,2098,2099,2098,2099,
0,0,0,0,0,0,0,0,0,0,2066,2067,2066,2067,2066,2067,
0,0,0,0,0,0,0,0,0,0,2098,2099,2098,2099,2098,2099,
0,0,0,0,0,0,0,0,0,0,2066,2067,2066,2067,2066,2067,
0,0,0,0,0,0,0,0,0,0,2098,2099,2098,2099,2098,2099,
0,0,0,0,0,0,0,0,0,0,2066,2067,2066,2067,2066,2067,
0,0,0,0,0,0,0,0,0,0,2098,2099,2098,2099,2098,2099,
0,0,0,0,0,0,0,0,0,0,0,0,0,0,0,0,
0,0,0,0,0,0,0,0,0,0,0,0,0,0,0,0,
0,0,0,0,0,0,0,0,0,0,0,0,0,0,0,0,
0,0,0,0,0,0,0,0,0,0,0,0,0,0,0,0,
0,0,0,0,0,0,0,0,0,0,0,0,0,0,0,0,
0,0,0,0,0,0,0,0,0,0,0,0,0,0,0,0
</chunk>
   <chunk x="-96" y="32" width="16" height="16">
2066,2067,2066,2067,2066,2067,2066,2067,2066,2067,2066,2067,2066,2067,2066,2067,
2098,2099,2098,2099,2098,2099,2098,2099,2098,2099,2098,2099,2098,2099,2098,2099,
2066,2067,2066,2067,2066,2067,2066,2067,2066,2067,2066,2067,2066,2067,2066,2067,
2098,2099,2098,2099,2098,2099,2098,2099,2098,2099,2098,2099,2098,2099,2098,2099,
2066,2067,2066,2067,2066,2067,2066,2067,2066,2067,2066,2067,2066,2067,2066,2067,
2098,2099,2098,2099,2098,2099,2098,2099,2098,2099,2098,2099,2098,2099,2098,2099,
2066,2067,2066,2067,2066,2067,2066,2067,2066,2067,2066,2067,2066,2067,2066,2067,
2098,2099,2098,2099,2098,2099,2098,2099,2098,2099,2098,2099,2098,2099,2098,2099,
2066,2067,2066,2067,2066,2067,2066,2067,2066,2067,2066,2067,2066,2067,2066,2067,
2098,2099,2098,2099,2098,2099,2098,2099,2098,2099,2098,2099,2098,2099,2098,2099,
0,0,0,0,0,0,0,0,0,0,0,0,0,0,0,0,
0,0,0,0,0,0,0,0,0,0,0,0,0,0,0,0,
0,0,0,0,0,0,0,0,0,0,0,0,0,0,0,0,
0,0,0,0,0,0,0,0,0,0,0,0,0,0,0,0,
0,0,0,0,0,0,0,0,0,0,0,0,0,0,0,0,
0,0,0,0,0,0,0,0,0,0,0,0,0,0,0,0
</chunk>
   <chunk x="-80" y="32" width="16" height="16">
2066,2067,2066,2067,2066,2067,2066,2067,2066,2067,2066,2067,2066,2067,2398,2399,
2098,2099,2098,2099,2098,2099,2098,2099,2098,2099,2098,2099,2098,2099,2430,2431,
2066,2067,2066,2067,2066,2067,2066,2067,2066,2067,2066,2067,2066,2067,2462,2463,
2098,2099,2098,2099,2098,2099,2098,2099,2098,2099,2098,2099,2098,2099,2494,2495,
2066,2067,2066,2067,2066,2067,2066,2067,2066,2067,2066,2067,2147486049,2147486048,2144,2145,
2098,2099,2098,2099,2098,2099,2098,2099,2098,2099,2098,2099,2147486081,2147486080,2176,2177,
2066,2067,2066,2067,2066,2067,2066,2067,2398,2399,1073744184,1073744185,2144,2145,2144,2145,
2098,2099,2098,2099,2098,2099,2098,2099,2430,2431,1073744152,1073744153,2176,2177,2176,2177,
2066,2067,2066,2067,2066,2067,2066,2067,2462,2463,2144,2145,2144,2145,2144,2145,
2098,2099,2098,2099,2098,2099,2098,2099,2494,2495,2176,2177,2176,2177,2176,2177,
0,0,0,0,0,0,0,0,0,0,0,0,0,0,0,0,
0,0,0,0,0,0,0,0,0,0,0,0,0,0,0,0,
0,0,0,0,0,0,0,0,0,0,0,0,0,0,0,0,
0,0,0,0,0,0,0,0,0,0,0,0,0,0,0,0,
0,0,0,0,0,0,0,0,0,0,0,0,0,0,0,0,
0,0,0,0,0,0,0,0,0,0,0,0,0,0,0,0
</chunk>
   <chunk x="-64" y="32" width="16" height="16">
1073744184,1073744185,2144,2145,2144,2145,2144,2145,2144,2145,2144,2145,2144,2145,2144,2145,
1073744152,1073744153,2176,2177,2176,2177,2176,2177,2176,2177,2176,2177,2176,2177,2176,2177,
2144,2145,2144,2145,2144,2145,2144,2145,2144,2145,2144,2145,2144,2145,2144,2145,
2176,2177,2176,2177,2176,2177,2176,2177,2176,2177,2176,2177,2176,2177,2176,2177,
2144,2145,2144,2145,2144,2145,2144,2145,2144,2145,2144,2145,8157,8158,8159,8160,
2176,2177,2176,2177,2176,2177,2176,2177,2176,2177,2176,2177,8189,8190,8191,8192,
2144,2145,2144,2145,2144,2145,2144,2145,2144,2145,2147491548,2147491547,8009,8010,8011,8012,
2176,2177,2176,2177,2176,2177,2176,2177,2176,2177,2147491580,2147491579,8041,8042,8043,8044,
2144,2145,2144,2145,2144,2145,2144,2145,2144,2145,2147491612,2147491611,8073,8074,8075,8076,
2176,2177,2176,2177,2176,2177,2176,2177,2176,2177,2147491644,2147491643,8105,8106,8107,8108,
0,0,0,0,0,0,0,0,0,0,0,0,0,0,0,0,
0,0,0,0,0,0,0,0,0,0,0,0,0,0,0,0,
0,0,0,0,0,0,0,0,0,0,0,0,0,0,0,0,
0,0,0,0,0,0,0,0,0,0,0,0,0,0,0,0,
0,0,0,0,0,0,0,0,0,0,0,0,0,0,0,0,
0,0,0,0,0,0,0,0,0,0,0,0,0,0,0,0
</chunk>
   <chunk x="-48" y="32" width="16" height="16">
2147491548,2147491547,8009,8010,8011,8012,7815,7816,8095,8096,1073749507,1073749508,1073749509,1073749510,1073749503,1073749504,
2147491580,2147491579,8041,8042,8043,8044,7847,7848,8127,8128,1073749475,1073749476,1073749477,1073749478,1073749471,1073749472,
2147491612,2147491611,8073,8074,8075,8076,7879,7880,1073749947,1073749948,1073749509,1073749510,1073749503,1073749504,7575,7576,
2147491644,2147491643,8105,8106,8107,8108,7911,7912,1073749915,1073749916,1073749477,1073749478,1073749471,1073749472,7607,7608,
5409,5410,5411,5412,5413,5414,7943,7944,7945,7946,7653,7654,7647,7648,7589,7590,
5441,5442,5443,5444,5445,5446,7975,7976,7977,7978,7685,7686,7679,7680,7621,7622,
5473,5474,5475,5476,5477,5478,8007,8008,8009,8010,7651,7652,7653,7654,7647,7648,
5505,5506,5507,5508,5509,5510,8039,8040,8041,8042,7683,7684,7685,7686,7679,7680,
5537,5538,5539,5540,5541,5542,8071,8072,8073,8074,1073749507,1073749508,1073749509,1073749510,1073749503,1073749504,
5569,5570,5571,5572,5573,5574,8103,8104,8105,8106,1073749475,1073749476,1073749477,1073749478,1073749471,1073749472,
0,0,0,0,0,0,0,0,0,0,0,0,0,0,0,0,
0,0,0,0,0,0,0,0,0,0,0,0,0,0,0,0,
0,0,0,0,0,0,0,0,0,0,0,0,0,0,0,0,
0,0,0,0,0,0,0,0,0,0,0,0,0,0,0,0,
0,0,0,0,0,0,0,0,0,0,0,0,0,0,0,0,
0,0,0,0,0,0,0,0,0,0,0,0,0,0,0,0
</chunk>
   <chunk x="-32" y="32" width="16" height="16">
7575,7576,8143,8144,8143,8144,8143,8144,8143,8144,8143,8144,8143,8144,8143,8144,
7607,7608,8175,8176,8175,8176,8175,8176,8175,8176,8175,8176,8175,8176,8175,8176,
8145,8146,8145,8146,8145,8146,8145,8146,8145,8146,8145,8146,8145,8146,8145,8146,
8177,8178,8177,8178,8177,8178,8177,8178,8177,8178,8177,8178,8177,8178,8177,8178,
8147,8148,2147491238,2147491237,7589,7590,8147,8148,8147,8148,8147,8148,8147,8148,8147,8148,
8179,8180,2147491270,2147491269,7621,7622,8179,8180,8179,8180,8179,8180,8179,8180,8179,8180,
7649,7650,7649,7650,7587,7588,7585,7586,8149,8150,8149,8150,8149,8150,8149,8150,
7681,7682,7681,7682,7619,7620,7617,7618,8181,8182,8181,8182,8181,8182,8181,8182,
1073749505,1073749506,1073749505,1073749506,1073749443,1073749444,1073749441,1073749442,8149,8150,8149,8150,8149,8150,8149,8150,
1073749473,1073749474,1073749473,1073749474,1073749411,1073749412,1073749409,1073749410,8181,8182,8181,8182,8181,8182,8181,8182,
0,0,0,0,0,0,0,0,0,0,0,0,0,0,0,0,
0,0,0,0,0,0,0,0,0,0,0,0,0,0,0,0,
0,0,0,0,0,0,0,0,0,0,0,0,0,0,0,0,
0,0,0,0,0,0,0,0,0,0,0,0,0,0,0,0,
0,0,0,0,0,0,0,0,0,0,0,0,0,0,0,0,
0,0,0,0,0,0,0,0,0,0,0,0,0,0,0,0
</chunk>
   <chunk x="-16" y="32" width="16" height="16">
8143,8144,8143,8144,8143,8144,8143,8144,8143,8144,8161,8162,7823,7824,7825,7826,
8175,8176,8175,8176,8175,8176,8175,8176,8175,8176,8193,8194,7855,7856,7857,7858,
8145,8146,8145,8146,8145,8146,8145,8146,8145,8146,8163,8164,7887,7888,7889,7890,
8177,8178,8177,8178,8177,8178,8177,8178,8177,8178,8195,8196,7919,7920,7921,7922,
8147,8148,8147,8148,8147,8148,8147,8148,8147,8148,8161,8162,7951,7952,7953,7954,
8179,8180,8179,8180,8179,8180,8179,8180,8179,8180,8193,8194,7983,7984,7985,7986,
8149,8150,8149,8150,8149,8150,8149,8150,8149,8150,8163,8164,8015,8016,8017,8018,
8181,8182,8181,8182,8181,8182,8181,8182,8181,8182,8195,8196,8047,8048,8049,8050,
8149,8150,8149,8150,8149,8150,8149,8150,8149,8150,8161,8162,8079,8080,8081,8082,
8181,8182,8181,8182,8181,8182,8181,8182,8181,8182,8193,8194,8111,8112,8113,8114,
0,0,0,0,0,0,0,0,0,0,0,0,0,0,0,0,
0,0,0,0,0,0,0,0,0,0,0,0,0,0,0,0,
0,0,0,0,0,0,0,0,0,0,0,0,0,0,0,0,
0,0,0,0,0,0,0,0,0,0,0,0,0,0,0,0,
0,0,0,0,0,0,0,0,0,0,0,0,0,0,0,0,
0,0,0,0,0,0,0,0,0,0,0,0,0,0,0,0
</chunk>
   <chunk x="0" y="32" width="16" height="16">
5665,5666,5667,5668,5669,5670,7827,7828,7829,7830,2147491810,2147491809,8143,8144,8161,8162,
5697,5698,5699,5700,5701,5702,7859,7860,7861,7862,2147491842,2147491841,8175,8176,8193,8194,
5729,5730,5731,5732,5733,5734,7891,7892,7893,7894,2147491812,2147491811,8145,8146,8163,8164,
5761,5762,5763,5764,5765,5766,7923,7924,7925,7926,2147491844,2147491843,8177,8178,8195,8196,
5409,5410,5411,5412,5413,5414,7955,7956,7957,7958,2147491810,2147491809,8147,8148,8161,8162,
5441,5442,5443,5444,5445,5446,7987,7988,7989,7990,2147491842,2147491841,8179,8180,8193,8194,
5473,5474,5475,5476,5477,5478,8019,8020,8021,8022,2147491812,2147491811,8149,8150,8163,8164,
5505,5506,5507,5508,5509,5510,8051,8052,8053,8054,2147491844,2147491843,8181,8182,8195,8196,
5537,5538,5539,5540,5541,5542,8083,8084,8085,8086,2147491810,2147491809,8149,8150,8161,8162,
5569,5570,5571,5572,5573,5574,8115,8116,8117,8118,2147491842,2147491841,8181,8182,8193,8194,
0,0,0,0,0,0,0,0,0,0,0,0,0,0,0,0,
0,0,0,0,0,0,0,0,0,0,0,0,0,0,0,0,
0,0,0,0,0,0,0,0,0,0,0,0,0,0,0,0,
0,0,0,0,0,0,0,0,0,0,0,0,0,0,0,0,
0,0,0,0,0,0,0,0,0,0,0,0,0,0,0,0,
0,0,0,0,0,0,0,0,0,0,0,0,0,0,0,0
</chunk>
   <chunk x="16" y="32" width="16" height="16">
7819,7820,6797,6798,6799,6800,6801,6802,5665,5666,5667,5668,5669,5670,7827,7828,
7851,7852,6829,6830,6831,6832,6833,6834,5697,5698,5699,5700,5701,5702,7859,7860,
7883,7884,6861,6862,6863,6864,6865,6866,5729,5730,5731,5732,5733,5734,7891,7892,
7915,7916,6893,6894,6895,6896,6897,6898,5761,5762,5763,5764,5765,5766,7923,7924,
7947,7948,6925,6926,6927,6928,6929,6930,5409,5410,5411,5412,5413,5414,7955,7956,
7979,7980,6957,6958,6959,6960,6961,6962,5441,5442,5443,5444,5445,5446,7987,7988,
8011,8012,6989,6990,6991,6992,6993,6994,5473,5474,5475,5476,5477,5478,8019,8020,
8043,8044,7021,7022,7023,7024,7025,7026,5505,5506,5507,5508,5509,5510,8051,8052,
8075,8076,7053,7054,7055,7056,7057,7058,5537,5538,5539,5540,5541,5542,8083,8084,
8107,8108,7085,7086,7087,7088,7089,7090,5569,5570,5571,5572,5573,5574,8115,8116,
0,0,0,0,0,0,0,0,0,0,0,0,0,0,0,0,
0,0,0,0,0,0,0,0,0,0,0,0,0,0,0,0,
0,0,0,0,0,0,0,0,0,0,0,0,0,0,0,0,
0,0,0,0,0,0,0,0,0,0,0,0,0,0,0,0,
0,0,0,0,0,0,0,0,0,0,0,0,0,0,0,0,
0,0,0,0,0,0,0,0,0,0,0,0,0,0,0,0
</chunk>
   <chunk x="32" y="32" width="16" height="16">
7829,7830,2147491810,2147491809,8143,8144,8143,8144,8143,8144,8143,8144,8143,8144,8143,8144,
7861,7862,2147491842,2147491841,8175,8176,8175,8176,8175,8176,8175,8176,8175,8176,8175,8176,
7893,7894,2147491812,2147491811,8145,8146,8145,8146,8145,8146,8145,8146,8145,8146,8145,8146,
7925,7926,2147491844,2147491843,8177,8178,8177,8178,8177,8178,8177,8178,8177,8178,8177,8178,
7957,7958,2147491810,2147491809,8147,8148,8147,8148,8147,8148,8147,8148,8147,8148,8147,8148,
7989,7990,2147491842,2147491841,8179,8180,8179,8180,8179,8180,8179,8180,8179,8180,8179,8180,
8021,8022,2147491812,2147491811,8149,8150,8149,8150,8149,8150,8149,8150,8149,8150,8149,8150,
8053,8054,2147491844,2147491843,8181,8182,8181,8182,8181,8182,8181,8182,8181,8182,8181,8182,
8085,8086,2147491810,2147491809,8149,8150,8149,8150,8149,8150,8149,8150,8149,8150,8149,8150,
8117,8118,2147491842,2147491841,8181,8182,8181,8182,8181,8182,8181,8182,8181,8182,8181,8182,
0,0,0,0,0,0,0,0,0,0,0,0,0,0,0,0,
0,0,0,0,0,0,0,0,0,0,0,0,0,0,0,0,
0,0,0,0,0,0,0,0,0,0,0,0,0,0,0,0,
0,0,0,0,0,0,0,0,0,0,0,0,0,0,0,0,
0,0,0,0,0,0,0,0,0,0,0,0,0,0,0,0,
0,0,0,0,0,0,0,0,0,0,0,0,0,0,0,0
</chunk>
   <chunk x="48" y="32" width="16" height="16">
8143,8144,8143,8144,8143,8144,8143,8144,8143,8144,8143,8144,8143,8144,8143,8144,
8175,8176,8175,8176,8175,8176,8175,8176,8175,8176,8175,8176,8175,8176,8175,8176,
8145,8146,8145,8146,8145,8146,8145,8146,8145,8146,8145,8146,8145,8146,8145,8146,
8177,8178,8177,8178,8177,8178,8177,8178,8177,8178,8177,8178,8177,8178,8177,8178,
8147,8148,8147,8148,8147,8148,8147,8148,8147,8148,8147,8148,8147,8148,8147,8148,
8179,8180,8179,8180,8179,8180,8179,8180,8179,8180,8179,8180,8179,8180,8179,8180,
8149,8150,8149,8150,8149,8150,8149,8150,8149,8150,8149,8150,8149,8150,8149,8150,
8181,8182,8181,8182,8181,8182,8181,8182,8181,8182,8181,8182,8181,8182,8181,8182,
8149,8150,8149,8150,8149,8150,8149,8150,8149,8150,8149,8150,8149,8150,8149,8150,
8181,8182,8181,8182,8181,8182,8181,8182,8181,8182,8181,8182,8181,8182,8181,8182,
0,0,0,0,0,0,0,0,0,0,0,0,0,0,0,0,
0,0,0,0,0,0,0,0,0,0,0,0,0,0,0,0,
0,0,0,0,0,0,0,0,0,0,0,0,0,0,0,0,
0,0,0,0,0,0,0,0,0,0,0,0,0,0,0,0,
0,0,0,0,0,0,0,0,0,0,0,0,0,0,0,0,
0,0,0,0,0,0,0,0,0,0,0,0,0,0,0,0
</chunk>
   <chunk x="64" y="32" width="16" height="16">
8143,8144,8161,8162,7823,7824,7825,7826,6989,6990,6991,6992,6993,6994,5473,5474,
8175,8176,8193,8194,7855,7856,7857,7858,7021,7022,7023,7024,7025,7026,5505,5506,
8145,8146,8163,8164,7887,7888,7889,7890,7053,7054,7055,7056,7057,7058,5537,5538,
8177,8178,8195,8196,7919,7920,7921,7922,7085,7086,7087,7088,7089,7090,5569,5570,
8147,8148,8161,8162,7951,7952,7953,7954,6733,6734,6735,6736,6737,6738,5601,5602,
8179,8180,8193,8194,7983,7984,7985,7986,6765,6766,6767,6768,6769,6770,5633,5634,
8149,8150,8163,8164,8015,8016,8017,8018,6797,6798,6799,6800,6801,6802,5665,5666,
8181,8182,8195,8196,8047,8048,8049,8050,6829,6830,6831,6832,6833,6834,5697,5698,
8149,8150,8161,8162,8079,8080,8081,8082,6861,6862,6863,6864,6865,6866,5729,5730,
8181,8182,8193,8194,8111,8112,8113,8114,6893,6894,6895,6896,6897,6898,5761,5762,
0,0,0,0,0,0,0,0,0,0,0,0,0,0,0,0,
0,0,0,0,0,0,0,0,0,0,0,0,0,0,0,0,
0,0,0,0,0,0,0,0,0,0,0,0,0,0,0,0,
0,0,0,0,0,0,0,0,0,0,0,0,0,0,0,0,
0,0,0,0,0,0,0,0,0,0,0,0,0,0,0,0,
0,0,0,0,0,0,0,0,0,0,0,0,0,0,0,0
</chunk>
   <chunk x="80" y="32" width="16" height="16">
5475,5476,5477,5478,5665,5666,5667,5668,5669,5670,5473,5474,5475,5476,5477,5478,
5507,5508,5509,5510,5697,5698,5699,5700,5701,5702,5505,5506,5507,5508,5509,5510,
5539,5540,5541,5542,5729,5730,5731,5732,5733,5734,5537,5538,5539,5540,5541,5542,
5571,5572,5573,5574,5761,5762,5763,5764,5765,5766,5569,5570,5571,5572,5573,5574,
5603,5604,5605,5606,5409,5410,5411,5412,5413,5414,5601,5602,5603,5604,5605,5606,
5635,5636,5637,5638,5441,5442,5443,5444,5445,5446,5633,5634,5635,5636,5637,5638,
5667,5668,5669,5670,5473,5474,5475,5476,5477,5478,5665,5666,5667,5668,5669,5670,
5699,5700,5701,5702,5505,5506,5507,5508,5509,5510,5697,5698,5699,5700,5701,5702,
5731,5732,5733,5734,5537,5538,5539,5540,5541,5542,5729,5730,5731,5732,5733,5734,
5763,5764,5765,5766,5569,5570,5571,5572,5573,5574,5761,5762,5763,5764,5765,5766,
0,0,0,0,0,0,0,0,0,0,0,0,0,0,0,0,
0,0,0,0,0,0,0,0,0,0,0,0,0,0,0,0,
0,0,0,0,0,0,0,0,0,0,0,0,0,0,0,0,
0,0,0,0,0,0,0,0,0,0,0,0,0,0,0,0,
0,0,0,0,0,0,0,0,0,0,0,0,0,0,0,0,
0,0,0,0,0,0,0,0,0,0,0,0,0,0,0,0
</chunk>
   <chunk x="96" y="32" width="16" height="16">
5665,5666,5667,5668,5669,5670,6989,6990,6991,6992,6993,6994,7815,7816,7817,7818,
5697,5698,5699,5700,5701,5702,7021,7022,7023,7024,7025,7026,7847,7848,7849,7850,
5729,5730,5731,5732,5733,5734,7053,7054,7055,7056,7057,7058,7879,7880,7881,7882,
5761,5762,5763,5764,5765,5766,7085,7086,7087,7088,7089,7090,7911,7912,7913,7914,
5409,5410,5411,5412,5413,5414,6733,6734,6735,6736,6737,6738,6925,6926,6927,6928,
5441,5442,5443,5444,5445,5446,6765,6766,6767,6768,6769,6770,6957,6958,6959,6960,
5473,5474,5475,5476,5477,5478,6797,6798,6799,6800,6801,6802,6989,6990,6991,6992,
5505,5506,5507,5508,5509,5510,6829,6830,6831,6832,6833,6834,7021,7022,7023,7024,
5537,5538,5539,5540,5541,5542,6861,6862,6863,6864,6865,6866,7053,7054,7055,7056,
5569,5570,5571,5572,5573,5574,6893,6894,6895,6896,6897,6898,7085,7086,7087,7088,
0,0,0,0,0,0,0,0,0,0,0,0,0,0,0,0,
0,0,0,0,0,0,0,0,0,0,0,0,0,0,0,0,
0,0,0,0,0,0,0,0,0,0,0,0,0,0,0,0,
0,0,0,0,0,0,0,0,0,0,0,0,0,0,0,0,
0,0,0,0,0,0,0,0,0,0,0,0,0,0,0,0,
0,0,0,0,0,0,0,0,0,0,0,0,0,0,0,0
</chunk>
   <chunk x="112" y="32" width="16" height="16">
7899,7900,2144,2145,2144,2145,2144,2145,2144,2145,2144,2145,2144,2145,2144,2145,
7931,7932,2176,2177,2176,2177,2176,2177,2176,2177,2176,2177,2176,2177,2176,2177,
7963,7964,2144,2145,2144,2145,2144,2145,2144,2145,2144,2145,2144,2145,2144,2145,
7995,7996,2176,2177,2176,2177,2176,2177,2176,2177,2176,2177,2176,2177,2176,2177,
6929,6930,7503,7504,7505,7506,7503,7504,1073749953,1073749954,8157,8158,8159,8160,7503,7504,
6961,6962,7535,7536,7537,7538,7535,7536,1073749921,1073749922,8189,8190,8191,8192,7535,7536,
6993,6994,8007,8008,8009,8010,8011,8012,7815,7816,7817,7818,7819,7820,8007,8008,
7025,7026,8039,8040,8041,8042,8043,8044,7847,7848,7849,7850,7851,7852,8039,8040,
7057,7058,8071,8072,8073,8074,8075,8076,7879,7880,7881,7882,7883,7884,8071,8072,
7089,7090,8103,8104,8105,8106,8107,8108,7911,7912,7913,7914,7915,7916,8103,8104,
0,0,0,0,0,0,0,0,0,0,0,0,0,0,0,0,
0,0,0,0,0,0,0,0,0,0,0,0,0,0,0,0,
0,0,0,0,0,0,0,0,0,0,0,0,0,0,0,0,
0,0,0,0,0,0,0,0,0,0,0,0,0,0,0,0,
0,0,0,0,0,0,0,0,0,0,0,0,0,0,0,0,
0,0,0,0,0,0,0,0,0,0,0,0,0,0,0,0
</chunk>
   <chunk x="128" y="32" width="16" height="16">
2144,2145,2144,2145,2147491548,2147491547,8009,8010,8011,8012,5473,5474,5475,5476,5477,5478,
2176,2177,2176,2177,2147491580,2147491579,8041,8042,8043,8044,5505,5506,5507,5508,5509,5510,
2144,2145,2144,2145,2147491612,2147491611,8073,8074,8075,8076,5537,5538,5539,5540,5541,5542,
2176,2177,2176,2177,2147491644,2147491643,8105,8106,8107,8108,5569,5570,5571,5572,5573,5574,
7505,7506,7503,7504,5409,5410,5411,5412,5413,5414,5601,5602,5603,5604,5605,5606,
7537,7538,7535,7536,5441,5442,5443,5444,5445,5446,5633,5634,5635,5636,5637,5638,
8009,8010,8011,8012,5473,5474,5475,5476,5477,5478,5665,5666,5667,5668,5669,5670,
8041,8042,8043,8044,5505,5506,5507,5508,5509,5510,5697,5698,5699,5700,5701,5702,
8073,8074,8075,8076,5537,5538,5539,5540,5541,5542,5729,5730,5731,5732,5733,5734,
8105,8106,8107,8108,5569,5570,5571,5572,5573,5574,5761,5762,5763,5764,5765,5766,
0,0,0,0,0,0,0,0,0,0,0,0,0,0,0,0,
0,0,0,0,0,0,0,0,0,0,0,0,0,0,0,0,
0,0,0,0,0,0,0,0,0,0,0,0,0,0,0,0,
0,0,0,0,0,0,0,0,0,0,0,0,0,0,0,0,
0,0,0,0,0,0,0,0,0,0,0,0,0,0,0,0,
0,0,0,0,0,0,0,0,0,0,0,0,0,0,0,0
</chunk>
   <chunk x="144" y="32" width="16" height="16">
5665,5666,5667,5668,5669,5670,6803,6804,6805,6806,6807,6808,6995,6996,6997,6998,
5697,5698,5699,5700,5701,5702,6835,6836,6837,6838,6839,6840,7027,7028,7029,7030,
5729,5730,5731,5732,5733,5734,6867,6868,6869,6870,6871,6872,7059,7060,7061,7062,
5761,5762,5763,5764,5765,5766,6899,6900,6901,6902,6903,6904,7091,7092,7093,7094,
5409,5410,5411,5412,5413,5414,6931,6932,6933,6934,6935,6936,6739,6740,6741,6742,
5441,5442,5443,5444,5445,5446,6963,6964,6965,6966,6967,6968,6771,6772,6773,6774,
5473,5474,5475,5476,5477,5478,6995,6996,6997,6998,6999,7000,6803,6804,6805,6806,
5505,5506,5507,5508,5509,5510,7027,7028,7029,7030,7031,7032,6835,6836,6837,6838,
5537,5538,5539,5540,5541,5542,7059,7060,7061,7062,7063,7064,6867,6868,6869,6870,
5569,5570,5571,5572,5573,5574,7091,7092,7093,7094,7095,7096,6899,6900,6901,6902,
0,0,0,0,0,0,0,0,0,0,0,0,0,0,0,0,
0,0,0,0,0,0,0,0,0,0,0,0,0,0,0,0,
0,0,0,0,0,0,0,0,0,0,0,0,0,0,0,0,
0,0,0,0,0,0,0,0,0,0,0,0,0,0,0,0,
0,0,0,0,0,0,0,0,0,0,0,0,0,0,0,0,
0,0,0,0,0,0,0,0,0,0,0,0,0,0,0,0
</chunk>
   <chunk x="160" y="32" width="16" height="16">
6999,7000,5473,5474,5475,5476,5477,5478,5665,5666,5667,5668,5669,6994,5473,5474,
7031,7032,5505,5506,5507,5508,5509,5510,5697,5698,5699,5700,5701,7026,5505,5506,
7063,7064,5537,5538,5539,5540,5541,5542,5729,5730,5731,5732,5733,7058,5537,5538,
7095,7096,5569,5570,5571,5572,5573,5574,5761,5762,5763,5764,5765,7090,5569,5570,
6743,6744,5601,5602,5603,5604,5605,5606,6733,6734,6735,6736,6737,6738,5601,5602,
6775,6776,5633,5634,5635,5636,5637,5638,6765,6766,6767,6768,6769,6770,5633,5634,
6807,6808,5665,5666,5667,5668,5669,5670,6797,6798,6799,6800,6801,6802,5665,5666,
6839,6840,5697,5698,5699,5700,5701,5702,6829,6830,6831,6832,6833,6834,5697,5698,
6871,6872,5729,5730,5731,5732,5733,5734,6861,6862,6863,6864,6865,6866,5729,5730,
6903,6904,5761,5762,5763,5764,5765,5766,6893,6894,6895,6896,6897,6898,5761,5762,
0,0,0,0,0,0,0,0,0,0,0,0,0,0,0,0,
0,0,0,0,0,0,0,0,0,0,0,0,0,0,0,0,
0,0,0,0,0,0,0,0,0,0,0,0,0,0,0,0,
0,0,0,0,0,0,0,0,0,0,0,0,0,0,0,0,
0,0,0,0,0,0,0,0,0,0,0,0,0,0,0,0,
0,0,0,0,0,0,0,0,0,0,0,0,0,0,0,0
</chunk>
   <chunk x="176" y="32" width="16" height="16">
5475,5476,5477,5478,6989,6990,6991,6992,6993,6994,0,0,0,0,0,0,
5507,5508,5509,5510,7021,7022,7023,7024,7025,7026,0,0,0,0,0,0,
5539,5540,5541,5542,7053,7054,7055,7056,7057,7058,0,0,0,0,0,0,
5571,5572,5573,5574,7085,7086,7087,7088,7089,7090,0,0,0,0,0,0,
5603,5604,5605,5606,6733,6734,6735,6736,6737,6738,0,0,0,0,0,0,
5635,5636,5637,5638,6765,6766,6767,6768,6769,6770,0,0,0,0,0,0,
5667,5668,5669,5670,6797,6798,6799,6800,6801,6802,0,0,0,0,0,0,
5699,5700,5701,5702,6829,6830,6831,6832,6833,6834,0,0,0,0,0,0,
5731,5732,5733,5734,6861,6862,6863,6864,6865,6866,0,0,0,0,0,0,
5763,5764,5765,5766,6893,6894,6895,6896,6897,6898,0,0,0,0,0,0,
0,0,0,0,0,0,0,0,0,0,0,0,0,0,0,0,
0,0,0,0,0,0,0,0,0,0,0,0,0,0,0,0,
0,0,0,0,0,0,0,0,0,0,0,0,0,0,0,0,
0,0,0,0,0,0,0,0,0,0,0,0,0,0,0,0,
0,0,0,0,0,0,0,0,0,0,0,0,0,0,0,0,
0,0,0,0,0,0,0,0,0,0,0,0,0,0,0,0
</chunk>
  </data>
 </layer>
</map>
