<?xml version="1.0" encoding="UTF-8"?>
<map version="1.10" tiledversion="1.10.1" orientation="orthogonal" renderorder="right-down" width="100" height="100" tilewidth="4" tileheight="4" infinite="1" nextlayerid="7" nextobjectid="3">
 <tileset firstgid="1" source="C2-Overworld-Ref.tsx"/>
 <tileset firstgid="4" source="../../_Tilesets/Original/1.tsx"/>
 <tileset firstgid="1028" source="../../_Tilesets/Original/16.tsx"/>
 <tileset firstgid="2052" source="../../_Tilesets/Original/0.tsx"/>
 <tileset firstgid="3076" source="../../_Tilesets/Original/9.tsx"/>
 <tileset firstgid="4100" source="../../_Tilesets/Original/30.tsx"/>
 <tileset firstgid="5124" source="../../_Tilesets/Original/4.tsx"/>
 <tileset firstgid="6148" source="../../_Tilesets/Original/14.tsx"/>
 <tileset firstgid="7172" source="../../_Tilesets/Original/10.tsx"/>
 <tileset firstgid="8196" source="../../_Tilesets/Original/11.tsx"/>
 <tileset firstgid="9220" source="../Overworld/C2-Overworld-Ref.tsx"/>
 <tileset firstgid="9225" source="../../_Tilesets/Original/13.tsx"/>
 <layer id="5" name="Ref" width="100" height="100" opacity="0.4" offsetx="-0.00475543" offsety="-4.0017">
  <data encoding="csv">
   <chunk x="-368" y="544" width="16" height="16">
0,0,0,0,0,0,0,0,0,0,0,0,0,0,0,0,
0,0,0,0,0,0,0,0,0,0,0,0,0,0,0,0,
0,0,0,0,0,0,0,0,0,0,0,0,0,0,0,0,
0,0,0,0,0,0,0,0,0,0,0,0,0,0,0,0,
0,0,0,0,0,0,0,0,0,0,0,0,0,0,0,0,
0,0,0,0,0,0,0,0,0,0,0,0,0,0,0,0,
0,0,0,0,0,0,0,0,0,0,0,0,0,0,0,0,
0,0,0,0,0,0,0,0,0,0,0,0,0,0,0,0,
0,0,0,0,0,0,0,0,0,0,0,0,0,0,0,0,
0,0,0,0,0,0,0,0,0,0,0,0,0,0,0,0,
0,0,0,0,0,0,0,0,0,0,0,0,0,0,0,0,
0,0,0,0,0,0,0,0,0,0,0,0,0,0,0,0,
0,0,0,0,0,0,0,0,0,0,0,0,0,0,0,0,
0,0,0,0,0,0,0,0,9224,0,0,0,0,0,0,0,
0,0,0,0,0,0,0,0,0,0,0,0,0,0,0,0,
0,0,0,0,0,0,0,0,0,0,0,0,0,0,0,0
</chunk>
  </data>
 </layer>
 <layer id="6" name="Base" width="100" height="100">
  <data encoding="csv">
   <chunk x="-96" y="304" width="16" height="16">
0,0,0,0,0,0,0,0,0,0,0,0,0,0,0,0,
0,0,0,0,0,0,0,0,0,0,0,0,0,0,0,0,
0,0,0,0,0,0,0,0,0,0,0,0,0,0,0,0,
0,0,0,0,0,0,0,0,0,0,0,0,0,0,0,0,
0,0,0,0,0,0,0,0,0,0,0,0,0,0,0,0,
0,0,0,0,0,0,0,0,0,0,0,0,0,0,0,0,
0,0,0,0,0,0,0,0,0,0,0,0,0,0,0,0,
0,0,0,0,0,0,0,0,9763,9764,9765,9766,9497,9498,0,0,
0,0,0,0,0,0,0,0,9795,9796,9797,9798,9529,9530,0,0,
0,0,0,0,0,0,9445,9446,9827,9828,9829,9830,9561,9562,0,0,
0,0,0,0,0,0,9477,9478,9859,9860,9861,9862,9593,9594,0,0,
0,0,0,0,0,0,0,0,0,0,0,0,0,0,0,0,
0,0,0,0,0,0,0,0,0,0,0,0,0,0,0,0,
0,0,0,0,0,0,0,0,0,0,0,0,0,0,0,0,
0,0,0,0,0,0,0,0,0,0,0,0,0,0,0,0,
0,0,0,0,0,0,0,0,0,0,0,0,0,0,0,0
</chunk>
   <chunk x="-48" y="304" width="16" height="16">
0,0,0,0,0,0,0,0,0,0,0,0,0,0,0,0,
0,0,0,0,0,0,0,0,0,0,0,0,0,0,0,0,
0,0,0,0,0,0,0,0,0,0,0,0,0,0,0,0,
0,0,0,0,0,0,0,0,0,0,0,0,0,0,0,0,
0,0,0,0,0,0,0,0,0,0,0,0,0,0,0,0,
0,0,0,0,0,0,0,0,0,0,0,0,0,0,0,0,
0,0,0,0,0,0,0,0,0,0,0,0,0,0,0,0,
0,0,0,0,0,0,0,0,0,0,0,0,10005,10006,10007,10008,
0,0,0,0,0,0,0,0,0,0,0,0,10037,10038,10039,10040,
0,0,0,0,0,0,0,0,0,0,0,0,10069,10070,10071,10072,
0,0,0,0,0,0,0,0,0,0,0,0,10101,10102,10103,10104,
0,0,0,0,0,0,0,0,0,0,0,0,10133,10134,10135,10136,
0,0,0,0,0,0,0,0,0,0,0,0,10165,10166,10167,10168,
0,0,0,0,0,0,0,0,0,0,0,0,9813,9814,9815,9816,
0,0,0,0,0,0,0,0,0,0,0,0,9845,9846,9847,9848,
0,0,0,0,0,0,0,0,0,0,0,0,9877,9878,9879,9880
</chunk>
   <chunk x="-32" y="304" width="16" height="16">
0,0,0,0,0,0,0,0,0,0,0,0,0,0,0,0,
0,0,0,0,0,0,0,0,0,0,0,0,0,0,0,0,
0,0,0,0,0,0,0,0,0,0,0,0,0,0,0,0,
0,0,0,0,0,0,0,0,0,0,0,0,0,0,0,0,
0,0,0,0,0,0,0,0,0,0,0,0,0,0,0,0,
0,0,0,0,0,0,0,0,0,0,0,0,0,0,0,0,
0,0,0,0,0,0,0,0,0,0,0,0,0,0,0,0,
10009,10010,9801,9802,9803,9804,9805,9806,9999,10000,10001,10002,10003,10004,9807,9808,
10041,10042,9833,9834,9835,9836,9837,9838,10031,10032,10033,10034,10035,10036,9839,9840,
10073,10074,9865,9866,9867,9868,9869,9870,10063,10064,10065,10066,10067,10068,9871,9872,
10105,10106,9897,9898,9899,9900,9901,9902,10095,10096,10097,10098,10099,10100,9903,9904,
10137,10138,9929,9930,9931,9932,9933,9934,10127,10128,10129,10130,10131,10132,9935,9936,
10169,10170,9961,9962,9963,9964,9965,9966,10159,10160,10161,10162,10163,10164,9967,9968,
9817,9818,9993,9994,9995,9996,9997,9998,9807,9808,9809,9810,9811,9812,9999,10000,
9849,9850,10025,10026,10027,10028,10029,10030,9839,9840,9841,9842,9843,9844,10031,10032,
9881,9882,10057,10058,10059,10060,10061,10062,9871,9872,9873,9874,9875,9876,10063,10064
</chunk>
   <chunk x="-16" y="304" width="16" height="16">
0,0,0,0,0,0,0,0,0,0,0,0,0,0,0,0,
0,0,0,0,0,0,0,0,0,0,0,0,0,0,0,0,
0,0,0,0,0,0,0,0,0,0,0,0,0,0,0,0,
0,0,0,0,0,0,0,0,0,0,0,0,0,0,0,0,
0,0,0,0,0,0,0,0,0,0,0,0,0,0,0,0,
0,0,0,0,0,0,0,0,0,0,0,0,0,0,0,0,
0,0,0,0,0,0,0,0,0,0,0,0,0,0,0,0,
9809,9810,9811,9812,9999,10000,10001,10002,10003,10004,9807,9808,9809,9810,9811,9812,
9841,9842,9843,9844,10031,10032,10033,10034,10035,10036,9839,9840,9841,9842,9843,9844,
9873,9874,9875,9876,10063,10064,10065,10066,10067,10068,9871,9872,9873,9874,9875,9876,
9905,9906,9907,9908,10095,10096,10097,10098,10099,10100,9903,9904,9905,9906,9907,9908,
9937,9938,9939,9940,10127,10128,10129,10130,10131,10132,9935,9936,9937,9938,9939,9940,
9969,9970,9971,9972,10159,10160,10161,10162,10163,10164,9967,9968,9969,9970,9971,9972,
10001,10002,10003,10004,9807,9808,9809,9810,9811,9812,9999,10000,10001,10002,10003,10004,
10033,10034,10035,10036,9839,9840,9841,9842,9843,9844,10031,10032,10033,10034,10035,10036,
10065,10066,10067,10068,9871,9872,9873,9874,9875,9876,10063,10064,10065,10066,10067,10068
</chunk>
   <chunk x="0" y="304" width="16" height="16">
0,0,0,0,0,0,0,0,0,0,0,0,0,0,0,0,
0,0,0,0,0,0,0,0,0,0,0,0,0,0,0,0,
0,0,0,0,0,0,0,0,0,0,0,0,0,0,0,0,
0,0,0,0,0,0,0,0,0,0,0,0,0,0,0,0,
0,0,0,0,0,0,0,0,0,0,0,0,0,0,0,0,
0,0,0,0,0,0,0,0,0,0,0,0,0,0,0,0,
0,0,0,0,0,0,0,0,0,0,0,0,0,0,0,0,
9999,10000,10001,10002,10003,10004,9807,9808,9809,9810,9811,9812,9999,10000,10001,10002,
10031,10032,10033,10034,10035,10036,9839,9840,9841,9842,9843,9844,10031,10032,10033,10034,
10063,10064,10065,10066,10067,10068,9871,9872,9873,9874,9875,9876,10063,10064,10065,10066,
10095,10096,10097,10098,10099,10100,9903,9904,9905,9906,9907,9908,10095,10096,10097,10098,
10127,10128,10129,10130,10131,10132,9935,9936,9937,9938,9939,9940,10127,10128,10129,10130,
10159,10160,10161,10162,10163,10164,9967,9968,9969,9970,9971,9972,10159,10160,10161,10162,
9807,9808,9809,9810,9811,9812,9999,10000,10001,10002,10003,10004,9807,9808,9809,9810,
9839,9840,9841,9842,9843,9844,10031,10032,10033,10034,10035,10036,9839,9840,9841,9842,
9871,9872,9873,9874,9875,9876,10063,10064,10065,10066,10067,10068,9871,9872,9873,9874
</chunk>
   <chunk x="16" y="304" width="16" height="16">
0,0,0,0,0,0,0,0,0,0,0,0,0,0,0,0,
0,0,0,0,0,0,0,0,0,0,0,0,0,0,0,0,
0,0,0,0,0,0,0,0,0,0,0,0,0,0,0,0,
0,0,0,0,0,0,0,0,0,0,0,0,0,0,0,0,
0,0,0,0,0,0,0,0,0,0,0,0,0,0,0,0,
0,0,0,0,0,0,0,0,0,0,0,0,0,0,0,0,
0,0,0,0,0,0,0,0,0,0,0,0,0,0,0,0,
10003,10004,9999,10000,10001,10002,10003,10004,9999,10000,10001,10002,10003,10004,9999,10000,
10035,10036,10031,10032,10033,10034,10035,10036,10031,10032,10033,10034,10035,10036,10031,10032,
10067,10068,10063,10064,10065,10066,10067,10068,10063,10064,10065,10066,10067,10068,10063,10064,
10099,10100,10095,10096,10097,10098,10099,10100,10095,10096,10097,10098,10099,10100,10095,10096,
10131,10132,10127,10128,10129,10130,10131,10132,10127,10128,10129,10130,10131,10132,10127,10128,
10163,10164,10159,10160,10161,10162,10163,10164,10159,10160,10161,10162,10163,10164,10159,10160,
9811,9812,9807,9808,9809,9810,9811,9812,9807,9808,9809,9810,9811,9812,9807,9808,
9843,9844,9839,9840,9841,9842,9843,9844,9839,9840,9841,9842,9843,9844,9839,9840,
9875,9876,9871,9872,9873,9874,9875,9876,9871,9872,9873,9874,9875,9876,9871,9872
</chunk>
   <chunk x="32" y="304" width="16" height="16">
0,0,0,0,0,0,0,0,0,0,0,0,0,0,0,0,
0,0,0,0,0,0,0,0,0,0,0,0,0,0,0,0,
0,0,0,0,0,0,0,0,0,0,0,0,0,0,0,0,
0,0,0,0,0,0,0,0,0,0,0,0,0,0,0,0,
0,0,0,0,0,0,0,0,0,0,0,0,0,0,0,0,
0,0,0,0,0,0,0,0,0,0,0,0,0,0,0,0,
0,0,0,0,0,0,0,0,0,0,0,0,0,0,0,0,
10001,10002,10003,10004,9807,9808,9809,9810,9811,9812,9807,9808,9809,9810,9811,9812,
10033,10034,10035,10036,9839,9840,9841,9842,9843,9844,9839,9840,9841,9842,9843,9844,
10065,10066,10067,10068,9871,9872,9873,9874,9875,9876,9871,9872,9873,9874,9875,9876,
10097,10098,10099,10100,9903,9904,9905,9906,9907,9908,9903,9904,9905,9906,9907,9908,
10129,10130,10131,10132,9935,9936,9937,9938,9939,9940,9935,9936,9937,9938,9939,9940,
10161,10162,10163,10164,9967,9968,9969,9970,9971,9972,9967,9968,9969,9970,9971,9972,
9809,9810,9811,9812,9999,10000,10001,10002,10003,10004,9999,10000,10001,10002,10003,10004,
9841,9842,9843,9844,10031,10032,10033,10034,10035,10036,10031,10032,10033,10034,10035,10036,
9873,9874,9875,9876,10063,10064,10065,10066,10067,10068,10063,10064,10065,10066,10067,10068
</chunk>
   <chunk x="48" y="304" width="16" height="16">
0,0,0,0,0,0,0,0,0,0,0,0,0,0,0,0,
0,0,0,0,0,0,0,0,0,0,0,0,0,0,0,0,
0,0,0,0,0,0,0,0,0,0,0,0,0,0,0,0,
0,0,0,0,0,0,0,0,0,0,0,0,0,0,0,0,
0,0,0,0,0,0,0,0,0,0,0,0,0,0,0,0,
0,0,0,0,0,0,0,0,0,0,0,0,0,0,0,0,
0,0,0,0,0,0,0,0,0,0,0,0,0,0,0,0,
9999,10000,10001,10002,10003,10004,9807,9808,9809,9810,9811,9812,9999,10000,10001,10002,
10031,10032,10033,10034,10035,10036,9839,9840,9841,9842,9843,9844,10031,10032,10033,10034,
10063,10064,10065,10066,10067,10068,9871,9872,9873,9874,9875,9876,10063,10064,10065,10066,
10095,10096,10097,10098,10099,10100,9903,9904,9905,9906,9907,9908,10095,10096,10097,10098,
10127,10128,10129,10130,10131,10132,9935,9936,9937,9938,9939,9940,10127,10128,10129,10130,
10159,10160,10161,10162,10163,10164,9967,9968,9969,9970,9971,9972,10159,10160,10161,10162,
9807,9808,9809,9810,9811,9812,9999,10000,10001,10002,10003,10004,9807,9808,9809,9810,
9839,9840,9841,9842,9843,9844,10031,10032,10033,10034,10035,10036,9839,9840,9841,9842,
9871,9872,9873,9874,9875,9876,10063,10064,10065,10066,10067,10068,9871,9872,9873,9874
</chunk>
   <chunk x="64" y="304" width="16" height="16">
0,0,0,0,0,0,0,0,0,0,0,0,0,0,0,0,
0,0,0,0,0,0,0,0,0,0,0,0,0,0,0,0,
0,0,0,0,0,0,0,0,0,0,0,0,0,0,0,0,
0,0,0,0,0,0,0,0,0,0,0,0,0,0,0,0,
0,0,0,0,0,0,0,0,0,0,0,0,0,0,0,0,
0,0,0,0,0,0,0,0,0,0,0,0,0,0,0,0,
0,0,0,0,0,0,0,0,0,0,0,0,0,0,0,0,
10003,10004,9807,9808,9809,9810,9811,9812,9999,10000,10001,10002,10003,10004,9801,9802,
10035,10036,9839,9840,9841,9842,9843,9844,10031,10032,10033,10034,10035,10036,9833,9834,
10067,10068,9871,9872,9873,9874,9875,9876,10063,10064,10065,10066,10067,10068,9865,9866,
10099,10100,9903,9904,9905,9906,9907,9908,10095,10096,10097,10098,10099,10100,9897,9898,
10131,10132,9935,9936,9937,9938,9939,9940,10127,10128,10129,10130,10131,10132,9929,9930,
10163,10164,9967,9968,9969,9970,9971,9972,10159,10160,10161,10162,10163,10164,9961,9962,
9811,9812,9999,10000,10001,10002,10003,10004,9807,9808,9809,9810,9811,9812,9993,9994,
9843,9844,10031,10032,10033,10034,10035,10036,9839,9840,9841,9842,9843,9844,10025,10026,
9875,9876,10063,10064,10065,10066,10067,10068,9871,9872,9873,9874,9875,9876,10057,10058
</chunk>
   <chunk x="80" y="304" width="16" height="16">
0,0,0,0,0,0,0,0,0,0,0,0,0,0,0,0,
0,0,0,0,0,0,0,0,0,0,0,0,0,0,0,0,
0,0,0,0,0,0,0,0,0,0,0,0,0,0,0,0,
0,0,0,0,0,0,0,0,0,0,0,0,0,0,0,0,
0,0,0,0,0,0,0,0,0,0,0,0,0,0,0,0,
0,0,0,0,0,0,0,0,0,0,0,0,0,0,0,0,
0,0,0,0,0,0,0,0,0,0,0,0,0,0,0,0,
9803,9804,9805,9806,9993,9994,9995,9996,9997,9998,9813,9814,9815,9816,9817,9818,
9835,9836,9837,9838,10025,10026,10027,10028,10029,10030,9845,9846,9847,9848,9849,9850,
9867,9868,9869,9870,10057,10058,10059,10060,10061,10062,9877,9878,9879,9880,9881,9882,
9899,9900,9901,9902,10089,10090,10091,10092,10093,10094,9909,9910,9911,9912,9913,9914,
9931,9932,9933,9934,10121,10122,10123,10124,10125,10126,9941,9942,9943,9944,9945,9946,
9963,9964,9965,9966,10153,10154,10155,10156,10157,10158,9973,9974,9975,9976,9977,9978,
9995,9996,9997,9998,9801,9802,9803,9804,9805,9806,10005,10006,10007,10008,10009,10010,
10027,10028,10029,10030,9833,9834,9835,9836,9837,9838,10037,10038,10039,10040,10041,10042,
10059,10060,10061,10062,9865,9866,9867,9868,9869,9870,10069,10070,10071,10072,10073,10074
</chunk>
   <chunk x="96" y="304" width="16" height="16">
0,0,0,0,0,0,0,0,0,0,0,0,0,0,0,0,
0,0,0,0,0,0,0,0,0,0,0,0,0,0,0,0,
0,0,0,0,0,0,0,0,0,0,0,0,0,0,0,0,
0,0,0,0,0,0,0,0,0,0,0,0,0,0,0,0,
0,0,0,0,0,0,0,0,0,0,0,0,0,0,0,0,
0,0,0,0,0,0,0,0,0,0,0,0,0,0,0,0,
0,0,0,0,0,0,0,0,0,0,0,0,0,0,0,0,
10005,10006,10007,10008,10009,10010,9801,9802,9803,9804,9805,9806,0,0,0,0,
10037,10038,10039,10040,10041,10042,9833,9834,9835,9836,9837,9838,0,0,0,0,
10069,10070,10071,10072,10073,10074,9865,9866,9867,9868,9869,9870,0,0,0,0,
10101,10102,10103,10104,10105,10106,9897,9898,9899,9900,9901,9902,0,0,0,0,
10133,10134,10135,10136,10137,10138,9929,9930,9931,9932,9933,9934,0,0,0,0,
10165,10166,10167,10168,10169,10170,9961,9962,9963,9964,9965,9966,0,0,0,0,
9813,9814,9815,9816,9817,9818,9993,9994,9995,9996,9997,9998,0,0,0,0,
9845,9846,9847,9848,9849,9850,10025,10026,10027,10028,10029,10030,0,0,0,0,
9877,9878,9879,9880,9881,9882,10057,10058,10059,10060,10061,10062,0,0,0,0
</chunk>
   <chunk x="112" y="304" width="16" height="16">
0,0,0,0,0,0,0,0,0,0,0,0,0,0,0,0,
0,0,0,0,0,0,0,0,0,0,0,0,0,0,0,0,
0,0,0,0,0,0,0,0,0,0,0,0,0,0,0,0,
0,0,0,0,0,0,0,0,0,0,0,0,0,0,0,0,
0,0,0,0,0,0,0,0,0,0,0,0,0,0,0,0,
0,0,0,0,0,0,0,0,0,0,0,0,0,0,0,0,
0,0,0,0,0,0,0,0,0,0,0,0,0,0,0,0,
0,0,9993,9994,9995,9996,9997,9998,9813,9814,9815,9816,9817,9818,10005,10006,
0,0,10025,10026,10027,10028,10029,10030,9845,9846,9847,9848,9849,9850,10037,10038,
0,0,10057,10058,10059,10060,10061,10062,9877,9878,9879,9880,9881,9882,10069,10070,
0,0,10089,10090,10091,10092,10093,10094,9909,9910,9911,9912,9913,9914,10101,10102,
0,0,10121,10122,10123,10124,10125,10126,9941,9942,9943,9944,9945,9946,10133,10134,
0,0,10153,10154,10155,10156,10157,10158,9973,9974,9975,9976,9977,9978,10165,10166,
0,0,9801,9802,9803,9804,9805,9806,10005,10006,10007,10008,10009,10010,9813,9814,
0,0,9833,9834,9835,9836,9837,9838,10037,10038,10039,10040,10041,10042,9845,9846,
0,0,9865,9866,9867,9868,9869,9870,10069,10070,10071,10072,10073,10074,9877,9878
</chunk>
   <chunk x="128" y="304" width="16" height="16">
0,0,0,0,0,0,0,0,0,0,0,0,0,0,0,0,
0,0,0,0,0,0,0,0,0,0,0,0,0,0,0,0,
0,0,0,0,0,0,0,0,0,0,0,0,0,0,0,0,
0,0,0,0,0,0,0,0,0,0,0,0,0,0,0,0,
0,0,0,0,0,0,0,0,0,0,0,0,0,0,0,0,
0,0,0,0,0,0,0,0,0,0,0,0,0,0,0,0,
0,0,0,0,0,0,0,0,0,0,0,0,0,0,0,0,
10007,10008,10009,10010,9813,9814,9815,9816,9817,9818,10005,10006,10007,10008,10009,10010,
10039,10040,10041,10042,9845,9846,9847,9848,9849,9850,10037,10038,10039,10040,10041,10042,
10071,10072,10073,10074,9877,9878,9879,9880,9881,9882,10069,10070,10071,10072,10073,10074,
10103,10104,10105,10106,9909,9910,9911,9912,9913,9914,10101,10102,10103,10104,10105,10106,
10135,10136,10137,10138,9941,9942,9943,9944,9945,9946,10133,10134,10135,10136,10137,10138,
10167,10168,10169,10170,9973,9974,9975,9976,9977,9978,10165,10166,10167,10168,10169,10170,
9815,9816,9817,9818,10005,10006,10007,10008,10009,10010,9813,9814,9815,9816,9817,9818,
9847,9848,9849,9850,10037,10038,10039,10040,10041,10042,9845,9846,9847,9848,9849,9850,
9879,9880,9881,9882,10069,10070,10071,10072,10073,10074,9877,9878,9879,9880,9881,9882
</chunk>
   <chunk x="144" y="304" width="16" height="16">
0,0,0,0,0,0,0,0,0,0,0,0,0,0,0,0,
0,0,0,0,0,0,0,0,0,0,0,0,0,0,0,0,
0,0,0,0,0,0,0,0,0,0,0,0,0,0,0,0,
0,0,0,0,0,0,0,0,0,0,0,0,0,0,0,0,
0,0,0,0,0,0,0,0,0,0,0,0,0,0,0,0,
0,0,0,0,0,0,0,0,0,0,0,0,0,0,0,0,
0,0,0,0,0,0,0,0,0,0,0,0,0,0,0,0,
9813,9814,9815,9816,9817,9818,0,0,0,0,0,0,0,0,0,0,
9845,9846,9847,9848,9849,9850,0,0,0,0,0,0,0,0,0,0,
9877,9878,9879,9880,9881,9882,0,0,0,0,0,0,0,0,0,0,
9909,9910,9911,9912,9913,9914,0,0,0,0,0,0,0,0,0,0,
9941,9942,9943,9944,9945,9946,0,0,0,0,0,0,0,0,0,0,
9973,9974,9975,9976,9977,9978,0,0,0,0,0,0,0,0,0,0,
10005,10006,10007,10008,10009,10010,0,0,0,0,0,0,0,0,0,0,
10037,10038,10039,10040,10041,10042,0,0,0,0,0,0,0,0,0,0,
10069,10070,10071,10072,10073,10074,0,0,0,0,0,0,0,0,0,0
</chunk>
   <chunk x="-320" y="320" width="16" height="16">
0,0,0,0,0,0,0,0,0,0,0,0,0,0,0,0,
0,0,0,0,0,0,0,0,0,0,0,0,0,0,0,0,
0,0,0,0,0,0,0,0,0,0,0,0,0,0,0,0,
0,0,0,0,0,0,0,0,0,0,0,0,0,0,0,0,
0,0,0,0,0,0,0,0,0,0,0,0,0,0,0,0,
0,0,0,0,0,0,0,0,0,0,0,0,0,0,0,0,
0,0,0,0,0,0,0,0,0,0,0,0,0,0,0,0,
0,0,0,0,0,0,0,0,0,0,0,0,0,0,0,0,
0,0,0,0,0,0,0,0,0,0,0,0,0,0,0,0,
0,0,2564,2565,2566,2567,2566,2567,2566,2567,2566,2567,2566,2567,2566,2567,
0,0,2596,2597,2598,2599,2598,2599,2598,2599,2598,2599,2598,2599,2598,2599,
0,0,2628,2629,2062,2063,2147486149,2147486148,1073744422,1073744423,1073744422,1073744423,1073744422,1073744423,1073744422,1073744423,
0,0,2660,2661,2094,2095,2147486181,2147486180,1073744390,1073744391,1073744390,1073744391,1073744390,1073744391,1073744390,1073744391,
0,0,2628,2629,2062,2063,2147486277,2147486276,2692,2693,2694,2695,2696,2697,2756,2757,
0,0,2660,2661,2094,2095,2147486309,2147486308,2724,2725,2726,2727,2728,2729,2788,2789,
0,0,2628,2629,2062,2063,2147486277,2147486276,2756,2757,2758,2759,2760,2761,2692,2693
</chunk>
   <chunk x="-304" y="320" width="16" height="16">
0,0,0,0,0,0,0,0,0,0,0,0,0,0,0,0,
0,0,0,0,0,0,0,0,0,0,0,0,0,0,0,0,
0,0,0,0,0,0,0,0,0,0,0,0,0,0,0,0,
0,0,0,0,0,0,0,0,0,0,0,0,0,0,0,0,
0,0,0,0,0,0,0,0,0,0,0,0,0,0,0,0,
0,0,0,0,0,0,0,0,0,0,0,0,0,0,0,0,
0,0,0,0,0,0,0,0,0,0,0,0,0,0,0,0,
0,0,0,0,0,0,0,0,0,0,0,0,0,0,0,0,
0,0,0,0,0,0,0,0,0,0,0,0,0,0,0,0,
2566,2567,2566,2567,2566,2567,2566,2567,2566,2567,2566,2567,2566,2567,2147486213,2147486212,
2598,2599,2598,2599,2598,2599,2598,2599,2598,2599,2598,2599,2598,2599,2147486245,2147486244,
1073744422,1073744423,1073744422,1073744423,1073744422,1073744423,1073744422,1073744423,1073744422,1073744423,2500,2501,2062,2063,2147486277,2147486276,
1073744390,1073744391,1073744390,1073744391,1073744390,1073744391,1073744390,1073744391,1073744390,1073744391,2532,2533,2094,2095,2147486309,2147486308,
2758,2759,2760,2761,2692,2693,2694,2695,2762,2763,2628,2629,2062,2063,2147486277,2147486276,
2790,2791,2792,2793,2724,2725,2726,2727,2794,2795,2660,2661,2094,2095,2147486309,2147486308,
2694,2695,2696,2697,2756,2757,2758,2759,2826,2827,2628,2629,2062,2063,2147486277,2147486276
</chunk>
   <chunk x="-288" y="320" width="16" height="16">
0,0,0,0,0,0,0,0,0,0,0,0,0,0,0,0,
0,0,0,0,0,0,0,0,0,0,0,0,0,0,0,0,
0,0,0,0,0,0,0,0,0,0,0,0,0,0,0,0,
0,0,0,0,0,0,0,0,0,0,0,0,0,0,0,0,
0,0,0,0,0,0,0,0,0,0,0,0,0,0,0,0,
0,0,0,0,0,0,0,0,0,0,0,0,0,0,0,0,
0,0,0,0,0,0,0,0,0,0,0,0,0,0,0,0,
0,0,0,0,0,0,0,0,0,0,0,0,0,0,0,0,
0,0,0,0,0,0,0,0,0,0,0,0,0,0,0,0,
0,0,0,0,0,0,0,0,0,0,0,0,0,0,0,0,
0,0,0,0,0,0,0,0,0,0,0,0,0,0,0,0,
0,0,0,0,0,0,0,0,0,0,0,0,0,0,0,0,
0,0,0,0,0,0,0,0,0,0,0,0,0,0,0,0,
0,0,0,0,0,0,0,0,0,0,0,0,0,0,0,0,
0,0,0,0,0,0,0,0,0,0,0,0,0,0,0,0,
0,0,0,0,0,0,9813,9814,9815,9816,9817,9818,10005,10006,10007,10008
</chunk>
   <chunk x="-272" y="320" width="16" height="16">
0,0,0,0,0,0,0,0,0,0,0,0,0,0,0,0,
0,0,0,0,0,0,0,0,0,0,0,0,0,0,0,0,
0,0,0,0,0,0,0,0,0,0,0,0,0,0,0,0,
0,0,0,0,0,0,0,0,0,0,0,0,0,0,0,0,
0,0,0,0,0,0,0,0,0,0,0,0,0,0,0,0,
0,0,0,0,0,0,0,0,0,0,0,0,0,0,0,0,
0,0,0,0,0,0,0,0,0,0,0,0,0,0,0,0,
0,0,0,0,0,0,0,0,0,0,0,0,0,0,0,0,
0,0,0,0,0,0,0,0,0,0,0,0,0,0,0,0,
0,0,0,0,0,0,0,0,0,0,0,0,0,0,0,0,
0,0,0,0,0,0,0,0,0,0,0,0,0,0,0,0,
0,0,0,0,0,0,0,0,0,0,0,0,0,0,0,0,
0,0,0,0,0,0,0,0,0,0,0,0,0,0,0,0,
0,0,0,0,0,0,0,0,0,0,0,0,0,0,0,0,
0,0,0,0,0,0,0,0,0,0,0,0,0,0,0,0,
10009,10010,0,0,0,0,0,0,0,0,0,0,0,0,0,0
</chunk>
   <chunk x="-112" y="320" width="16" height="16">
0,0,0,0,0,0,0,0,0,0,0,0,0,0,0,0,
0,0,0,0,0,0,0,0,0,0,0,0,0,0,0,0,
0,0,0,0,0,0,0,0,0,0,0,0,0,0,0,0,
0,0,0,0,0,0,0,0,0,0,0,0,0,0,0,0,
0,0,0,0,0,0,0,0,0,0,0,0,0,0,0,0,
0,0,0,0,0,0,0,0,0,0,0,0,0,0,0,0,
0,0,0,0,0,0,0,0,0,0,0,0,0,0,0,0,
0,0,0,0,0,0,0,0,0,0,0,0,0,0,0,0,
0,0,0,0,0,0,0,0,0,0,0,0,0,0,0,0,
0,0,0,0,0,0,0,0,0,0,0,0,0,0,0,0,
0,0,0,0,0,0,0,0,0,0,0,0,0,0,0,0,
0,0,0,0,0,0,0,0,0,0,0,0,0,0,0,0,
0,0,0,0,0,0,0,0,0,0,0,0,0,0,0,0,
0,0,0,0,0,0,0,0,0,0,0,0,0,0,0,0,
0,0,0,0,0,0,0,0,0,0,0,0,0,0,0,0,
0,0,0,0,0,0,0,0,0,0,0,0,9763,9764,9765,9766
</chunk>
   <chunk x="-96" y="320" width="16" height="16">
0,0,0,0,0,0,0,0,0,0,0,0,0,0,0,0,
0,0,0,0,0,0,0,0,0,0,0,0,0,0,0,0,
0,0,0,0,0,0,0,0,0,0,0,0,0,0,0,0,
0,0,0,0,0,0,0,0,0,0,0,0,0,0,0,0,
0,0,0,0,0,0,0,0,0,0,0,0,0,0,0,0,
0,0,0,0,0,0,0,0,0,0,0,0,0,0,0,0,
0,0,0,0,0,0,0,0,0,0,0,0,0,0,0,0,
0,0,0,0,0,0,0,0,0,0,0,0,0,0,0,0,
0,0,0,0,0,0,0,0,0,0,0,0,0,0,0,0,
0,0,0,0,0,0,0,0,0,0,0,0,0,0,0,0,
0,0,0,0,0,0,0,0,0,0,0,0,0,0,0,0,
0,0,0,0,0,0,0,0,0,0,0,0,0,0,0,0,
0,0,0,0,0,0,0,0,0,0,0,0,0,0,0,0,
0,0,0,0,0,0,0,0,0,0,0,0,0,0,0,0,
0,0,0,0,0,0,0,0,0,0,0,0,0,0,0,0,
9497,9498,0,0,0,0,0,0,0,0,0,0,0,0,0,0
</chunk>
   <chunk x="-64" y="320" width="16" height="16">
0,0,0,0,0,0,0,0,0,0,0,0,0,0,0,0,
0,0,0,0,0,0,0,0,0,0,0,0,0,0,0,0,
0,0,0,0,0,0,0,0,0,0,0,0,0,0,0,0,
0,0,0,0,0,0,9763,9764,9765,9766,9497,9498,0,0,0,0,
0,0,0,0,0,0,9795,9796,9797,9798,9529,9530,0,0,0,0,
0,0,0,0,9505,9506,9827,9828,9829,9830,9819,9820,9625,9626,0,0,
0,0,0,0,9537,9538,9859,9860,9861,9862,9851,9852,9657,9658,0,0,
0,0,0,0,0,0,0,0,0,0,0,0,0,0,0,0,
0,0,0,0,0,0,0,0,0,0,0,0,0,0,0,0,
0,0,0,0,0,0,0,0,0,0,0,0,0,0,0,0,
0,0,0,0,0,0,0,0,0,0,0,0,0,0,0,0,
0,0,0,0,0,0,0,0,0,0,0,0,0,0,0,0,
0,0,0,0,0,0,0,0,0,0,0,0,0,0,0,0,
0,0,0,0,0,0,0,0,0,0,0,0,0,0,0,0,
0,0,0,0,0,0,0,0,0,0,0,0,0,0,0,0,
9763,9764,9765,9766,9497,9498,0,0,0,0,0,0,0,0,0,0
</chunk>
   <chunk x="-48" y="320" width="16" height="16">
0,0,0,0,0,0,0,0,0,0,0,0,9909,9910,9911,9912,
0,0,0,0,0,0,0,0,0,0,0,0,9941,9942,9943,9944,
0,0,0,0,0,0,0,0,0,0,0,0,9973,9974,9975,9976,
0,0,0,0,0,0,0,0,0,0,0,0,10005,10006,10007,10008,
0,0,0,0,0,0,0,0,0,0,0,0,10037,10038,10039,10040,
0,0,0,0,0,0,0,0,0,0,0,0,10069,10070,10071,10072,
0,0,0,0,0,0,0,0,0,0,0,0,10101,10102,10103,10104,
0,0,0,0,0,0,0,0,0,0,0,0,10133,10134,10135,10136,
0,0,0,0,0,0,0,0,0,0,0,0,10165,10166,10167,10168,
0,0,0,0,0,0,0,0,0,0,0,0,9813,9814,9815,9816,
0,0,0,0,0,0,0,0,0,0,0,0,9845,9846,9847,9848,
0,0,0,0,0,0,0,0,0,0,0,0,9877,9878,9879,9880,
0,0,0,0,0,0,0,0,0,0,0,0,9909,9910,9911,9912,
0,0,0,0,0,0,0,0,0,0,0,0,9941,9942,9943,9944,
0,0,0,0,0,0,0,0,0,0,0,0,9973,9974,9975,9976,
0,0,0,0,0,0,0,0,0,0,0,0,10005,10006,10007,10008
</chunk>
   <chunk x="-32" y="320" width="16" height="16">
9913,9914,10089,10090,10091,10092,10093,10094,9903,9904,9905,9906,9907,9908,10095,10096,
9945,9946,10121,10122,10123,10124,10125,10126,9935,9936,9937,9938,9939,9940,10127,10128,
9977,9978,10153,10154,10155,10156,10157,10158,9967,9968,9969,9970,9971,9972,10159,10160,
10009,10010,9801,9802,9803,9804,9805,9806,9999,10000,10001,10002,10003,10004,9807,9808,
10041,10042,9833,9834,9835,9836,9837,9838,10031,10032,10033,10034,10035,10036,9839,9840,
10073,10074,9865,9866,9867,9868,9869,9870,10063,10064,10065,10066,10067,10068,9871,9872,
10105,10106,9897,9898,9899,9900,9901,9902,10095,10096,10097,10098,10099,10100,9903,9904,
10137,10138,9929,9930,9931,9932,9933,9934,10127,10128,10129,10130,10131,10132,9935,9936,
10169,10170,9961,9962,9963,9964,9965,9966,10159,10160,10161,10162,10163,10164,9967,9968,
9817,9818,9993,9994,9995,9996,9997,9998,9807,9808,9809,9810,9811,9812,9999,10000,
9849,9850,10025,10026,10027,10028,10029,10030,9839,9840,9841,9842,9843,9844,10031,10032,
9881,9882,10057,10058,10059,10060,10061,10062,9871,9872,9873,9874,9875,9876,10063,10064,
9913,9914,10089,10090,10091,10092,10093,10094,9903,9904,9905,9906,9907,9908,10095,10096,
9945,9946,10121,10122,10123,10124,10125,10126,9935,9936,9937,9938,9939,9940,10127,10128,
9977,9978,10153,10154,10155,10156,10157,10158,9967,9968,9969,9970,9971,9972,10159,10160,
10009,10010,9801,9802,9803,9804,9805,9806,9999,10000,10001,10002,10003,10004,9807,9808
</chunk>
   <chunk x="-16" y="320" width="16" height="16">
10097,10098,10099,10100,9903,9904,9905,9906,9907,9908,10095,10096,10097,10098,10099,10100,
10129,10130,10131,10132,9935,9936,9937,9938,9939,9940,10127,10128,10129,10130,10131,10132,
10161,10162,10163,10164,9967,9968,9969,9970,9971,9972,10159,10160,10161,10162,10163,10164,
9809,9810,9811,9812,9999,10000,10001,10002,10003,10004,9807,9808,9809,9810,9811,9812,
9841,9842,9843,9844,10031,10032,10033,10034,10035,10036,9839,9840,9841,9842,9843,9844,
9873,9874,9875,9876,10063,10064,10065,10066,10067,10068,9871,9872,9873,9874,9875,9876,
9905,9906,9907,9908,10095,10096,10097,10098,10099,10100,9903,9904,9905,9906,9907,9908,
9937,9938,9939,9940,10127,10128,10129,10130,10131,10132,9935,9936,9937,9938,9939,9940,
9969,9970,9971,9972,10159,10160,10161,10162,10163,10164,9967,9968,9969,9970,9971,9972,
10001,10002,10003,10004,9807,9808,9809,9810,9811,9812,9999,10000,10001,10002,10003,10004,
10033,10034,10035,10036,9839,9840,9841,9842,9843,9844,10031,10032,10033,10034,10035,10036,
10065,10066,10067,10068,9871,9872,9873,9874,9875,9876,10063,10064,10065,10066,10067,10068,
10097,10098,10099,10100,9903,9904,9905,9906,9907,9908,10095,10096,10097,10098,10099,10100,
10129,10130,10131,10132,9935,9936,9937,9938,9939,9940,10127,10128,10129,10130,10131,10132,
10161,10162,10163,10164,9967,9968,9969,9970,9971,9972,10159,10160,10161,10162,10163,10164,
9809,9810,9811,9812,9999,10000,10001,10002,10003,10004,9807,9808,9809,9810,9811,9812
</chunk>
   <chunk x="0" y="320" width="16" height="16">
9903,9904,9905,9906,9907,9908,10095,10096,10097,10098,10099,10100,9903,9904,9905,9906,
9935,9936,9937,9938,9939,9940,10127,10128,10129,10130,10131,10132,9935,9936,9937,9938,
9967,9968,9969,9970,9971,9972,10159,10160,10161,10162,10163,10164,9967,9968,9969,9970,
9999,10000,10001,10002,10003,10004,9807,9808,9809,9810,9811,9812,9999,10000,10001,10002,
10031,10032,10033,10034,10035,10036,9839,9840,9841,9842,9843,9844,10031,10032,10033,10034,
10063,10064,10065,10066,10067,10068,9871,9872,9873,9874,9875,9876,10063,10064,10065,10066,
10095,10096,10097,10098,10099,10100,9903,9904,9905,9906,9907,9908,10095,10096,10097,10098,
10127,10128,10129,10130,10131,10132,9935,9936,9937,9938,9939,9940,10127,10128,10129,10130,
10159,10160,10161,10162,10163,10164,9967,9968,9969,9970,9971,9972,10159,10160,10161,10162,
9807,9808,9809,9810,9811,9812,9999,10000,10001,10002,10003,10004,9807,9808,9809,9810,
9839,9840,9841,9842,9843,9844,10031,10032,10033,10034,10035,10036,9839,9840,9841,9842,
9871,9872,9873,9874,9875,9876,10063,10064,10065,10066,10067,10068,9871,9872,9873,9874,
9903,9904,9905,9906,9907,9908,10095,10096,10097,10098,10099,10100,9903,9904,9905,9906,
9935,9936,9937,9938,9939,9940,10127,10128,10129,10130,10131,10132,9935,9936,9937,9938,
9967,9968,9969,9970,9971,9972,10159,10160,10161,10162,10163,10164,9967,9968,9969,9970,
9999,10000,10001,10002,10003,10004,9999,10000,10001,10002,10003,10004,9999,10000,10001,10002
</chunk>
   <chunk x="16" y="320" width="16" height="16">
9907,9908,9903,9904,9905,9906,9907,9908,9903,9904,9905,9906,9907,9908,9903,9904,
9939,9940,9935,9936,9937,9938,9939,9940,9935,9936,9937,9938,9939,9940,9935,9936,
9971,9972,9967,9968,9969,9970,9971,9972,9967,9968,9969,9970,9971,9972,9967,9968,
10003,10004,9807,9808,9809,9810,9811,9812,9999,10000,10001,10002,10003,10004,9807,9808,
10035,10036,9839,9840,9841,9842,9843,9844,10031,10032,10033,10034,10035,10036,9839,9840,
10067,10068,9871,9872,9873,9874,9875,9876,10063,10064,10065,10066,10067,10068,9871,9872,
10099,10100,9903,9904,9905,9906,9907,9908,10095,10096,10097,10098,10099,10100,9903,9904,
10131,10132,9935,9936,9937,9938,9939,9940,10127,10128,10129,10130,10131,10132,9935,9936,
10163,10164,9967,9968,9969,9970,9971,9972,10159,10160,10161,10162,10163,10164,9967,9968,
9811,9812,9999,10000,10001,10002,10003,10004,9807,9808,9809,9810,9811,9812,9999,10000,
9843,9844,10031,10032,10033,10034,10035,10036,9839,9840,9841,9842,9843,9844,10031,10032,
9875,9876,10063,10064,10065,10066,10067,10068,9871,9872,9873,9874,9875,9876,10063,10064,
9907,9908,10095,10096,10097,10098,10099,10100,9903,9904,9905,9906,9907,9908,10095,10096,
9939,9940,10127,10128,10129,10130,10131,10132,9935,9936,9937,9938,9939,9940,10127,10128,
9971,9972,10159,10160,10161,10162,10163,10164,9967,9968,9969,9970,9971,9972,10159,10160,
10003,10004,9807,9808,9809,9810,9811,9812,9999,10000,10001,10002,10003,10004,9807,9808
</chunk>
   <chunk x="32" y="320" width="16" height="16">
9905,9906,9907,9908,10095,10096,10097,10098,10099,10100,10095,10096,10097,10098,10099,10100,
9937,9938,9939,9940,10127,10128,10129,10130,10131,10132,10127,10128,10129,10130,10131,10132,
9969,9970,9971,9972,10159,10160,10161,10162,10163,10164,10159,10160,10161,10162,10163,10164,
9809,9810,9811,9812,9999,10000,10001,10002,10003,10004,9807,9808,9809,9810,9811,9812,
9841,9842,9843,9844,10031,10032,10033,10034,10035,10036,9839,9840,9841,9842,9843,9844,
9873,9874,9875,9876,10063,10064,10065,10066,10067,10068,9871,9872,9873,9874,9875,9876,
9905,9906,9907,9908,10095,10096,10097,10098,10099,10100,9903,9904,9905,9906,9907,9908,
9937,9938,9939,9940,10127,10128,10129,10130,10131,10132,9935,9936,9937,9938,9939,9940,
9969,9970,9971,9972,10159,10160,10161,10162,10163,10164,9967,9968,9969,9970,9971,9972,
10001,10002,10003,10004,9807,9808,9809,9810,9811,9812,9999,10000,10001,10002,10003,10004,
10033,10034,10035,10036,9839,9840,9841,9842,9843,9844,10031,10032,10033,10034,10035,10036,
10065,10066,10067,10068,9871,9872,9873,9874,9875,9876,10063,10064,10065,10066,10067,10068,
10097,10098,10099,10100,9903,9904,9905,9906,9907,9908,10095,10096,10097,10098,10099,10100,
10129,10130,10131,10132,9935,9936,9937,9938,9939,9940,10127,10128,10129,10130,10131,10132,
10161,10162,10163,10164,9967,9968,9969,9970,9971,9972,10159,10160,10161,10162,10163,10164,
9809,9810,9811,9812,9999,10000,10001,10002,10003,10004,9807,9808,9809,9810,9811,9812
</chunk>
   <chunk x="48" y="320" width="16" height="16">
9903,9904,9905,9906,9907,9908,10095,10096,10097,10098,10099,10100,9903,9904,9905,9906,
9935,9936,9937,9938,9939,9940,10127,10128,10129,10130,10131,10132,9935,9936,9937,9938,
9967,9968,9969,9970,9971,9972,10159,10160,10161,10162,10163,10164,9967,9968,9969,9970,
9999,10000,10001,10002,10003,10004,9807,9808,9809,9810,9811,9812,9999,10000,10001,10002,
10031,10032,10033,10034,10035,10036,9839,9840,9841,9842,9843,9844,10031,10032,10033,10034,
10063,10064,10065,10066,10067,10068,9871,9872,9873,9874,9875,9876,10063,10064,10065,10066,
10095,10096,10097,10098,10099,10100,9903,9904,9905,9906,9907,9908,10095,10096,10097,10098,
10127,10128,10129,10130,10131,10132,9935,9936,9937,9938,9939,9940,10127,10128,10129,10130,
10159,10160,10161,10162,10163,10164,9967,9968,9969,9970,9971,9972,10159,10160,10161,10162,
9807,9808,9809,9810,9811,9812,9999,10000,10001,10002,10003,10004,9807,9808,9809,9810,
9839,9840,9841,9842,9843,9844,10031,10032,10033,10034,10035,10036,9839,9840,9841,9842,
9871,9872,9873,9874,9875,9876,10063,10064,10065,10066,10067,10068,9871,9872,9873,9874,
9903,9904,9905,9906,9907,9908,10095,10096,10097,10098,10099,10100,9903,9904,9905,9906,
9935,9936,9937,9938,9939,9940,10127,10128,10129,10130,10131,10132,9935,9936,9937,9938,
9967,9968,9969,9970,9971,9972,10159,10160,10161,10162,10163,10164,9967,9968,9969,9970,
9999,10000,10001,10002,10003,10004,9807,9808,9809,9810,9811,9812,9999,10000,10001,10002
</chunk>
   <chunk x="64" y="320" width="16" height="16">
9907,9908,10095,10096,10097,10098,10099,10100,9903,9904,9905,9906,9907,9908,10089,10090,
9939,9940,10127,10128,10129,10130,10131,10132,9935,9936,9937,9938,9939,9940,10121,10122,
9971,9972,10159,10160,10161,10162,10163,10164,9967,9968,9969,9970,9971,9972,10153,10154,
10003,10004,9807,9808,9809,9810,9811,9812,9999,10000,10001,10002,10003,10004,9801,9802,
10035,10036,9839,9840,9841,9842,9843,9844,10031,10032,10033,10034,10035,10036,9833,9834,
10067,10068,9871,9872,9873,9874,9875,9876,10063,10064,10065,10066,10067,10068,9865,9866,
10099,10100,9903,9904,9905,9906,9907,9908,10095,10096,10097,10098,10099,10100,9897,9898,
10131,10132,9935,9936,9937,9938,9939,9940,10127,10128,10129,10130,10131,10132,9929,9930,
10163,10164,9967,9968,9969,9970,9971,9972,10159,10160,10161,10162,10163,10164,9961,9962,
9811,9812,9999,10000,10001,10002,10003,10004,9807,9808,9809,9810,9811,9812,9993,9994,
9843,9844,10031,10032,10033,10034,10035,10036,9839,9840,9841,9842,9843,9844,10025,10026,
9875,9876,10063,10064,10065,10066,10067,10068,9871,9872,9873,9874,9875,9876,10057,10058,
9907,9908,10095,10096,10097,10098,10099,10100,9903,9904,9905,9906,9907,9908,10089,10090,
9939,9940,10127,10128,10129,10130,10131,10132,9935,9936,9937,9938,9939,9940,10121,10122,
9971,9972,10159,10160,10161,10162,10163,10164,9967,9968,9969,9970,9971,9972,10153,10154,
10003,10004,9807,9808,9809,9810,9811,9812,9999,10000,10001,10002,10003,10004,9801,9802
</chunk>
   <chunk x="80" y="320" width="16" height="16">
10091,10092,10093,10094,9897,9898,9899,9900,9901,9902,10101,10102,10103,10104,10105,10106,
10123,10124,10125,10126,9929,9930,9931,9932,9933,9934,10133,10134,10135,10136,10137,10138,
10155,10156,10157,10158,9961,9962,9963,9964,9965,9966,10165,10166,10167,10168,10169,10170,
9803,9804,9805,9806,9993,9994,9995,9996,9997,9998,9813,9814,9815,9816,9817,9818,
9835,9836,9837,9838,10025,10026,10027,10028,10029,10030,9845,9846,9847,9848,9849,9850,
9867,9868,9869,9870,10057,10058,10059,10060,10061,10062,9877,9878,9879,9880,9881,9882,
9899,9900,9901,9902,10089,10090,10091,10092,10093,10094,9909,9910,9911,9912,9913,9914,
9931,9932,9933,9934,10121,10122,10123,10124,10125,10126,9941,9942,9943,9944,9945,9946,
9963,9964,9965,9966,10153,10154,10155,10156,10157,10158,9973,9974,9975,9976,9977,9978,
9995,9996,9997,9998,9801,9802,9803,9804,9805,9806,10005,10006,10007,10008,10009,10010,
10027,10028,10029,10030,9833,9834,9835,9836,9837,9838,10037,10038,10039,10040,10041,10042,
10059,10060,10061,10062,9865,9866,9867,9868,9869,9870,10069,10070,10071,10072,10073,10074,
10091,10092,10093,10094,9897,9898,9899,9900,9901,9902,10101,10102,10103,10104,10105,10106,
10123,10124,10125,10126,9929,9930,9931,9932,9933,9934,10133,10134,10135,10136,10137,10138,
10155,10156,10157,10158,9961,9962,9963,9964,9965,9966,10165,10166,10167,10168,10169,10170,
9803,9804,9805,9806,9993,9994,9995,9996,9997,9998,9813,9814,9815,9816,9817,9818
</chunk>
   <chunk x="96" y="320" width="16" height="16">
9909,9910,9911,9912,9913,9914,10089,10090,10091,10092,10093,10094,0,0,0,0,
9941,9942,9943,9944,9945,9946,10121,10122,10123,10124,10125,10126,0,0,0,0,
9973,9974,9975,9976,9977,9978,10153,10154,10155,10156,10157,10158,0,0,0,0,
10005,10006,10007,10008,10009,10010,9801,9802,9803,9804,9805,9806,0,0,0,0,
10037,10038,10039,10040,10041,10042,9833,9834,9835,9836,9837,9838,0,0,0,0,
10069,10070,10071,10072,10073,10074,9865,9866,9867,9868,9869,9870,0,0,0,0,
10101,10102,10103,10104,10105,10106,9897,9898,9899,9900,9901,9902,0,0,0,0,
10133,10134,10135,10136,10137,10138,9929,9930,9931,9932,9933,9934,0,0,0,0,
10165,10166,10167,10168,10169,10170,9961,9962,9963,9964,9965,9966,0,0,0,0,
9813,9814,9815,9816,9817,9818,9993,9994,9995,9996,9997,9998,0,0,0,0,
9845,9846,9847,9848,9849,9850,10025,10026,10027,10028,10029,10030,0,0,0,0,
9877,9878,9879,9880,9881,9882,10057,10058,10059,10060,10061,10062,0,0,0,0,
9909,9910,9911,9912,9913,9914,10089,10090,10091,10092,10093,10094,0,0,0,0,
9941,9942,9943,9944,9945,9946,10121,10122,10123,10124,10125,10126,0,0,0,0,
9973,9974,9975,9976,9977,9978,10153,10154,10155,10156,10157,10158,0,0,0,0,
10005,10006,10007,10008,10009,10010,9801,9802,9803,9804,9805,9806,0,0,0,0
</chunk>
   <chunk x="112" y="320" width="16" height="16">
0,0,9897,9898,9899,9900,9901,9902,10101,10102,10103,10104,10105,10106,9909,9910,
0,0,9929,9930,9931,9932,9933,9934,10133,10134,10135,10136,10137,10138,9941,9942,
0,0,9961,9962,9963,9964,9965,9966,10165,10166,10167,10168,10169,10170,9973,9974,
0,0,9993,9994,9995,9996,9997,9998,9813,9814,9815,9816,9817,9818,10005,10006,
0,0,10025,10026,10027,10028,10029,10030,9845,9846,9847,9848,9849,9850,10037,10038,
0,0,10057,10058,10059,10060,10061,10062,9877,9878,9879,9880,9881,9882,10069,10070,
0,0,10089,10090,10091,10092,10093,10094,9909,9910,9911,9912,9913,9914,10101,10102,
0,0,10121,10122,10123,10124,10125,10126,9941,9942,9943,9944,9945,9946,10133,10134,
0,0,10153,10154,10155,10156,10157,10158,9973,9974,9975,9976,9977,9978,10165,10166,
0,0,9801,9802,9803,9804,9805,9806,10005,10006,10007,10008,10009,10010,9813,9814,
0,0,9833,9834,9835,9836,9837,9838,10037,10038,10039,10040,10041,10042,9845,9846,
0,0,9865,9866,9867,9868,9869,9870,10069,10070,10071,10072,10073,10074,9877,9878,
0,0,9897,9898,9899,9900,9901,9902,10101,10102,10103,10104,10105,10106,9909,9910,
0,0,9929,9930,9931,9932,9933,9934,10133,10134,10135,10136,10137,10138,9941,9942,
0,0,9961,9962,9963,9964,9965,9966,10165,10166,10167,10168,10169,10170,9973,9974,
0,0,9993,9994,9995,9996,9997,9998,9813,9814,9815,9816,9817,9818,10005,10006
</chunk>
   <chunk x="128" y="320" width="16" height="16">
9911,9912,9913,9914,10101,10102,10103,10104,10105,10106,9909,9910,9911,9912,9913,9914,
9943,9944,9945,9946,10133,10134,10135,10136,10137,10138,9941,9942,9943,9944,9945,9946,
9975,9976,9977,9978,10165,10166,10167,10168,10169,10170,9973,9974,9975,9976,9977,9978,
10007,10008,10009,10010,9813,9814,9815,9816,9817,9818,10005,10006,10007,10008,10009,10010,
10039,10040,10041,10042,9845,9846,9847,9848,9849,9850,10037,10038,10039,10040,10041,10042,
10071,10072,10073,10074,9877,9878,9879,9880,9881,9882,10069,10070,10071,10072,10073,10074,
10103,10104,10105,10106,9909,9910,9911,9912,9913,9914,10101,10102,10103,10104,10105,10106,
10135,10136,10137,10138,9941,9942,9943,9944,9945,9946,10133,10134,10135,10136,10137,10138,
10167,10168,10169,10170,9973,9974,9975,9976,9977,9978,10165,10166,10167,10168,10169,10170,
9815,9816,9817,9818,10005,10006,10007,10008,10009,10010,9813,9814,9815,9816,9817,9818,
9847,9848,9849,9850,10037,10038,10039,10040,10041,10042,9845,9846,9847,9848,9849,9850,
9879,9880,9881,9882,10069,10070,10071,10072,10073,10074,9877,9878,9879,9880,9881,9882,
9911,9912,9913,9914,10101,10102,10103,10104,10105,10106,9909,9910,9911,9912,9913,9914,
9943,9944,9945,9946,10133,10134,10135,10136,10137,10138,9941,9942,9943,9944,9945,9946,
9975,9976,9977,9978,10165,10166,10167,10168,10169,10170,9973,9974,9975,9976,9977,9978,
10007,10008,10009,10010,9813,9814,9815,9816,9817,9818,10005,10006,10007,10008,10009,10010
</chunk>
   <chunk x="144" y="320" width="16" height="16">
10101,10102,10103,10104,10105,10106,0,0,0,0,0,0,0,0,0,0,
10133,10134,10135,10136,10137,10138,0,0,0,0,0,0,0,0,0,0,
10165,10166,10167,10168,10169,10170,0,0,0,0,0,0,0,0,0,0,
9813,9814,9815,9816,9817,9818,0,0,0,0,0,0,0,0,0,0,
9845,9846,9847,9848,9849,9850,0,0,0,0,0,0,0,0,0,0,
9877,9878,9879,9880,9881,9882,0,0,0,0,0,0,0,0,0,0,
9909,9910,9911,9912,9913,9914,0,0,0,0,0,0,0,0,0,0,
9941,9942,9943,9944,9945,9946,0,0,0,0,0,0,0,0,0,0,
9973,9974,9975,9976,9977,9978,0,0,0,0,0,0,0,0,0,0,
10005,10006,10007,10008,10009,10010,0,0,0,0,0,0,0,0,0,0,
10037,10038,10039,10040,10041,10042,0,0,0,0,0,0,0,0,0,0,
10069,10070,10071,10072,10073,10074,0,0,0,0,0,0,0,0,0,0,
10101,10102,10103,10104,10105,10106,0,0,0,0,0,0,0,0,0,0,
10133,10134,10135,10136,10137,10138,0,0,0,0,0,0,0,0,0,0,
10165,10166,10167,10168,10169,10170,0,0,0,0,0,0,0,0,0,0,
9813,9814,9815,9816,9817,9818,0,0,0,0,0,0,0,0,0,0
</chunk>
   <chunk x="-336" y="336" width="16" height="16">
0,0,0,0,0,0,0,0,0,0,0,0,0,0,0,0,
0,0,0,0,0,0,0,0,0,0,0,0,0,0,0,0,
0,0,0,0,0,0,0,0,0,0,0,0,0,0,0,0,
0,0,0,0,0,0,0,0,0,0,0,0,0,0,0,0,
0,0,0,0,0,0,0,0,0,0,0,0,0,0,0,0,
0,0,0,0,0,0,0,0,0,0,0,0,2052,2053,2054,2055,
0,0,0,0,0,0,0,0,0,0,0,0,2084,2085,2086,2087,
0,0,0,0,0,0,0,0,0,0,0,0,2116,2117,2118,2119,
0,0,0,0,0,0,0,0,0,0,0,0,2148,2149,2150,2151,
0,0,0,0,0,0,0,0,0,0,0,0,2180,2181,2182,2183,
0,0,0,0,0,0,0,0,0,0,0,0,2212,2213,2214,2215,
0,0,0,0,0,0,0,0,0,0,0,0,2052,2053,2054,2055,
0,0,0,0,0,0,0,0,0,0,0,0,2084,2085,2086,2087,
0,0,0,0,0,0,0,0,0,0,0,0,2116,2117,2118,2119,
0,0,0,0,0,0,0,0,0,0,0,0,2148,2149,2150,2151,
0,0,0,0,0,0,0,0,0,0,0,0,2180,2181,2182,2183
</chunk>
   <chunk x="-320" y="336" width="16" height="16">
0,0,2660,2661,2094,2095,2147486309,2147486308,2788,2789,2790,2791,2792,2793,2724,2725,
0,0,2628,2629,2062,2063,2147486277,2147486276,2692,2693,2694,2695,2696,2697,2756,2757,
0,0,2660,2661,2094,2095,2147486309,2147486308,2724,2725,2726,2727,2728,2729,2788,2789,
0,0,2628,2629,2062,2063,2147486277,2147486276,2756,2757,2758,2759,2760,2761,2692,2693,
0,0,2660,2661,2094,2095,2147486309,2147486308,2788,2789,2790,2791,2792,2793,2724,2725,
2056,2057,2628,2629,2062,2063,2147486277,2147486276,2890,2891,2892,2893,2894,2895,2634,2635,
2088,2089,2660,2661,2094,2095,2147486309,2147486308,2922,2923,2924,2925,2926,2927,2666,2667,
2120,2121,2628,2629,2062,2063,2147486277,2147486276,2954,2955,2956,2957,2958,2959,2634,2635,
2152,2153,2660,2661,2094,2095,2147486309,2147486308,2986,2987,2988,2989,2990,2991,2666,2667,
2184,2185,2628,2629,2062,2063,2147486277,2147486276,3018,3019,3020,3021,3022,3023,2634,2635,
2216,2217,2660,2661,2094,2095,2147486309,2147486308,3050,3051,3052,3053,3054,3055,2666,2667,
2056,2057,2628,2629,2062,2063,2147486277,2147486276,2634,2635,2634,2635,2634,2635,2634,2635,
2088,2089,2660,2661,2094,2095,2147486309,2147486308,2666,2667,2666,2667,2666,2667,2666,2667,
2120,2121,2628,2629,2062,2063,2147486277,2147486276,2634,2635,2634,2635,2634,2635,2634,2635,
2152,2153,2660,2661,2094,2095,2147486309,2147486308,2666,2667,2666,2667,2666,2667,2666,2667,
2184,2185,2628,2629,2062,2063,2147486277,2147486276,2634,2635,2634,2635,2634,2635,2634,2635
</chunk>
   <chunk x="-304" y="336" width="16" height="16">
2726,2727,2728,2729,2788,2789,2790,2791,2858,2859,2660,2661,2094,2095,2147486309,2147486308,
2758,2759,2760,2761,2692,2693,2694,2695,2762,2763,2628,2629,2062,2063,2147486277,2147486276,
2790,2791,2792,2793,2724,2725,2726,2727,2794,2795,2660,2661,2094,2095,2147486309,2147486308,
2694,2695,2696,2697,2756,2757,2758,2759,2826,2827,2628,2629,2062,2063,2147486277,2147486276,
2726,2727,2728,2729,2788,2789,2790,2791,2858,2859,2660,2661,2094,2095,2147486309,2147486308,
2634,2635,2634,2635,2634,2635,2634,2635,2698,2699,2628,2629,2062,2063,2147486277,2147486276,
2666,2667,2666,2667,2666,2667,2666,2667,2730,2731,2660,2661,2094,2095,2147486309,2147486308,
2634,2635,2634,2635,2634,2635,2634,2635,2698,2699,2628,2629,2062,2063,2147486277,2147486276,
2666,2667,2666,2667,2666,2667,2666,2667,2730,2731,2660,2661,2094,2095,2147486309,2147486308,
2634,2635,2634,2635,2634,2635,2634,2635,2698,2699,2628,2629,2062,2063,2147486277,2147486276,
2666,2667,2666,2667,2666,2667,2666,2667,2730,2731,2660,2661,2094,2095,2147486309,2147486308,
2634,2635,2634,2635,2634,2635,2634,2635,2698,2699,2628,2629,2062,2063,2147486277,2147486276,
2666,2667,2666,2667,2666,2667,2666,2667,2730,2731,2660,2661,2094,2095,2147486309,2147486308,
2634,2635,2634,2635,2634,2635,2634,2635,2698,2699,2628,2629,2062,2063,2147486277,2147486276,
2666,2667,2666,2667,2666,2667,2666,2667,2730,2731,2660,2661,2094,2095,2147486309,2147486308,
2634,2635,2634,2635,2634,2635,2634,2635,2698,2699,2628,2629,2062,2063,2147486277,2147486276
</chunk>
   <chunk x="-288" y="336" width="16" height="16">
0,0,0,0,0,0,9845,9846,9847,9848,9849,9850,10037,10038,10039,10040,
0,0,0,0,0,0,9877,9878,9879,9880,9881,9882,10069,10070,10071,10072,
0,0,0,0,0,0,9909,9910,9911,9912,9913,9914,10101,10102,10103,10104,
0,0,0,0,0,0,9941,9942,9943,9944,9945,9946,10133,10134,10135,10136,
0,0,0,0,0,0,9973,9974,9975,9976,9977,9978,10165,10166,10167,10168,
9813,9814,9815,9816,9817,9818,10005,10006,10007,10008,10009,10010,9813,9814,9815,9816,
9845,9846,9847,9848,9849,9850,10037,10038,10039,10040,10041,10042,9845,9846,9847,9848,
9877,9878,9879,9880,9881,9882,10069,10070,10071,10072,10073,10074,9877,9878,9879,9880,
9909,9910,9911,9912,9913,9914,10101,10102,10103,10104,10105,10106,9909,9910,9911,9912,
9941,9942,9943,9944,9945,9946,10133,10134,10135,10136,10137,10138,9941,9942,9943,9944,
9973,9974,9975,9976,9977,9978,10165,10166,10167,10168,10169,10170,9973,9974,9975,9976,
10005,10006,10007,10008,10009,10010,9813,9814,9815,9816,9817,9818,10005,10006,10007,10008,
10037,10038,10039,10040,10041,10042,9845,9846,9847,9848,9849,9850,10037,10038,10039,10040,
10069,10070,10071,10072,10073,10074,9877,9878,9879,9880,9881,9882,10069,10070,10071,10072,
10101,10102,10103,10104,10105,10106,9909,9910,9911,9912,9913,9914,10101,10102,10103,10104,
10133,10134,10135,10136,10137,10138,9941,9942,9943,9944,9945,9946,10133,10134,10135,10136
</chunk>
   <chunk x="-272" y="336" width="16" height="16">
10041,10042,0,0,0,0,0,0,0,0,0,0,0,0,0,0,
10073,10074,0,0,0,0,0,0,0,0,0,0,0,0,0,0,
10105,10106,0,0,0,0,0,0,0,0,0,0,0,0,0,0,
10137,10138,0,0,0,0,0,0,0,0,0,0,0,0,0,0,
10169,10170,0,0,0,0,0,0,0,0,0,0,0,0,0,0,
9817,9818,0,0,0,0,0,0,0,0,0,0,0,0,0,0,
9849,9850,0,0,0,0,0,0,0,0,0,0,0,0,0,0,
9881,9882,0,0,0,0,0,0,0,0,0,0,0,0,0,0,
9913,9914,0,0,0,0,0,0,0,0,0,0,0,0,0,0,
9945,9946,0,0,0,0,0,0,0,0,0,0,0,0,0,0,
9977,9978,0,0,0,0,0,0,0,0,0,0,0,0,0,0,
10009,10010,9801,9802,9803,9804,9805,9806,0,0,0,0,0,0,0,0,
10041,10042,9833,9834,9835,9836,9837,9838,0,0,0,0,0,0,0,0,
10073,10074,9865,9866,9867,9868,9869,9870,0,0,0,0,0,0,0,0,
10105,10106,9897,9898,9899,9900,9901,9902,0,0,0,0,0,0,0,0,
10137,10138,9929,9930,9931,9932,9933,9934,0,0,0,0,0,0,0,0
</chunk>
   <chunk x="-256" y="336" width="16" height="16">
0,0,0,0,0,0,0,0,0,0,0,0,0,0,0,0,
0,0,0,0,0,0,0,0,0,0,0,0,0,0,0,0,
0,0,0,0,0,0,0,0,0,0,0,0,0,0,0,0,
0,0,0,0,0,0,0,0,0,0,0,0,0,0,0,0,
0,0,0,0,0,0,0,0,0,0,0,0,0,0,0,0,
0,0,0,0,0,0,0,0,0,0,2884,2885,2886,2887,2888,2889,
0,0,0,0,0,0,0,0,0,0,2916,2917,2918,2919,2920,2921,
0,0,0,0,0,0,0,0,0,0,2948,2949,2950,2951,2952,2953,
0,0,0,0,0,0,0,0,0,0,2980,2981,2982,2983,2984,2985,
0,0,0,0,0,0,0,0,0,0,3012,3013,3014,3015,3016,3017,
0,0,0,0,0,0,0,0,0,0,3044,3045,3046,3047,3048,3049,
0,0,0,0,0,0,0,0,0,0,2634,2635,2634,2635,2698,2699,
0,0,0,0,0,0,0,0,0,0,2666,2667,2666,2667,2730,2731,
0,0,0,0,0,0,0,0,0,0,2634,2635,2634,2635,2698,2699,
0,0,0,0,0,0,0,0,0,0,2666,2667,2666,2667,2730,2731,
0,0,0,0,0,0,0,0,0,0,2634,2635,2634,2635,2698,2699
</chunk>
   <chunk x="-112" y="336" width="16" height="16">
0,0,0,0,0,0,0,0,0,0,0,0,9795,9796,9797,9798,
0,0,0,0,0,0,0,0,0,0,9445,9446,9827,9828,9829,9830,
0,0,0,0,0,0,0,0,0,0,9477,9478,9859,9860,9861,9862,
0,0,0,0,0,0,0,0,0,0,0,0,0,0,0,0,
0,0,0,0,0,0,0,0,0,0,0,0,0,0,0,0,
0,0,0,0,0,0,0,0,0,0,0,0,0,0,0,0,
0,0,0,0,0,0,0,0,0,0,0,0,0,0,0,0,
0,0,0,0,0,0,0,0,0,0,0,0,0,0,0,0,
0,0,0,0,0,0,0,0,0,0,0,0,0,0,0,0,
0,0,0,0,0,0,0,0,0,0,0,0,0,0,0,0,
0,0,0,0,0,0,0,0,0,0,0,0,0,0,0,0,
0,0,0,0,0,0,0,0,0,0,0,0,0,0,0,0,
0,0,0,0,0,0,0,0,0,0,0,0,0,0,0,0,
0,0,0,0,0,0,0,0,0,0,0,0,0,0,0,0,
0,0,0,0,0,0,0,0,0,0,0,0,0,0,0,0,
0,0,0,0,0,0,0,0,0,0,0,0,0,0,0,0
</chunk>
   <chunk x="-96" y="336" width="16" height="16">
9529,9530,0,0,0,0,0,0,0,0,0,0,0,0,0,0,
9561,9562,0,0,0,0,0,0,0,0,0,0,0,0,0,0,
9593,9594,0,0,0,0,0,0,0,0,0,0,0,0,0,0,
0,0,0,0,0,0,0,0,0,0,0,0,0,0,0,0,
0,0,0,0,0,0,0,0,0,0,0,0,0,0,0,0,
0,0,0,0,0,0,0,0,9763,9764,9765,9766,9497,9498,0,0,
0,0,0,0,0,0,0,0,9795,9796,9797,9798,9529,9530,0,0,
0,0,0,0,0,0,9445,9446,9827,9828,9829,9830,9561,9562,0,0,
0,0,0,0,0,0,9477,9478,9859,9860,9861,9862,9593,9594,0,0,
0,0,0,0,0,0,0,0,0,0,0,0,0,0,0,0,
0,0,0,0,0,0,0,0,0,0,0,0,0,0,0,0,
0,0,0,0,0,0,0,0,0,0,0,0,0,0,0,0,
0,0,0,0,0,0,0,0,0,0,0,0,0,0,0,0,
0,0,0,0,0,0,0,0,0,0,0,0,0,0,0,0,
0,0,0,0,0,0,0,0,0,0,0,0,0,0,0,0,
0,0,0,0,0,0,0,0,0,0,0,0,0,0,0,0
</chunk>
   <chunk x="-80" y="336" width="16" height="16">
0,0,0,0,0,0,0,0,0,0,0,0,0,0,0,0,
0,0,0,0,0,0,0,0,0,0,0,0,0,0,9505,9506,
0,0,0,0,0,0,0,0,0,0,0,0,0,0,9537,9538,
0,0,0,0,0,0,0,0,0,0,0,0,0,0,0,0,
0,0,0,0,0,0,0,0,0,0,0,0,0,0,0,0,
0,0,0,0,0,0,0,0,0,0,0,0,0,0,0,0,
0,0,0,0,0,0,0,0,0,0,0,0,0,0,0,0,
0,0,0,0,0,0,0,0,0,0,0,0,0,0,0,0,
0,0,0,0,0,0,0,0,0,0,0,0,0,0,0,0,
0,0,0,0,0,0,0,0,0,0,0,0,0,0,0,0,
0,0,0,0,0,0,0,0,0,0,0,0,0,0,0,0,
0,0,0,0,0,0,0,0,0,0,0,0,0,0,0,0,
0,0,0,0,0,0,0,0,0,0,0,0,0,0,0,0,
0,0,0,0,0,0,0,0,0,0,0,0,0,0,0,0,
0,0,0,0,0,0,0,0,0,0,0,0,0,0,0,0,
0,0,0,0,0,0,0,0,0,0,0,0,0,0,0,0
</chunk>
   <chunk x="-64" y="336" width="16" height="16">
9795,9796,9797,9798,9529,9530,0,0,0,0,0,0,0,0,0,0,
9827,9828,9829,9830,9819,9820,9625,9626,0,0,0,0,0,0,0,0,
9859,9860,9861,9862,9851,9852,9657,9658,0,0,0,0,0,0,0,0,
0,0,0,0,0,0,0,0,0,0,0,0,0,0,0,0,
0,0,0,0,0,0,0,0,0,0,0,0,0,0,0,0,
0,0,0,0,0,0,0,0,0,0,0,0,0,0,0,0,
0,0,0,0,0,0,0,0,0,0,0,0,0,0,0,0,
0,0,0,0,0,0,0,0,0,0,0,0,0,0,0,0,
0,0,0,0,0,0,0,0,0,0,0,0,0,0,0,0,
0,0,0,0,0,0,0,0,0,0,0,0,0,0,0,0,
0,0,0,0,0,0,0,0,0,0,0,0,0,0,0,0,
0,0,0,0,0,0,0,0,0,0,0,0,0,0,0,0,
0,0,0,0,0,0,0,0,0,0,0,0,0,0,0,0,
0,0,0,0,0,0,0,0,0,0,0,0,0,0,0,0,
0,0,0,0,0,0,0,0,0,0,0,0,0,0,0,0,
0,0,0,0,0,0,0,0,0,0,0,0,0,0,0,0
</chunk>
   <chunk x="-48" y="336" width="16" height="16">
0,0,0,0,0,0,0,0,0,0,0,0,10037,10038,10039,10040,
0,0,0,0,0,0,0,0,0,0,0,0,10069,10070,10071,10072,
0,0,0,0,0,0,0,0,0,0,0,0,10101,10102,10103,10104,
0,0,0,0,0,0,0,0,0,0,0,0,10133,10134,10135,10136,
0,0,0,0,0,0,0,0,0,0,0,0,10165,10166,10167,10168,
0,0,0,0,0,0,0,0,0,0,0,0,9813,9814,9815,9816,
0,0,0,0,0,0,0,0,0,0,0,0,9845,9846,9847,9848,
0,0,0,0,0,0,0,0,0,0,0,0,9877,9878,9879,9880,
0,0,0,0,0,0,0,0,0,0,0,0,9909,9910,9911,9912,
0,0,0,0,0,0,0,0,0,0,0,0,9941,9942,9943,9944,
0,0,0,0,0,0,0,0,0,0,0,0,9973,9974,9975,9976,
0,0,0,0,0,0,0,0,9291,9292,0,0,0,0,0,0,
0,0,0,0,0,0,0,0,9323,9324,0,0,0,0,0,0,
0,0,0,0,0,0,9291,9292,2248,2249,0,0,0,0,0,0,
0,0,0,0,0,0,9323,9324,2280,2281,0,0,0,0,0,0,
9481,9482,9483,9484,9353,9354,0,0,0,0,0,0,2248,2249,0,0
</chunk>
   <chunk x="-32" y="336" width="16" height="16">
10041,10042,9833,9834,9835,9836,9837,9838,10031,10032,10033,10034,10035,10036,9839,9840,
10073,10074,9865,9866,9867,9868,9869,9870,10063,10064,10065,10066,10067,10068,9871,9872,
10105,10106,9897,9898,9899,9900,9901,9902,10095,10096,10097,10098,10099,10100,9903,9904,
10137,10138,9929,9930,9931,9932,9933,9934,10127,10128,10129,10130,10131,10132,9935,9936,
10169,10170,9961,9962,9963,9964,9965,9966,10159,10160,10161,10162,10163,10164,9967,9968,
9817,9818,9993,9994,9995,9996,9997,9998,9807,9808,9809,9810,9811,9812,9999,10000,
9849,9850,10025,10026,10027,10028,10029,10030,9839,9840,9841,9842,9843,9844,10031,10032,
9881,9882,10057,10058,10059,10060,10061,10062,9871,9872,9873,9874,9875,9876,10063,10064,
9913,9914,10089,10090,10091,10092,10093,10094,9903,9904,9905,9906,9907,9908,10095,10096,
9945,9946,10121,10122,10123,10124,10125,10126,9935,9936,9937,9938,9939,9940,10127,10128,
9977,9978,10153,10154,10155,10156,10157,10158,9967,9968,9969,9970,9971,9972,10159,10160,
0,0,0,0,0,0,0,0,0,0,0,0,0,0,0,0,
0,0,0,0,0,0,0,0,0,0,0,0,0,0,0,0,
0,0,0,0,0,0,0,0,0,0,0,0,0,0,0,0,
0,0,0,0,0,0,0,0,0,0,0,0,0,0,0,0,
0,0,0,0,0,0,0,0,0,0,0,0,0,0,0,0
</chunk>
   <chunk x="-16" y="336" width="16" height="16">
9841,9842,9843,9844,10031,10032,10033,10034,10035,10036,9839,9840,9841,9842,9843,9844,
9873,9874,9875,9876,10063,10064,10065,10066,10067,10068,9871,9872,9873,9874,9875,9876,
9905,9906,9907,9908,10095,10096,10097,10098,10099,10100,9903,9904,9905,9906,9907,9908,
9937,9938,9939,9940,10127,10128,10129,10130,10131,10132,9935,9936,9937,9938,9939,9940,
9969,9970,9971,9972,10159,10160,10161,10162,10163,10164,9967,9968,9969,9970,9971,9972,
10001,10002,10003,10004,9807,9808,9809,9810,9811,9812,9999,10000,10001,10002,10003,10004,
10033,10034,10035,10036,9839,9840,9841,9842,9843,9844,10031,10032,10033,10034,10035,10036,
10065,10066,10067,10068,9871,9872,9873,9874,9875,9876,10063,10064,10065,10066,10067,10068,
10097,10098,10099,10100,9903,9904,9905,9906,9907,9908,10095,10096,10097,10098,10099,10100,
10129,10130,10131,10132,9935,9936,9937,9938,9939,9940,10127,10128,10129,10130,10131,10132,
10161,10162,10163,10164,9967,9968,9969,9970,9971,9972,10159,10160,10161,10162,10163,10164,
0,0,0,0,0,0,0,0,0,0,0,0,0,0,0,0,
0,0,0,0,0,0,0,0,0,0,0,0,0,0,0,0,
0,0,0,0,0,0,0,0,0,0,0,0,0,0,0,0,
0,0,0,0,0,0,0,0,0,0,0,0,0,0,0,0,
0,0,0,0,0,0,0,0,0,0,0,0,0,0,0,0
</chunk>
   <chunk x="0" y="336" width="16" height="16">
10031,10032,10033,10034,10035,10036,10031,10032,10033,10034,10035,10036,10031,10032,10033,10034,
10063,10064,10065,10066,10067,10068,10063,10064,10065,10066,10067,10068,10063,10064,10065,10066,
10095,10096,10097,10098,10099,10100,10095,10096,10097,10098,10099,10100,10095,10096,10097,10098,
10127,10128,10129,10130,10131,10132,10127,10128,10129,10130,10131,10132,10127,10128,10129,10130,
10159,10160,10161,10162,10163,10164,10159,10160,10161,10162,10163,10164,10159,10160,10161,10162,
0,0,0,0,0,0,9807,9808,9809,9810,9811,9812,9807,9808,9809,9810,
0,0,0,0,0,0,9839,9840,9841,9842,9843,9844,9839,9840,9841,9842,
0,0,0,0,0,0,9871,9872,9873,9874,9875,9876,9871,9872,9873,9874,
0,0,0,0,0,0,9903,9904,9905,9906,9907,9908,9903,9904,9905,9906,
0,0,0,0,0,0,9935,9936,9937,9938,9939,9940,9935,9936,9937,9938,
0,0,0,0,0,0,9967,9968,9969,9970,9971,9972,9967,9968,9969,9970,
2634,2635,2634,2635,2634,2635,9999,10000,10001,10002,10003,10004,9999,10000,10001,10002,
2666,2667,2666,2667,2666,2667,10031,10032,10033,10034,10035,10036,10031,10032,10033,10034,
2698,2699,2698,2699,2698,2699,10063,10064,10065,10066,10067,10068,10063,10064,10065,10066,
2730,2731,2730,2731,2730,2731,10095,10096,10097,10098,10099,10100,10095,10096,10097,10098,
2698,2699,2698,2699,2698,2699,10127,10128,10129,10130,10131,10132,10127,10128,10129,10130
</chunk>
   <chunk x="16" y="336" width="16" height="16">
10035,10036,9839,9840,9841,9842,9843,9844,10031,10032,10033,10034,10035,10036,9839,9840,
10067,10068,9871,9872,9873,9874,9875,9876,10063,10064,10065,10066,10067,10068,9871,9872,
10099,10100,9903,9904,9905,9906,9907,9908,10095,10096,10097,10098,10099,10100,9903,9904,
10131,10132,9935,9936,9937,9938,9939,9940,10127,10128,10129,10130,10131,10132,9935,9936,
10163,10164,9967,9968,9969,9970,9971,9972,10159,10160,10161,10162,10163,10164,9967,9968,
9811,9812,9999,10000,10001,10002,10003,10004,9807,9808,9809,9810,9811,9812,9999,10000,
9843,9844,10031,10032,10033,10034,10035,10036,9839,9840,9841,9842,9843,9844,10031,10032,
9875,9876,10063,10064,10065,10066,10067,10068,9871,9872,9873,9874,9875,9876,10063,10064,
9907,9908,10095,10096,10097,10098,10099,10100,9903,9904,9905,9906,9907,9908,10095,10096,
9939,9940,10127,10128,10129,10130,10131,10132,9935,9936,9937,9938,9939,9940,10127,10128,
9971,9972,10159,10160,10161,10162,10163,10164,9967,9968,9969,9970,9971,9972,10159,10160,
10003,10004,9807,9808,9809,9810,9811,9812,9999,10000,10001,10002,10003,10004,9807,9808,
10035,10036,9839,9840,9841,9842,9843,9844,10031,10032,10033,10034,10035,10036,9839,9840,
10067,10068,9871,9872,9873,9874,9875,9876,10063,10064,10065,10066,10067,10068,9871,9872,
10099,10100,9903,9904,9905,9906,9907,9908,10095,10096,10097,10098,10099,10100,9903,9904,
10131,10132,9935,9936,9937,9938,9939,9940,10127,10128,10129,10130,10131,10132,9935,9936
</chunk>
   <chunk x="32" y="336" width="16" height="16">
9841,9842,9843,9844,10031,10032,10033,10034,10035,10036,9839,9840,9841,9842,9843,9844,
9873,9874,9875,9876,10063,10064,10065,10066,10067,10068,9871,9872,9873,9874,9875,9876,
9905,9906,9907,9908,10095,10096,10097,10098,10099,10100,9903,9904,9905,9906,9907,9908,
9937,9938,9939,9940,10127,10128,10129,10130,10131,10132,9935,9936,9937,9938,9939,9940,
9969,9970,9971,9972,10159,10160,10161,10162,10163,10164,9967,9968,9969,9970,9971,9972,
10001,10002,10003,10004,9807,9808,9809,9810,9811,9812,9999,10000,10001,10002,10003,10004,
10033,10034,10035,10036,9839,9840,9841,9842,9843,9844,10031,10032,10033,10034,10035,10036,
10065,10066,10067,10068,9871,9872,9873,9874,9875,9876,10063,10064,10065,10066,10067,10068,
10097,10098,10099,10100,9903,9904,9905,9906,9907,9908,10095,10096,10097,10098,10099,10100,
10129,10130,10131,10132,9935,9936,9937,9938,9939,9940,10127,10128,10129,10130,10131,10132,
10161,10162,10163,10164,9967,9968,9969,9970,9971,9972,10159,10160,10161,10162,10163,10164,
9809,9810,9811,9812,9999,10000,10001,10002,10003,10004,9807,9808,9809,9810,9811,9812,
9841,9842,9843,9844,10031,10032,10033,10034,10035,10036,9839,9840,9841,9842,9843,9844,
9873,9874,9875,9876,10063,10064,10065,10066,10067,10068,9871,9872,9873,9874,9875,9876,
9905,9906,9907,9908,10095,10096,10097,10098,10099,10100,9903,9904,9905,9906,9907,9908,
9937,9938,9939,9940,10127,10128,10129,10130,10131,10132,9935,9936,9937,9938,9939,9940
</chunk>
   <chunk x="48" y="336" width="16" height="16">
10031,10032,10033,10034,10035,10036,9839,9840,9841,9842,9843,9844,10031,10032,10033,10034,
10063,10064,10065,10066,10067,10068,9871,9872,9873,9874,9875,9876,10063,10064,10065,10066,
10095,10096,10097,10098,10099,10100,9903,9904,9905,9906,9907,9908,10095,10096,10097,10098,
10127,10128,10129,10130,10131,10132,9935,9936,9937,9938,9939,9940,10127,10128,10129,10130,
10159,10160,10161,10162,10163,10164,9967,9968,9969,9970,9971,9972,10159,10160,10161,10162,
9807,9808,9809,9810,9811,9812,9999,10000,10001,10002,10003,10004,9807,9808,9809,9810,
9839,9840,9841,9842,9843,9844,10031,10032,10033,10034,10035,10036,9839,9840,9841,9842,
9871,9872,9873,9874,9875,9876,10063,10064,10065,10066,10067,10068,9871,9872,9873,9874,
9903,9904,9905,9906,9907,9908,10095,10096,10097,10098,10099,10100,9903,9904,9905,9906,
9935,9936,9937,9938,9939,9940,10127,10128,10129,10130,10131,10132,9935,9936,9937,9938,
9967,9968,9969,9970,9971,9972,10159,10160,10161,10162,10163,10164,9967,9968,9969,9970,
9999,10000,10001,10002,10003,10004,9807,9808,9809,9810,9811,9812,9999,10000,10001,10002,
10031,10032,10033,10034,10035,10036,9839,9840,9841,9842,9843,9844,10031,10032,10033,10034,
10063,10064,10065,10066,10067,10068,9871,9872,9873,9874,9875,9876,10063,10064,10065,10066,
10095,10096,10097,10098,10099,10100,9903,9904,9905,9906,9907,9908,10095,10096,10097,10098,
10127,10128,10129,10130,10131,10132,9935,9936,9937,9938,9939,9940,10127,10128,10129,10130
</chunk>
   <chunk x="64" y="336" width="16" height="16">
10035,10036,9839,9840,9841,9842,9843,9844,10031,10032,10033,10034,10035,10036,9833,9834,
10067,10068,9871,9872,9873,9874,9875,9876,10063,10064,10065,10066,10067,10068,9865,9866,
10099,10100,9903,9904,9905,9906,9907,9908,10095,10096,10097,10098,10099,10100,9897,9898,
10131,10132,9935,9936,9937,9938,9939,9940,10127,10128,10129,10130,10131,10132,9929,9930,
10163,10164,9967,9968,9969,9970,9971,9972,10159,10160,10161,10162,10163,10164,9961,9962,
9811,9812,9999,10000,10001,10002,10003,10004,9807,9808,9809,9810,9811,9812,9993,9994,
9843,9844,10031,10032,10033,10034,10035,10036,9839,9840,9841,9842,9843,9844,10025,10026,
9875,9876,10063,10064,10065,10066,10067,10068,9871,9872,9873,9874,9875,9876,10057,10058,
9907,9908,10095,10096,10097,10098,10099,10100,9903,9904,9905,9906,9907,9908,10089,10090,
9939,9940,10127,10128,10129,10130,10131,10132,9935,9936,9937,9938,9939,9940,10121,10122,
9971,9972,10159,10160,10161,10162,10163,10164,9967,9968,9969,9970,9971,9972,10153,10154,
10003,10004,9807,9808,9809,9810,9811,9812,9999,10000,10001,10002,10003,10004,9801,9802,
10035,10036,9839,9840,9841,9842,9843,9844,10031,10032,10033,10034,10035,10036,9833,9834,
10067,10068,9871,9872,9873,9874,9875,9876,10063,10064,10065,10066,10067,10068,9865,9866,
10099,10100,9903,9904,9905,9906,9907,9908,10095,10096,10097,10098,10099,10100,9897,9898,
10131,10132,9935,9936,9937,9938,9939,9940,10127,10128,10129,10130,10131,10132,9929,9930
</chunk>
   <chunk x="80" y="336" width="16" height="16">
9835,9836,9837,9838,10025,10026,10027,10028,10029,10030,9845,9846,9847,9848,9849,9850,
9867,9868,9869,9870,10057,10058,10059,10060,10061,10062,9877,9878,9879,9880,9881,9882,
9899,9900,9901,9902,10089,10090,10091,10092,10093,10094,9909,9910,9911,9912,9913,9914,
9931,9932,9933,9934,10121,10122,10123,10124,10125,10126,9941,9942,9943,9944,9945,9946,
9963,9964,9965,9966,10153,10154,10155,10156,10157,10158,9973,9974,9975,9976,9977,9978,
9995,9996,9997,9998,9801,9802,9803,9804,9805,9806,10005,10006,10007,10008,10009,10010,
10027,10028,10029,10030,9833,9834,9835,9836,9837,9838,10037,10038,10039,10040,10041,10042,
10059,10060,10061,10062,9865,9866,9867,9868,9869,9870,10069,10070,10071,10072,10073,10074,
10091,10092,10093,10094,9897,9898,9899,9900,9901,9902,10101,10102,10103,10104,10105,10106,
10123,10124,10125,10126,9929,9930,9931,9932,9933,9934,10133,10134,10135,10136,10137,10138,
10155,10156,10157,10158,9961,9962,9963,9964,9965,9966,10165,10166,10167,10168,10169,10170,
9803,9804,9805,9806,9993,9994,9995,9996,9997,9998,9813,9814,9815,9816,9817,9818,
9835,9836,9837,9838,10025,10026,10027,10028,10029,10030,9845,9846,9847,9848,9849,9850,
9867,9868,9869,9870,10057,10058,10059,10060,10061,10062,9877,9878,9879,9880,9881,9882,
9899,9900,9901,9902,10089,10090,10091,10092,10093,10094,9909,9910,9911,9912,9913,9914,
9931,9932,9933,9934,10121,10122,10123,10124,10125,10126,9941,9942,9943,9944,9945,9946
</chunk>
   <chunk x="96" y="336" width="16" height="16">
10037,10038,10039,10040,10041,10042,9833,9834,9835,9836,9837,9838,0,0,0,0,
10069,10070,10071,10072,10073,10074,9865,9866,9867,9868,9869,9870,0,0,0,0,
10101,10102,10103,10104,10105,10106,9897,9898,9899,9900,9901,9902,0,0,0,0,
10133,10134,10135,10136,10137,10138,9929,9930,9931,9932,9933,9934,0,0,0,0,
10165,10166,10167,10168,10169,10170,9961,9962,9963,9964,9965,9966,0,0,0,0,
9813,9814,9815,9816,9817,9818,9993,9994,9995,9996,9997,9998,0,0,0,0,
9845,9846,9847,9848,9849,9850,10025,10026,10027,10028,10029,10030,0,0,0,0,
9877,9878,9879,9880,9881,9882,10057,10058,10059,10060,10061,10062,0,0,0,0,
9909,9910,9911,9912,9913,9914,10089,10090,10091,10092,10093,10094,0,0,0,0,
9941,9942,9943,9944,9945,9946,10121,10122,10123,10124,10125,10126,0,0,0,0,
9973,9974,9975,9976,9977,9978,10153,10154,10155,10156,10157,10158,0,0,0,0,
10005,10006,10007,10008,10009,10010,9801,9802,9803,9804,9805,9806,0,0,0,0,
10037,10038,10039,10040,10041,10042,9833,9834,9835,9836,9837,9838,0,0,0,0,
10069,10070,10071,10072,10073,10074,9865,9866,9867,9868,9869,9870,0,0,0,0,
10101,10102,10103,10104,10105,10106,9897,9898,9899,9900,9901,9902,0,0,0,0,
10133,10134,10135,10136,10137,10138,9929,9930,9931,9932,9933,9934,0,0,0,0
</chunk>
   <chunk x="112" y="336" width="16" height="16">
0,0,10025,10026,10027,10028,10029,10030,9845,9846,9847,9848,9849,9850,10037,10038,
0,0,10057,10058,10059,10060,10061,10062,9877,9878,9879,9880,9881,9882,10069,10070,
0,0,10089,10090,10091,10092,10093,10094,9909,9910,9911,9912,9913,9914,10101,10102,
0,0,10121,10122,10123,10124,10125,10126,9941,9942,9943,9944,9945,9946,10133,10134,
0,0,10153,10154,10155,10156,10157,10158,9973,9974,9975,9976,9977,9978,10165,10166,
0,0,9801,9802,9803,9804,9805,9806,10005,10006,10007,10008,10009,10010,9813,9814,
0,0,9833,9834,9835,9836,9837,9838,10037,10038,10039,10040,10041,10042,9845,9846,
0,0,9865,9866,9867,9868,9869,9870,10069,10070,10071,10072,10073,10074,9877,9878,
0,0,9897,9898,9899,9900,9901,9902,10101,10102,10103,10104,10105,10106,9909,9910,
0,0,9929,9930,9931,9932,9933,9934,10133,10134,10135,10136,10137,10138,9941,9942,
0,0,9961,9962,9963,9964,9965,9966,10165,10166,10167,10168,10169,10170,9973,9974,
0,0,9993,9994,9995,9996,9997,9998,9813,9814,9815,9816,9817,9818,10005,10006,
0,0,10025,10026,10027,10028,10029,10030,9845,9846,9847,9848,9849,9850,10037,10038,
0,0,10057,10058,10059,10060,10061,10062,9877,9878,9879,9880,9881,9882,10069,10070,
0,0,10089,10090,10091,10092,10093,10094,9909,9910,9911,9912,9913,9914,10101,10102,
0,0,10121,10122,10123,10124,10125,10126,9941,9942,9943,9944,9945,9946,10133,10134
</chunk>
   <chunk x="128" y="336" width="16" height="16">
10039,10040,10041,10042,9845,9846,9847,9848,9849,9850,10037,10038,10039,10040,10041,10042,
10071,10072,10073,10074,9877,9878,9879,9880,9881,9882,10069,10070,10071,10072,10073,10074,
10103,10104,10105,10106,9909,9910,9911,9912,9913,9914,10101,10102,10103,10104,10105,10106,
10135,10136,10137,10138,9941,9942,9943,9944,9945,9946,10133,10134,10135,10136,10137,10138,
10167,10168,10169,10170,9973,9974,9975,9976,9977,9978,10165,10166,10167,10168,10169,10170,
9815,9816,9817,9818,10005,10006,10007,10008,10009,10010,9813,9814,9815,9816,9817,9818,
9847,9848,9849,9850,10037,10038,10039,10040,10041,10042,9845,9846,9847,9848,9849,9850,
9879,9880,9881,9882,10069,10070,10071,10072,10073,10074,9877,9878,9879,9880,9881,9882,
9911,9912,9913,9914,10101,10102,10103,10104,10105,10106,9909,9910,9911,9912,9913,9914,
9943,9944,9945,9946,10133,10134,10135,10136,10137,10138,9941,9942,9943,9944,9945,9946,
9975,9976,9977,9978,10165,10166,10167,10168,10169,10170,9973,9974,9975,9976,9977,9978,
10007,10008,10009,10010,9813,9814,9815,9816,9817,9818,10005,10006,10007,10008,10009,10010,
10039,10040,10041,10042,9845,9846,9847,9848,9849,9850,10037,10038,10039,10040,10041,10042,
10071,10072,10073,10074,9877,9878,9879,9880,9881,9882,10069,10070,10071,10072,10073,10074,
10103,10104,10105,10106,9909,9910,9911,9912,9913,9914,10101,10102,10103,10104,10105,10106,
10135,10136,10137,10138,9941,9942,9943,9944,9945,9946,10133,10134,10135,10136,10137,10138
</chunk>
   <chunk x="144" y="336" width="16" height="16">
9845,9846,9847,9848,9849,9850,0,0,0,0,0,0,0,0,0,0,
9877,9878,9879,9880,9881,9882,0,0,0,0,0,0,0,0,0,0,
9909,9910,9911,9912,9913,9914,0,0,0,0,0,0,0,0,0,0,
9941,9942,9943,9944,9945,9946,0,0,0,0,0,0,0,0,0,0,
9973,9974,9975,9976,9977,9978,0,0,0,0,0,0,0,0,0,0,
10005,10006,10007,10008,10009,10010,0,0,0,0,0,0,0,0,0,0,
10037,10038,10039,10040,10041,10042,0,0,0,0,0,0,0,0,0,0,
10069,10070,10071,10072,10073,10074,0,0,0,0,0,0,0,0,0,0,
10101,10102,10103,10104,10105,10106,0,0,0,0,0,0,0,0,0,0,
10133,10134,10135,10136,10137,10138,0,0,0,0,0,0,0,0,0,0,
10165,10166,10167,10168,10169,10170,0,0,0,0,0,0,0,0,0,0,
9813,9814,9815,9816,9817,9818,0,0,0,0,0,0,0,0,0,0,
9845,9846,9847,9848,9849,9850,0,0,0,0,0,0,0,0,0,0,
9877,9878,9879,9880,9881,9882,0,0,0,0,0,0,0,0,0,0,
9909,9910,9911,9912,9913,9914,0,0,0,0,0,0,0,0,0,0,
9941,9942,9943,9944,9945,9946,0,0,0,0,0,0,0,0,0,0
</chunk>
   <chunk x="-336" y="352" width="16" height="16">
0,0,0,0,0,0,0,0,0,0,0,0,2212,2213,2214,2215,
0,0,0,0,0,0,0,0,0,0,0,0,0,0,0,0,
0,0,0,0,0,0,0,0,0,0,0,0,0,0,0,0,
0,0,0,0,0,0,0,0,0,0,0,0,0,0,0,0,
0,0,0,0,0,0,0,0,0,0,0,0,0,0,0,0,
0,0,0,0,0,0,0,0,0,0,0,0,0,0,0,0,
0,0,0,0,0,0,0,0,0,0,0,0,0,0,0,0,
0,0,0,0,0,0,0,0,0,0,0,0,0,0,0,0,
0,0,0,0,0,0,0,0,0,0,0,0,0,0,0,0,
0,0,0,0,0,0,0,0,0,0,0,0,0,0,0,0,
0,0,0,0,0,0,0,0,0,0,0,0,0,0,0,0,
0,0,0,0,0,0,0,0,0,0,0,0,0,0,0,0,
0,0,0,0,0,0,0,0,0,0,0,0,0,0,0,0,
0,0,0,0,0,0,9993,9994,9995,9996,9997,9998,0,0,0,0,
0,0,0,0,0,0,10025,10026,10027,10028,10029,10030,0,0,0,0,
0,0,0,0,0,0,10057,10058,10059,10060,10061,10062,0,0,0,0
</chunk>
   <chunk x="-320" y="352" width="16" height="16">
2216,2217,2660,2661,2094,2095,2147486309,2147486308,2666,2667,2666,2667,2666,2667,2666,2667,
0,0,2628,2629,2062,2063,2147486277,2147486276,2634,2635,2634,2635,2634,2635,2634,2635,
0,0,2660,2661,2094,2095,2147486309,2147486308,2666,2667,2666,2667,2666,2667,2666,2667,
0,0,2628,2629,2062,2063,2147486277,2147486276,2634,2635,2634,2635,2634,2635,2634,2635,
0,0,2660,2661,2094,2095,2147486309,2147486308,2666,2667,2666,2667,2666,2667,2666,2667,
0,0,2628,2629,2062,2063,2147486277,2147486276,2634,2635,2634,2635,2634,2635,2634,2635,
0,0,2660,2661,2094,2095,2147486309,2147486308,2666,2667,2666,2667,2666,2667,2666,2667,
0,0,2628,2629,2062,2063,3221228005,3221228004,2566,2567,2566,2567,2566,2567,2566,2567,
0,0,2660,2661,2094,2095,3221227973,3221227972,2598,2599,2598,2599,2598,2599,2598,2599,
0,0,1073744420,1073744421,1073744422,1073744423,1073744422,1073744423,1073744422,1073744423,1073744422,1073744423,1073744422,1073744423,1073744422,1073744423,
0,0,1073744388,1073744389,1073744390,1073744391,1073744390,1073744391,1073744390,1073744391,1073744390,1073744391,1073744390,1073744391,1073744390,1073744391,
0,0,0,0,0,0,0,0,0,0,0,0,0,0,0,0,
0,0,0,0,0,0,0,0,0,0,0,0,0,0,0,0,
0,0,0,0,0,0,0,0,0,0,0,0,0,0,2634,2635,
0,0,0,0,0,0,0,0,0,0,0,0,0,0,2666,2667,
0,0,0,0,0,0,0,0,0,0,0,0,0,0,2698,2699
</chunk>
   <chunk x="-304" y="352" width="16" height="16">
2666,2667,2666,2667,2666,2667,2666,2667,2730,2731,2660,2661,2094,2095,2147486309,2147486308,
2634,2635,2634,2635,2634,2635,2634,2635,2698,2699,2628,2629,2062,2063,2147486277,2147486276,
2666,2667,2666,2667,2666,2667,2666,2667,2730,2731,2660,2661,2094,2095,2147486309,2147486308,
2634,2635,2634,2635,2634,2635,2634,2635,2698,2699,2628,2629,2062,2063,2147486277,2147486276,
2666,2667,2666,2667,2666,2667,2666,2667,2730,2731,2660,2661,2094,2095,2147486309,2147486308,
2634,2635,2634,2635,2634,2635,2634,2635,2698,2699,2628,2629,2062,2063,2147486277,2147486276,
2666,2667,2666,2667,2666,2667,2666,2667,2730,2731,2660,2661,2094,2095,2147486309,2147486308,
2566,2567,2566,2567,2566,2567,2566,2567,2566,2567,1073744356,1073744357,2062,2063,2147486277,2147486276,
2598,2599,2598,2599,2598,2599,2598,2599,2598,2599,1073744324,1073744325,2094,2095,2147486309,2147486308,
1073744422,1073744423,1073744422,1073744423,1073744422,1073744423,1073744422,1073744423,1073744422,1073744423,1073744422,1073744423,1073744422,1073744423,3221228069,3221228068,
1073744390,1073744391,1073744390,1073744391,1073744390,1073744391,1073744390,1073744391,1073744390,1073744391,1073744390,1073744391,1073744390,1073744391,3221228037,3221228036,
0,0,0,0,0,0,0,0,0,0,0,0,0,0,0,0,
0,0,0,0,0,0,0,0,0,0,0,0,0,0,0,0,
2634,2635,2634,2635,0,0,0,0,0,0,0,0,0,0,0,0,
2666,2667,2666,2667,0,0,0,0,0,0,0,0,0,0,0,0,
2698,2699,2698,2699,0,0,0,0,0,0,0,0,0,0,0,0
</chunk>
   <chunk x="-288" y="352" width="16" height="16">
10165,10166,10167,10168,10169,10170,9973,9974,9975,9976,9977,9978,10165,10166,10167,10168,
9813,9814,9815,9816,9817,9818,10005,10006,10007,10008,10009,10010,9801,9802,9803,9804,
9845,9846,9847,9848,9849,9850,10037,10038,10039,10040,10041,10042,9833,9834,9835,9836,
9877,9878,9879,9880,9881,9882,10069,10070,10071,10072,10073,10074,9865,9866,9867,9868,
9909,9910,9911,9912,9913,9914,10101,10102,10103,10104,10105,10106,9897,9898,9899,9900,
9941,9942,9943,9944,9945,9946,10133,10134,10135,10136,10137,10138,9929,9930,9931,9932,
9973,9974,9975,9976,9977,9978,10165,10166,10167,10168,10169,10170,9961,9962,9963,9964,
0,0,0,0,0,0,0,0,0,0,0,0,9993,9994,9995,9996,
0,0,0,0,0,0,0,0,0,0,0,0,10025,10026,10027,10028,
0,0,0,0,0,0,0,0,0,0,0,0,10057,10058,10059,10060,
0,0,0,0,0,0,0,0,0,0,0,0,10089,10090,10091,10092,
0,0,0,0,0,0,0,0,0,0,0,0,10121,10122,10123,10124,
0,0,0,0,0,0,0,0,0,0,0,0,10153,10154,10155,10156,
2052,2053,2054,2055,2056,2057,2052,2053,2054,2055,2056,2057,9801,9802,9803,9804,
2084,2085,2086,2087,2088,2089,2084,2085,2086,2087,2088,2089,9833,9834,9835,9836,
2116,2117,2118,2119,2120,2121,2116,2117,2118,2119,2120,2121,9865,9866,9867,9868
</chunk>
   <chunk x="-272" y="352" width="16" height="16">
10169,10170,9961,9962,9963,9964,9965,9966,0,0,0,0,0,0,0,0,
9805,9806,9993,9994,9995,9996,9997,9998,0,0,0,0,0,0,0,0,
9837,9838,10025,10026,10027,10028,10029,10030,0,0,0,0,0,0,0,0,
9869,9870,10057,10058,10059,10060,10061,10062,0,0,0,0,0,0,0,0,
9901,9902,10089,10090,10091,10092,10093,10094,0,0,0,0,0,0,0,0,
9933,9934,10121,10122,10123,10124,10125,10126,0,0,0,0,0,0,0,0,
9965,9966,10153,10154,10155,10156,10157,10158,0,0,0,0,0,0,0,0,
9997,9998,9801,9802,9803,9804,9805,9806,9993,9994,9995,9996,9997,9998,0,0,
10029,10030,9833,9834,9835,9836,9837,9838,10025,10026,10027,10028,10029,10030,0,0,
10061,10062,9865,9866,9867,9868,9869,9870,10057,10058,10059,10060,10061,10062,0,0,
10093,10094,9897,9898,9899,9900,9901,9902,10089,10090,10091,10092,10093,10094,0,0,
10125,10126,9929,9930,9931,9932,9933,9934,10121,10122,10123,10124,10125,10126,0,0,
10157,10158,9961,9962,9963,9964,9965,9966,10153,10154,10155,10156,10157,10158,0,0,
9805,9806,9993,9994,9995,9996,9997,9998,9801,9802,9803,9804,9805,9806,0,0,
9837,9838,10025,10026,10027,10028,10029,10030,9833,9834,9835,9836,9837,9838,0,0,
9869,9870,10057,10058,10059,10060,10061,10062,9865,9866,9867,9868,9869,9870,0,0
</chunk>
   <chunk x="-256" y="352" width="16" height="16">
0,0,0,0,0,0,0,0,0,0,2666,2667,2666,2667,2730,2731,
0,0,0,0,0,0,0,0,0,0,0,0,0,0,0,0,
0,0,0,0,0,0,0,0,0,0,0,0,0,0,0,0,
0,0,0,0,0,0,0,0,0,0,0,0,0,0,0,0,
0,0,0,0,0,0,0,0,0,0,0,0,0,0,0,0,
0,0,0,0,0,0,0,0,0,0,0,0,0,0,0,0,
0,0,0,0,0,0,0,0,0,0,0,0,0,0,0,0,
0,0,0,0,0,0,0,0,0,0,0,0,0,0,0,0,
0,0,0,0,0,0,0,0,0,0,0,0,0,0,0,0,
0,0,0,0,0,0,0,0,0,0,0,0,0,0,0,0,
0,0,0,0,0,0,0,0,0,0,0,0,0,0,0,0,
0,0,0,0,0,0,0,0,0,0,0,0,0,0,0,0,
0,0,0,0,0,0,0,0,0,0,0,0,0,0,0,0,
0,0,0,0,0,0,0,0,0,0,0,0,0,0,0,0,
0,0,0,0,0,0,0,0,0,0,0,0,0,0,0,0,
0,0,0,0,0,0,0,0,0,0,0,0,0,0,0,0
</chunk>
   <chunk x="-64" y="352" width="16" height="16">
0,0,0,0,0,0,0,0,0,0,0,0,0,0,0,0,
0,0,0,0,0,0,0,0,0,0,0,0,0,0,9291,9292,
0,0,0,0,0,0,0,0,0,0,0,0,0,0,9323,9324,
0,0,0,0,0,0,0,0,0,0,0,0,0,0,9289,9290,
0,0,0,0,0,0,0,0,0,0,0,0,0,0,9321,9322,
0,0,0,0,0,0,0,0,0,0,9481,9482,9483,9484,2248,2249,
0,0,0,0,0,0,0,0,0,0,9513,9514,9515,9516,2280,2281,
0,0,0,0,0,0,0,0,0,0,9289,9290,0,0,0,0,
0,0,0,0,0,0,0,0,0,0,9321,9322,0,0,0,0,
0,0,0,0,0,0,0,0,0,0,9289,9290,0,0,0,0,
0,0,0,0,0,0,0,0,0,0,9321,9322,0,0,0,0,
0,0,0,0,9481,9482,9483,9484,9353,9354,0,0,0,0,0,0,
0,0,0,0,9513,9514,9515,9516,9385,9386,0,0,0,0,0,0,
0,0,9291,9292,0,0,0,0,0,0,0,0,0,0,0,0,
0,0,9323,9324,0,0,0,0,0,0,0,0,0,0,0,0,
0,0,9289,9290,0,0,0,0,0,0,0,0,0,0,0,0
</chunk>
   <chunk x="-48" y="352" width="16" height="16">
9513,9514,9515,9516,9385,9386,0,0,0,0,0,0,2280,2281,0,0,
0,0,0,0,0,0,0,0,0,0,0,0,0,0,0,0,
0,0,0,0,0,0,0,0,0,0,0,0,0,0,0,0,
0,0,0,0,0,0,0,0,0,0,0,0,0,0,0,0,
0,0,0,0,0,0,0,0,0,0,0,0,0,0,0,0,
0,0,0,0,0,0,0,0,0,0,0,0,0,0,0,0,
0,0,0,0,0,0,0,0,0,0,0,0,0,0,0,0,
0,0,0,0,0,0,2564,2565,2566,2567,2566,2567,2566,2567,2566,2567,
0,0,0,0,0,0,2596,2597,2598,2599,2598,2599,2598,2599,2598,2599,
0,0,0,0,0,0,2628,2629,2062,2063,2147486149,2147486148,1073744422,1073744423,1073744422,1073744423,
0,0,0,0,0,0,2660,2661,2094,2095,2147486181,2147486180,1073744390,1073744391,1073744390,1073744391,
0,0,0,0,0,0,2628,2629,2062,2063,2147486277,2147486276,0,0,0,0,
0,0,0,0,0,0,2660,2661,2094,2095,2147486309,2147486308,0,0,0,0,
0,0,0,0,0,0,2628,2629,2062,2063,2147486277,2147486276,9251,9252,9253,9254,
0,0,0,0,0,0,2660,2661,2094,2095,2147486309,2147486308,9283,9284,9285,9286,
0,0,0,0,0,0,2628,2629,2062,2063,2147486277,2147486276,9315,9316,9317,9318
</chunk>
   <chunk x="-32" y="352" width="16" height="16">
0,0,0,0,0,0,0,0,0,0,0,0,0,0,0,0,
0,0,0,0,0,0,0,0,0,0,0,0,0,0,0,0,
0,0,0,0,0,0,0,0,0,0,0,0,0,0,0,0,
0,0,0,0,0,0,0,0,0,0,0,0,0,0,0,0,
0,0,0,0,0,0,0,0,0,0,0,0,0,0,0,0,
0,0,0,0,0,0,0,0,0,0,0,0,0,0,0,0,
0,0,0,0,0,0,0,0,0,0,0,0,0,0,0,0,
2566,2567,2566,2567,2566,2567,2566,2567,2566,2567,2566,2567,2566,2567,2566,2567,
2598,2599,2598,2599,2598,2599,2598,2599,2598,2599,2598,2599,2598,2599,2598,2599,
1073744422,1073744423,1073744422,1073744423,1073744422,1073744423,1073744422,1073744423,1073744422,1073744423,1073744422,1073744423,1073744422,1073744423,1073744422,1073744423,
1073744390,1073744391,1073744390,1073744391,1073744390,1073744391,1073744390,1073744391,1073744390,1073744391,1073744390,1073744391,1073744390,1073744391,1073744390,1073744391,
0,0,0,0,3221234800,3221234799,9293,9294,9293,9294,9293,9294,9293,9294,9293,9294,
0,0,0,0,3221234768,3221234767,9325,9326,9325,9326,9325,9326,9325,9326,9325,9326,
2147492900,2147492899,0,0,3221234736,3221234735,9549,9550,9489,9490,9491,9492,2147493138,2147493137,2147493198,2147493197,
2147492932,2147492931,0,0,3221234704,3221234703,9581,9582,9521,9522,9523,9524,2147493170,2147493169,2147493230,2147493229,
2147492964,2147492963,0,0,2147492880,2147492879,9551,9552,9553,9554,9555,9556,2147493202,2147493201,9551,9552
</chunk>
   <chunk x="-16" y="352" width="16" height="16">
0,0,0,0,0,0,0,0,0,0,0,0,0,0,0,0,
0,0,0,0,0,0,0,0,0,0,0,0,0,0,0,0,
0,0,0,0,0,0,0,0,0,0,0,0,0,0,0,0,
0,0,0,0,0,0,0,0,0,0,0,0,0,0,0,0,
0,0,0,0,0,0,0,0,0,0,0,0,0,0,0,0,
0,0,0,0,0,0,0,0,0,0,0,0,0,0,0,0,
0,0,0,0,0,0,0,0,0,0,0,0,0,0,0,0,
2566,2567,2566,2567,2566,2567,2566,2567,2566,2567,2566,2567,2566,2567,2147486213,2147486212,
2598,2599,2598,2599,2598,2599,2598,2599,2598,2599,2598,2599,2598,2599,2147486245,2147486244,
1073744422,1073744423,1073744422,1073744423,1073744422,1073744423,1073744422,1073744423,1073744422,1073744423,2500,2501,2062,2063,2147486277,2147486276,
1073744390,1073744391,1073744390,1073744391,1073744390,1073744391,1073744390,1073744391,1073744390,1073744391,2532,2533,2094,2095,2147486309,2147486308,
1073751151,1073751152,0,0,0,0,0,0,0,0,2628,2629,2062,2063,2147486277,2147486276,
1073751119,1073751120,0,0,0,0,0,0,0,0,2660,2661,2094,2095,2147486309,2147486308,
1073751087,1073751088,0,0,9251,9252,9253,9254,2147492900,2147492899,2628,2629,2062,2063,2147486277,2147486276,
1073751055,1073751056,0,0,9283,9284,9285,9286,2147492932,2147492931,2660,2661,2094,2095,2147486309,2147486308,
9231,9232,0,0,9315,9316,9317,9318,2147492964,2147492963,2628,2629,2062,2063,2147486277,2147486276
</chunk>
   <chunk x="0" y="352" width="16" height="16">
2730,2731,2730,2731,2730,2731,10159,10160,10161,10162,10163,10164,10159,10160,10161,10162,
0,0,0,0,0,0,0,0,0,0,0,0,0,0,0,0,
0,0,0,0,0,0,0,0,0,0,0,0,0,0,0,0,
0,0,0,0,0,0,0,0,0,0,0,0,0,0,0,0,
0,0,0,0,0,0,0,0,0,0,0,0,0,0,0,0,
0,0,0,0,0,0,0,0,0,0,0,0,0,0,0,0,
0,0,0,0,0,0,0,0,0,0,0,0,0,0,0,0,
0,0,0,0,0,0,0,0,0,0,0,0,2052,2053,2054,2055,
0,0,0,0,0,0,0,0,0,0,0,0,2084,2085,2086,2087,
0,0,0,0,0,0,0,0,0,0,0,0,2116,2117,2118,2119,
0,0,0,0,0,0,0,0,0,0,0,0,2148,2149,2150,2151,
0,0,0,0,0,0,0,0,0,0,0,0,2180,2181,2182,2183,
0,0,0,0,0,0,0,0,0,0,0,0,2212,2213,2214,2215,
2566,2567,2566,2567,2566,2567,2566,2567,2566,2567,2566,2567,2566,2567,2566,2567,
2598,2599,2598,2599,2598,2599,2598,2599,2598,2599,2598,2599,2598,2599,2598,2599,
1073744422,1073744423,1073744422,1073744423,1073744422,1073744423,1073744422,1073744423,1073744422,1073744423,1073744422,1073744423,1073744422,1073744423,1073744422,1073744423
</chunk>
   <chunk x="16" y="352" width="16" height="16">
10163,10164,9967,9968,9969,9970,9971,9972,10159,10160,10161,10162,10163,10164,9967,9968,
0,0,9999,10000,10001,10002,10003,10004,9807,9808,9809,9810,9811,9812,9999,10000,
0,0,10031,10032,10033,10034,10035,10036,9839,9840,9841,9842,9843,9844,10031,10032,
0,0,10063,10064,10065,10066,10067,10068,9871,9872,9873,9874,9875,9876,10063,10064,
0,0,10095,10096,10097,10098,10099,10100,9903,9904,9905,9906,9907,9908,10095,10096,
0,0,10127,10128,10129,10130,10131,10132,9935,9936,9937,9938,9939,9940,10127,10128,
0,0,10159,10160,10161,10162,10163,10164,9967,9968,9969,9970,9971,9972,10159,10160,
2056,2057,0,0,0,0,0,0,9999,10000,10001,10002,10003,10004,9807,9808,
2088,2089,0,0,0,0,0,0,10031,10032,10033,10034,10035,10036,9839,9840,
2120,2121,0,0,0,0,0,0,10063,10064,10065,10066,10067,10068,9871,9872,
2152,2153,0,0,0,0,0,0,10095,10096,10097,10098,10099,10100,9903,9904,
2184,2185,0,0,0,0,0,0,10127,10128,10129,10130,10131,10132,9935,9936,
2216,2217,0,0,0,0,0,0,10159,10160,10161,10162,10163,10164,9967,9968,
2566,2567,2566,2567,2566,2567,2147486213,2147486212,9807,9808,9809,9810,9811,9812,9999,10000,
2598,2599,2598,2599,2598,2599,2147486245,2147486244,9839,9840,9841,9842,9843,9844,10031,10032,
1073744422,1073744423,2500,2501,2062,2063,2147486277,2147486276,9871,9872,9873,9874,9875,9876,10063,10064
</chunk>
   <chunk x="32" y="352" width="16" height="16">
9969,9970,9971,9972,10159,10160,10161,10162,10163,10164,9967,9968,9969,9970,9971,9972,
10001,10002,10003,10004,9807,9808,9809,9810,9811,9812,9999,10000,10001,10002,10003,10004,
10033,10034,10035,10036,9839,9840,9841,9842,9843,9844,10031,10032,10033,10034,10035,10036,
10065,10066,10067,10068,9871,9872,9873,9874,9875,9876,10063,10064,10065,10066,10067,10068,
10097,10098,10099,10100,9903,9904,9905,9906,9907,9908,10095,10096,10097,10098,10099,10100,
10129,10130,10131,10132,9935,9936,9937,9938,9939,9940,10127,10128,10129,10130,10131,10132,
10161,10162,10163,10164,9967,9968,9969,9970,9971,9972,10159,10160,10161,10162,10163,10164,
9809,9810,9811,9812,9999,10000,10001,10002,10003,10004,9807,9808,9809,9810,9811,9812,
9841,9842,9843,9844,10031,10032,10033,10034,10035,10036,9839,9840,9841,9842,9843,9844,
9873,9874,9875,9876,10063,10064,10065,10066,10067,10068,9871,9872,9873,9874,9875,9876,
9905,9906,9907,9908,10095,10096,10097,10098,10099,10100,9903,9904,9905,9906,9907,9908,
9937,9938,9939,9940,10127,10128,10129,10130,10131,10132,9935,9936,9937,9938,9939,9940,
9969,9970,9971,9972,10159,10160,10161,10162,10163,10164,9967,9968,9969,9970,9971,9972,
10001,10002,10003,10004,9807,9808,9809,9810,9811,9812,9999,10000,10001,10002,10003,10004,
10033,10034,10035,10036,9839,9840,9841,9842,9843,9844,10031,10032,10033,10034,10035,10036,
10065,10066,10067,10068,9871,9872,9873,9874,9875,9876,10063,10064,10065,10066,10067,10068
</chunk>
   <chunk x="48" y="352" width="16" height="16">
10159,10160,10161,10162,10163,10164,9967,9968,9969,9970,9971,9972,10159,10160,10161,10162,
9807,9808,9809,9810,9811,9812,9999,10000,10001,10002,10003,10004,9807,9808,9809,9810,
9839,9840,9841,9842,9843,9844,10031,10032,10033,10034,10035,10036,9839,9840,9841,9842,
9871,9872,9873,9874,9875,9876,10063,10064,10065,10066,10067,10068,9871,9872,9873,9874,
9903,9904,9905,9906,9907,9908,10095,10096,10097,10098,10099,10100,9903,9904,9905,9906,
9935,9936,9937,9938,9939,9940,10127,10128,10129,10130,10131,10132,9935,9936,9937,9938,
9967,9968,9969,9970,9971,9972,10159,10160,10161,10162,10163,10164,9967,9968,9969,9970,
9999,10000,10001,10002,10003,10004,9807,9808,9809,9810,9811,9812,9999,10000,10001,10002,
10031,10032,10033,10034,10035,10036,9839,9840,9841,9842,9843,9844,10031,10032,10033,10034,
10063,10064,10065,10066,10067,10068,9871,9872,9873,9874,9875,9876,10063,10064,10065,10066,
10095,10096,10097,10098,10099,10100,9903,9904,9905,9906,9907,9908,10095,10096,10097,10098,
10127,10128,10129,10130,10131,10132,9935,9936,9937,9938,9939,9940,10127,10128,10129,10130,
10159,10160,10161,10162,10163,10164,9967,9968,9969,9970,9971,9972,10159,10160,10161,10162,
9807,9808,9809,9810,9811,9812,9999,10000,10001,10002,10003,10004,9807,9808,9809,9810,
9839,9840,9841,9842,9843,9844,10031,10032,10033,10034,10035,10036,9839,9840,9841,9842,
9871,9872,9873,9874,9875,9876,10063,10064,10065,10066,10067,10068,9871,9872,9873,9874
</chunk>
   <chunk x="64" y="352" width="16" height="16">
10163,10164,9967,9968,9969,9970,9971,9972,10159,10160,10161,10162,10163,10164,9961,9962,
9811,9812,9999,10000,10001,10002,10003,10004,9807,9808,9809,9810,9811,9812,9993,9994,
9843,9844,10031,10032,10033,10034,10035,10036,9839,9840,9841,9842,9843,9844,10025,10026,
9875,9876,10063,10064,10065,10066,10067,10068,9871,9872,9873,9874,9875,9876,10057,10058,
9907,9908,10095,10096,10097,10098,10099,10100,9903,9904,9905,9906,9907,9908,10089,10090,
9939,9940,10127,10128,10129,10130,10131,10132,9935,9936,9937,9938,9939,9940,10121,10122,
9971,9972,10159,10160,10161,10162,10163,10164,9967,9968,9969,9970,9971,9972,10153,10154,
10003,10004,9807,9808,9809,9810,9811,9812,9993,9994,9995,9996,9997,9998,9807,9808,
10035,10036,9839,9840,9841,9842,9843,9844,10025,10026,10027,10028,10029,10030,9839,9840,
10067,10068,9871,9872,9873,9874,9875,9876,10057,10058,10059,10060,10061,10062,9871,9872,
10099,10100,9903,9904,9905,9906,9907,9908,10089,10090,10091,10092,10093,10094,9903,9904,
10131,10132,9935,9936,9937,9938,9939,9940,10121,10122,10123,10124,10125,10126,9935,9936,
10163,10164,9967,9968,9969,9970,9971,9972,10153,10154,10155,10156,10157,10158,9967,9968,
9811,9812,9999,10000,10001,10002,10003,10004,9807,9808,9809,9810,9811,9812,9993,9994,
9843,9844,10031,10032,10033,10034,10035,10036,9839,9840,9841,9842,9843,9844,10025,10026,
9875,9876,10063,10064,10065,10066,10067,10068,9871,9872,9873,9874,9875,9876,10057,10058
</chunk>
   <chunk x="80" y="352" width="16" height="16">
9963,9964,9965,9966,10153,10154,10155,10156,10157,10158,9973,9974,9975,9976,9977,9978,
9995,9996,9997,9998,9801,9802,9803,9804,9805,9806,10005,10006,10007,10008,10009,10010,
10027,10028,10029,10030,9833,9834,9835,9836,9837,9838,10037,10038,10039,10040,10041,10042,
10059,10060,10061,10062,9865,9866,9867,9868,9869,9870,10069,10070,10071,10072,10073,10074,
10091,10092,10093,10094,9897,9898,9899,9900,9901,9902,10101,10102,10103,10104,10105,10106,
10123,10124,10125,10126,9929,9930,9931,9932,9933,9934,10133,10134,10135,10136,10137,10138,
10155,10156,10157,10158,9961,9962,9963,9964,9965,9966,10165,10166,10167,10168,10169,10170,
9809,9810,9811,9812,9993,9994,9995,9996,9997,9998,9813,9814,9815,9816,9817,9818,
9841,9842,9843,9844,10025,10026,10027,10028,10029,10030,9845,9846,9847,9848,9849,9850,
9873,9874,9875,9876,10057,10058,10059,10060,10061,10062,9877,9878,9879,9880,9881,9882,
9905,9906,9907,9908,10089,10090,10091,10092,10093,10094,9909,9910,9911,9912,9913,9914,
9937,9938,9939,9940,10121,10122,10123,10124,10125,10126,9941,9942,9943,9944,9945,9946,
9969,9970,9971,9972,10153,10154,10155,10156,10157,10158,9973,9974,9975,9976,9977,9978,
9995,9996,9997,9998,9801,9802,9803,9804,9805,9806,10005,10006,10007,10008,10009,10010,
10027,10028,10029,10030,9833,9834,9835,9836,9837,9838,10037,10038,10039,10040,10041,10042,
10059,10060,10061,10062,9865,9866,9867,9868,9869,9870,10069,10070,10071,10072,10073,10074
</chunk>
   <chunk x="96" y="352" width="16" height="16">
10165,10166,10167,10168,10169,10170,9961,9962,9963,9964,9965,9966,0,0,0,0,
9813,9814,9815,9816,9817,9818,0,0,0,0,0,0,0,0,0,0,
9845,9846,9847,9848,9849,9850,0,0,0,0,0,0,0,0,0,0,
9877,9878,9879,9880,9881,9882,0,0,0,0,0,0,0,0,0,0,
9909,9910,9911,9912,9913,9914,0,0,0,0,0,0,0,0,0,0,
9941,9942,9943,9944,9945,9946,0,0,0,0,2147485897,2147485896,0,0,0,0,
9973,9974,9975,9976,9977,9978,0,0,0,0,2147485929,2147485928,0,0,0,0,
0,0,0,0,0,0,0,0,0,0,0,0,0,0,0,0,
0,0,0,0,0,0,0,0,0,0,0,0,0,0,0,0,
0,0,0,0,0,0,0,0,0,0,0,0,0,0,0,0,
0,0,0,0,0,0,0,0,0,0,0,0,0,0,0,0,
0,0,0,0,2147485897,2147485896,0,0,0,0,0,0,0,0,0,0,
0,0,0,0,2147485929,2147485928,0,0,0,0,0,0,0,0,0,0,
0,0,0,0,0,0,0,0,0,0,0,0,0,0,0,0,
0,0,0,0,0,0,0,0,0,0,0,0,0,0,0,0,
0,0,0,0,0,0,0,0,0,0,0,0,0,0,0,0
</chunk>
   <chunk x="112" y="352" width="16" height="16">
0,0,10153,10154,10155,10156,10157,10158,9973,9974,9975,9976,9977,9978,10165,10166,
0,0,9801,9802,9803,9804,9805,9806,10005,10006,10007,10008,10009,10010,9813,9814,
0,0,9833,9834,9835,9836,9837,9838,10037,10038,10039,10040,10041,10042,9845,9846,
0,0,9865,9866,9867,9868,9869,9870,10069,10070,10071,10072,10073,10074,9877,9878,
0,0,9897,9898,9899,9900,9901,9902,10101,10102,10103,10104,10105,10106,9909,9910,
0,0,9929,9930,9931,9932,9933,9934,10133,10134,10135,10136,10137,10138,9941,9942,
0,0,9961,9962,9963,9964,9965,9966,10165,10166,10167,10168,10169,10170,9973,9974,
0,0,0,0,0,0,0,0,9813,9814,9815,9816,9817,9818,10005,10006,
0,0,0,0,0,0,0,0,9845,9846,9847,9848,9849,9850,10037,10038,
0,0,0,0,0,0,0,0,9877,9878,9879,9880,9881,9882,10069,10070,
0,0,0,0,0,0,0,0,9909,9910,9911,9912,9913,9914,10101,10102,
0,0,0,0,0,0,0,0,9941,9942,9943,9944,9945,9946,10133,10134,
0,0,0,0,0,0,0,0,9973,9974,9975,9976,9977,9978,10165,10166,
0,0,9813,9814,9815,9816,9817,9818,10005,10006,10007,10008,10009,10010,9813,9814,
0,0,9845,9846,9847,9848,9849,9850,10037,10038,10039,10040,10041,10042,9845,9846,
0,0,9877,9878,9879,9880,9881,9882,10069,10070,10071,10072,10073,10074,9877,9878
</chunk>
   <chunk x="128" y="352" width="16" height="16">
10167,10168,10169,10170,9973,9974,9975,9976,9977,9978,10165,10166,10167,10168,10169,10170,
9815,9816,9817,9818,10005,10006,10007,10008,10009,10010,9813,9814,9815,9816,9817,9818,
9847,9848,9849,9850,10037,10038,10039,10040,10041,10042,9845,9846,9847,9848,9849,9850,
9879,9880,9881,9882,10069,10070,10071,10072,10073,10074,9877,9878,9879,9880,9881,9882,
9911,9912,9913,9914,10101,10102,10103,10104,10105,10106,9909,9910,9911,9912,9913,9914,
9943,9944,9945,9946,10133,10134,10135,10136,10137,10138,9941,9942,9943,9944,9945,9946,
9975,9976,9977,9978,10165,10166,10167,10168,10169,10170,9973,9974,9975,9976,9977,9978,
10007,10008,10009,10010,9813,9814,9815,9816,9817,9818,10005,10006,10007,10008,10009,10010,
10039,10040,10041,10042,9845,9846,9847,9848,9849,9850,10037,10038,10039,10040,10041,10042,
10071,10072,10073,10074,9877,9878,9879,9880,9881,9882,10069,10070,10071,10072,10073,10074,
10103,10104,10105,10106,9909,9910,9911,9912,9913,9914,10101,10102,10103,10104,10105,10106,
10135,10136,10137,10138,9941,9942,9943,9944,9945,9946,10133,10134,10135,10136,10137,10138,
10167,10168,10169,10170,9973,9974,9975,9976,9977,9978,10165,10166,10167,10168,10169,10170,
9815,9816,9817,9818,10005,10006,10007,10008,10009,10010,9813,9814,9815,9816,9817,9818,
9847,9848,9849,9850,10037,10038,10039,10040,10041,10042,9845,9846,9847,9848,9849,9850,
9879,9880,9881,9882,10069,10070,10071,10072,10073,10074,9877,9878,9879,9880,9881,9882
</chunk>
   <chunk x="144" y="352" width="16" height="16">
9973,9974,9975,9976,9977,9978,0,0,0,0,0,0,0,0,0,0,
10005,10006,10007,10008,10009,10010,0,0,0,0,0,0,0,0,0,0,
10037,10038,10039,10040,10041,10042,0,0,0,0,0,0,0,0,0,0,
10069,10070,10071,10072,10073,10074,0,0,0,0,0,0,0,0,0,0,
10101,10102,10103,10104,10105,10106,0,0,0,0,0,0,0,0,0,0,
10133,10134,10135,10136,10137,10138,0,0,0,0,0,0,0,0,0,0,
10165,10166,10167,10168,10169,10170,0,0,0,0,0,0,0,0,0,0,
9813,9814,9815,9816,9817,9818,0,0,0,0,0,0,0,0,0,0,
9845,9846,9847,9848,9849,9850,0,0,0,0,0,0,0,0,0,0,
9877,9878,9879,9880,9881,9882,0,0,0,0,0,0,0,0,0,0,
9909,9910,9911,9912,9913,9914,0,0,0,0,0,0,0,0,0,0,
9941,9942,9943,9944,9945,9946,0,0,0,0,0,0,0,0,0,0,
9973,9974,9975,9976,9977,9978,0,0,0,0,0,0,0,0,0,0,
10005,10006,10007,10008,10009,10010,0,0,0,0,0,0,0,0,0,0,
10037,10038,10039,10040,10041,10042,0,0,0,0,0,0,0,0,0,0,
10069,10070,10071,10072,10073,10074,0,0,0,0,0,0,0,0,0,0
</chunk>
   <chunk x="-336" y="368" width="16" height="16">
0,0,0,0,0,0,10089,10090,10091,10092,10093,10094,0,0,0,0,
0,0,0,0,0,0,10121,10122,10123,10124,10125,10126,0,0,0,0,
0,0,0,0,0,0,10153,10154,10155,10156,10157,10158,0,0,0,0,
0,0,0,0,0,0,9813,9814,9815,9816,9817,9818,0,0,0,0,
0,0,0,0,0,0,9845,9846,9847,9848,9849,9850,0,0,0,0,
0,0,0,0,0,0,9877,9878,9879,9880,9881,9882,0,0,0,0,
0,0,0,0,0,0,9909,9910,9911,9912,9913,9914,0,0,0,0,
0,0,0,0,0,0,9941,9942,9943,9944,9945,9946,0,0,0,0,
0,0,0,0,0,0,9973,9974,9975,9976,9977,9978,0,0,0,0,
9813,9814,9815,9816,9817,9818,10005,10006,10007,10008,10009,10010,0,0,0,0,
9845,9846,9847,9848,9849,9850,10037,10038,10039,10040,10041,10042,0,0,0,0,
9877,9878,9879,9880,9881,9882,10069,10070,10071,10072,10073,10074,0,0,0,0,
9909,9910,9911,9912,9913,9914,10101,10102,10103,10104,10105,10106,0,0,0,0,
9941,9942,9943,9944,9945,9946,10133,10134,10135,10136,10137,10138,0,0,0,0,
9973,9974,9975,9976,9977,9978,10165,10166,10167,10168,10169,10170,0,0,0,0,
10005,10006,10007,10008,10009,10010,9801,9802,9803,9804,9805,9806,9993,9994,9995,9996
</chunk>
   <chunk x="-320" y="368" width="16" height="16">
0,0,0,0,0,0,0,0,0,0,0,0,0,0,2730,2731,
0,0,0,0,0,0,0,0,0,0,0,0,0,0,2698,2699,
0,0,0,0,0,0,0,0,0,0,0,0,0,0,2730,2731,
0,0,0,0,0,0,0,0,0,0,0,0,0,0,0,0,
0,0,0,0,0,0,0,0,0,0,0,0,0,0,0,0,
0,0,0,0,0,0,0,0,0,0,0,0,0,0,0,0,
0,0,0,0,0,0,0,0,0,0,0,0,0,0,0,0,
0,0,0,0,0,0,0,0,0,0,0,0,0,0,0,0,
0,0,0,0,0,0,0,0,0,0,0,0,0,0,0,0,
0,0,0,0,0,0,0,0,0,0,0,0,0,0,0,0,
0,0,0,0,0,0,0,0,0,0,0,0,0,0,0,0,
0,0,0,0,0,0,0,0,0,0,0,0,0,0,0,0,
0,0,0,0,0,0,0,0,0,0,0,0,0,0,0,0,
0,0,0,0,0,0,0,0,0,0,0,0,0,0,0,0,
0,0,0,0,0,0,0,0,0,0,0,0,0,0,0,0,
9997,9998,9801,9802,9803,9804,9805,9806,9993,9994,9995,9996,9997,9998,9801,9802
</chunk>
   <chunk x="-304" y="368" width="16" height="16">
2730,2731,2730,2731,0,0,0,0,0,0,0,0,0,0,0,0,
2698,2699,2698,2699,0,0,0,0,0,0,0,0,0,0,0,0,
2730,2731,2730,2731,0,0,0,0,0,0,0,0,0,0,0,0,
0,0,0,0,0,0,0,0,0,0,0,0,0,0,0,0,
0,0,0,0,0,0,0,0,0,0,0,0,0,0,0,0,
0,0,0,0,0,0,0,0,0,0,0,0,0,0,0,0,
0,0,0,0,0,0,0,0,0,0,0,0,0,0,0,0,
0,0,0,0,0,0,0,0,0,0,0,0,0,0,0,0,
0,0,0,0,0,0,0,0,0,0,0,0,0,0,0,0,
0,0,0,0,0,0,0,0,0,0,0,0,0,0,0,0,
0,0,0,0,0,0,0,0,0,0,0,0,0,0,0,0,
0,0,0,0,0,0,0,0,0,0,0,0,0,0,0,0,
0,0,0,0,0,0,0,0,0,0,0,0,0,0,0,0,
0,0,0,0,0,0,0,0,0,0,0,0,0,0,0,0,
0,0,0,0,0,0,0,0,0,0,0,0,0,0,0,0,
9803,9804,9805,9806,9993,9994,9995,9996,9997,9998,9801,9802,9803,9804,9805,9806
</chunk>
   <chunk x="-288" y="368" width="16" height="16">
2148,2149,2150,2151,2152,2153,2148,2149,2150,2151,2152,2153,9897,9898,9899,9900,
2180,2181,2182,2183,2184,2185,2180,2181,2182,2183,2184,2185,9929,9930,9931,9932,
2212,2213,2214,2215,2216,2217,2212,2213,2214,2215,2216,2217,9961,9962,9963,9964,
2052,2053,2054,2055,2056,2057,2052,2053,2054,2055,2056,2057,9993,9994,9995,9996,
2084,2085,2086,2087,2088,2089,2084,2085,2086,2087,2088,2089,10025,10026,10027,10028,
2116,2117,2118,2119,2120,2121,2116,2117,2118,2119,2120,2121,10057,10058,10059,10060,
2148,2149,2150,2151,2152,2153,2148,2149,2150,2151,2152,2153,10089,10090,10091,10092,
2180,2181,2182,2183,2184,2185,2180,2181,2182,2183,2184,2185,10121,10122,10123,10124,
2212,2213,2214,2215,2216,2217,2212,2213,2214,2215,2216,2217,10153,10154,10155,10156,
0,0,0,0,0,0,0,0,0,0,0,0,9813,9814,9815,9816,
0,0,0,0,0,0,0,0,0,0,0,0,9845,9846,9847,9848,
0,0,0,0,0,0,0,0,0,0,0,0,9877,9878,9879,9880,
0,0,0,0,0,0,0,0,0,0,0,0,9909,9910,9911,9912,
0,0,0,0,0,0,0,0,0,0,0,0,9941,9942,9943,9944,
0,0,0,0,0,0,0,0,0,0,0,0,9973,9974,9975,9976,
9993,9994,9995,9996,9997,9998,9801,9802,9803,9804,9805,9806,10005,10006,10007,10008
</chunk>
   <chunk x="-272" y="368" width="16" height="16">
9901,9902,10089,10090,10091,10092,10093,10094,9897,9898,9899,9900,9901,9902,0,0,
9933,9934,10121,10122,10123,10124,10125,10126,9929,9930,9931,9932,9933,9934,0,0,
9965,9966,10153,10154,10155,10156,10157,10158,9961,9962,9963,9964,9965,9966,0,0,
9997,9998,9801,9802,9803,9804,9805,9806,9993,9994,9995,9996,9997,9998,0,0,
10029,10030,9833,9834,9835,9836,9837,9838,10025,10026,10027,10028,10029,10030,0,0,
10061,10062,9865,9866,9867,9868,9869,9870,10057,10058,10059,10060,10061,10062,0,0,
10093,10094,9897,9898,9899,9900,9901,9902,10089,10090,10091,10092,10093,10094,0,0,
10125,10126,9929,9930,9931,9932,9933,9934,10121,10122,10123,10124,10125,10126,0,0,
10157,10158,9961,9962,9963,9964,9965,9966,10153,10154,10155,10156,10157,10158,0,0,
9817,9818,9993,9994,9995,9996,9997,9998,9801,9802,9803,9804,9805,9806,0,0,
9849,9850,10025,10026,10027,10028,10029,10030,9833,9834,9835,9836,9837,9838,0,0,
9881,9882,10057,10058,10059,10060,10061,10062,9865,9866,9867,9868,9869,9870,0,0,
9913,9914,10089,10090,10091,10092,10093,10094,9897,9898,9899,9900,9901,9902,0,0,
9945,9946,10121,10122,10123,10124,10125,10126,9929,9930,9931,9932,9933,9934,0,0,
9977,9978,10153,10154,10155,10156,10157,10158,9961,9962,9963,9964,9965,9966,0,0,
10009,10010,9801,9802,9803,9804,9805,9806,9993,9994,9995,9996,9997,9998,0,0
</chunk>
   <chunk x="-96" y="368" width="16" height="16">
0,0,0,0,0,0,0,0,0,0,0,0,0,0,0,0,
0,0,0,0,0,0,0,0,0,0,0,0,0,0,0,0,
0,0,0,0,0,0,0,0,0,0,0,0,0,0,0,0,
0,0,0,0,0,0,0,0,0,0,0,0,0,0,9763,9764,
0,0,0,0,0,0,0,0,0,0,0,0,0,0,9795,9796,
0,0,0,0,0,0,0,0,0,0,0,0,9445,9446,9827,9828,
0,0,0,0,0,0,0,0,0,0,0,0,9477,9478,9859,9860,
0,0,0,0,0,0,0,0,0,0,0,0,0,0,0,0,
0,0,0,0,0,0,0,0,0,0,0,0,0,0,0,0,
0,0,0,0,0,0,0,0,0,0,0,0,0,0,0,0,
0,0,0,0,0,0,0,0,0,0,0,0,0,0,0,0,
0,0,0,0,0,0,0,0,0,0,0,0,0,0,0,0,
0,0,0,0,0,0,0,0,0,0,0,0,0,0,0,0,
0,0,0,0,0,0,0,0,0,0,0,0,0,0,0,0,
0,0,0,0,0,0,0,0,0,0,0,0,0,0,0,0,
0,0,0,0,0,0,0,0,0,0,0,0,0,0,0,0
</chunk>
   <chunk x="-80" y="368" width="16" height="16">
0,0,0,0,0,0,0,0,0,0,0,0,0,0,0,0,
0,0,0,0,0,0,0,0,0,0,0,0,0,0,9481,9482,
0,0,0,0,0,0,0,0,0,0,0,0,0,0,9513,9514,
9765,9766,9497,9498,0,0,0,0,0,0,0,0,9291,9292,0,0,
9797,9798,9529,9530,0,0,0,0,0,0,0,0,9323,9324,0,0,
9829,9830,9561,9562,0,0,0,0,0,0,0,0,9289,9290,0,0,
9861,9862,9593,9594,0,0,0,0,0,0,0,0,9321,9322,0,0,
0,0,0,0,0,0,0,0,0,0,0,0,9417,9418,0,0,
0,0,0,0,0,0,0,0,0,0,0,0,9449,9450,0,0,
0,0,0,0,0,0,0,0,0,0,0,0,0,0,0,0,
0,0,0,0,0,0,0,0,0,0,0,0,0,0,0,0,
0,0,0,0,0,0,0,0,0,0,0,0,0,0,0,0,
0,0,0,0,0,0,0,0,0,0,0,0,0,0,0,0,
0,0,0,0,0,0,0,0,0,0,0,0,0,0,0,0,
0,0,0,0,0,0,0,0,0,0,0,0,0,0,0,0,
0,0,0,0,0,0,0,0,0,0,0,0,0,0,9993,9994
</chunk>
   <chunk x="-64" y="368" width="16" height="16">
0,0,9321,9322,0,0,0,0,0,0,0,0,0,0,0,0,
9483,9484,2248,2249,0,0,0,0,0,0,0,0,0,0,0,0,
9515,9516,2280,2281,0,0,0,0,0,0,0,0,0,0,0,0,
0,0,0,0,0,0,0,0,0,0,0,0,0,0,0,0,
0,0,0,0,0,0,0,0,0,0,0,0,0,0,0,0,
0,0,0,0,0,0,0,0,0,0,0,0,0,0,0,0,
0,0,0,0,0,0,0,0,0,0,0,0,0,0,0,0,
0,0,0,0,0,0,0,0,0,0,0,0,0,0,0,0,
0,0,0,0,0,0,0,0,0,0,0,0,0,0,0,0,
0,0,0,0,0,0,0,0,0,0,0,0,0,0,0,0,
0,0,0,0,0,0,0,0,0,0,0,0,0,0,0,0,
0,0,0,0,0,0,0,0,0,0,0,0,0,0,0,0,
0,0,0,0,0,0,0,0,0,0,0,0,0,0,0,0,
0,0,0,0,0,0,0,0,0,0,0,0,0,0,0,0,
0,0,0,0,0,0,0,0,0,0,0,0,0,0,0,0,
9995,9996,9997,9998,0,0,0,0,0,0,0,0,0,0,0,0
</chunk>
   <chunk x="-48" y="368" width="16" height="16">
0,0,0,0,0,0,2660,2661,2094,2095,2147486309,2147486308,9347,9348,9349,9350,
0,0,0,0,0,0,2628,2629,2062,2063,2147486277,2147486276,0,0,0,0,
0,0,0,0,0,0,2660,2661,2094,2095,2147486309,2147486308,0,0,0,0,
2052,2053,2054,2055,2056,2057,2628,2629,2062,2063,2147486277,2147486276,2634,2635,2634,2635,
2084,2085,2086,2087,2088,2089,2660,2661,2094,2095,2147486309,2147486308,2666,2667,2666,2667,
2116,2117,2118,2119,2120,2121,2628,2629,2062,2063,2147486277,2147486276,2634,2635,2634,2635,
2148,2149,2150,2151,2152,2153,2660,2661,2094,2095,2147486309,2147486308,2666,2667,2666,2667,
2180,2181,2182,2183,2184,2185,2628,2629,2062,2063,2147486277,2147486276,2634,2635,2634,2635,
2212,2213,2214,2215,2216,2217,2660,2661,2094,2095,2147486309,2147486308,2666,2667,2666,2667,
2052,2053,2054,2055,2056,2057,2628,2629,2062,2063,2147486277,2147486276,0,0,0,0,
2084,2085,2086,2087,2088,2089,2660,2661,2094,2095,2147486309,2147486308,0,0,0,0,
2116,2117,2118,2119,2120,2121,2628,2629,2062,2063,2147486277,2147486276,0,0,0,0,
2148,2149,2150,2151,2152,2153,2660,2661,2094,2095,2147486309,2147486308,0,0,0,0,
2180,2181,2182,2183,2184,2185,2628,2629,2062,2063,2147486277,2147486276,0,0,0,0,
2212,2213,2214,2215,2216,2217,2660,2661,2094,2095,2147486309,2147486308,0,0,0,0,
0,0,0,0,0,0,2628,2629,2062,2063,2147486277,2147486276,0,0,0,0
</chunk>
   <chunk x="-32" y="368" width="16" height="16">
2147492996,2147492995,0,0,2147492912,2147492911,9551,9552,9229,9230,9229,9230,9229,9230,9583,9584,
0,0,3221234800,3221234799,1073751151,1073751152,9583,9584,9261,9262,9261,9262,9261,9262,9583,9584,
0,0,3221234768,3221234767,1073751119,1073751120,9583,9584,9585,9586,9587,9588,2147493234,2147493233,2147493232,2147493231,
0,0,2147492944,2147492943,9295,9296,9615,9616,9617,9618,9619,9620,2147493266,2147493265,2147493264,2147493263,
0,0,2147492976,2147492975,9327,9328,9647,9648,9649,9650,9651,9652,2147493298,2147493297,2147493296,2147493295,
0,0,0,0,0,0,9679,9680,2147493262,2147493261,9683,9684,9613,9614,2147493328,2147493327,
0,0,0,0,0,0,9711,9712,2147493294,2147493293,9715,9716,9645,9646,2147493360,2147493359,
0,0,9233,9234,2147492880,2147492879,9229,9230,9229,9230,9229,9230,9229,9230,9229,9230,
0,0,9265,9266,2147492912,2147492911,9261,9262,9261,9262,9261,9262,9261,9262,9261,9262,
0,0,9235,9236,2147492880,2147492879,9229,9230,9229,9230,9229,9230,9229,9230,9229,9230,
0,0,9267,9268,2147492912,2147492911,9261,9262,9261,9262,9261,9262,9261,9262,9261,9262,
0,0,9299,9300,2147492880,2147492879,9229,9230,9229,9230,9229,9230,9229,9230,9229,9230,
0,0,9331,9332,2147492912,2147492911,9261,9262,9261,9262,9261,9262,9261,9262,9261,9262,
0,0,0,0,9355,9356,9357,9358,2147493006,2147493005,2147493006,2147493005,2147493006,2147493005,2147493006,2147493005,
0,0,0,0,9387,9388,9389,9390,2147493038,2147493037,2147493038,2147493037,2147493038,2147493037,2147493038,2147493037,
0,0,2634,2635,2147492880,2147492879,9229,9230,9229,9230,9229,9230,9229,9230,9229,9230
</chunk>
   <chunk x="-16" y="368" width="16" height="16">
9263,9264,0,0,9347,9348,9349,9350,2147492996,2147492995,2660,2661,2094,2095,2147486309,2147486308,
3221234800,3221234799,1073751151,1073751152,0,0,0,0,0,0,2628,2629,2062,2063,2147486277,2147486276,
3221234768,3221234767,1073751119,1073751120,0,0,0,0,0,0,2660,2661,2094,2095,2147486309,2147486308,
2147492944,2147492943,9295,9296,2634,2635,2634,2635,2698,2699,2628,2629,2062,2063,2147486277,2147486276,
2147492976,2147492975,9327,9328,2666,2667,2666,2667,2730,2731,2660,2661,2094,2095,2147486309,2147486308,
0,0,0,0,2634,2635,2634,2635,2698,2699,2628,2629,2062,2063,2147486277,2147486276,
0,0,0,0,2666,2667,2666,2667,2730,2731,2660,2661,2094,2095,2147486309,2147486308,
9231,9232,9235,9236,2634,2635,2634,2635,2698,2699,2628,2629,2062,2063,2147486277,2147486276,
9263,9264,9267,9268,2666,2667,2666,2667,2730,2731,2660,2661,2094,2095,2147486309,2147486308,
9231,9232,9233,9234,2634,2635,2634,2635,2698,2699,2628,2629,2062,2063,2147486277,2147486276,
9263,9264,9265,9266,2666,2667,2666,2667,2730,2731,2660,2661,2094,2095,2147486309,2147486308,
9231,9232,9297,9298,2634,2635,2634,2635,2698,2699,2628,2629,2062,2063,2147486277,2147486276,
9263,9264,9329,9330,2666,2667,2666,2667,2730,2731,2660,2661,2094,2095,2147486309,2147486308,
2147493004,2147493003,0,0,2634,2635,2634,2635,2698,2699,2628,2629,2062,2063,2147486277,2147486276,
2147493036,2147493035,0,0,2666,2667,2666,2667,2730,2731,2660,2661,2094,2095,2147486309,2147486308,
9231,9232,2634,2635,2634,2635,2634,2635,2698,2699,2628,2629,2062,2063,2147486277,2147486276
</chunk>
   <chunk x="0" y="368" width="16" height="16">
1073744390,1073744391,1073744390,1073744391,1073744390,1073744391,1073744390,1073744391,1073744390,1073744391,1073744390,1073744391,1073744390,1073744391,1073744390,1073744391,
0,0,0,0,0,0,2756,2757,2758,2759,2760,2761,2692,2693,2694,2695,
0,0,0,0,0,0,2788,2789,2790,2791,2792,2793,2724,2725,2726,2727,
0,0,0,0,0,0,0,0,0,0,0,0,2756,2757,2758,2759,
0,0,0,0,0,0,0,0,0,0,0,0,2788,2789,2790,2791,
0,0,0,0,0,0,0,0,0,0,0,0,2692,2693,2694,2695,
0,0,0,0,0,0,0,0,0,0,0,0,2724,2725,2726,2727,
0,0,0,0,0,0,0,0,0,0,0,0,0,0,0,0,
0,0,0,0,0,0,0,0,0,0,0,0,0,0,0,0,
0,0,0,0,0,0,2634,2635,2634,2635,2698,2699,0,0,0,0,
0,0,0,0,0,0,2666,2667,2666,2667,2730,2731,0,0,0,0,
0,0,0,0,0,0,2634,2635,2634,2635,2698,2699,0,0,0,0,
0,0,0,0,0,0,2666,2667,2666,2667,2730,2731,0,0,0,0,
2634,2635,2634,2635,2634,2635,2634,2635,2634,2635,2698,2699,0,0,0,0,
2666,2667,2666,2667,2666,2667,2666,2667,2666,2667,2730,2731,0,0,0,0,
2634,2635,2634,2635,2634,2635,2634,2635,2634,2635,2698,2699,0,0,0,0
</chunk>
   <chunk x="16" y="368" width="16" height="16">
1073744390,1073744391,2532,2533,2094,2095,2147486309,2147486308,9903,9904,9905,9906,9907,9908,10095,10096,
2762,2763,2628,2629,2062,2063,2147486277,2147486276,9935,9936,9937,9938,9939,9940,10127,10128,
2794,2795,2660,2661,2094,2095,2147486309,2147486308,9967,9968,9969,9970,9971,9972,10159,10160,
2826,2827,2628,2629,2062,2063,2147486277,2147486276,9999,10000,10001,10002,10003,10004,9807,9808,
2858,2859,2660,2661,2094,2095,2147486309,2147486308,10031,10032,10033,10034,10035,10036,9839,9840,
2762,2763,2628,2629,2062,2063,2147486277,2147486276,10063,10064,10065,10066,10067,10068,9871,9872,
2794,2795,2660,2661,2094,2095,2147486309,2147486308,10095,10096,10097,10098,10099,10100,9903,9904,
0,0,2628,2629,2062,2063,2147486277,2147486276,10127,10128,10129,10130,10131,10132,9935,9936,
0,0,2660,2661,2094,2095,2147486309,2147486308,10159,10160,10161,10162,10163,10164,9967,9968,
0,0,2628,2629,2062,2063,2147486277,2147486276,9801,9802,9803,9804,9805,9806,9999,10000,
0,0,2660,2661,2094,2095,2147486309,2147486308,9833,9834,9835,9836,9837,9838,10031,10032,
0,0,2628,2629,2062,2063,2147486277,2147486276,9865,9866,9867,9868,9869,9870,10063,10064,
0,0,2660,2661,2094,2095,2147486309,2147486308,9897,9898,9899,9900,9901,9902,10095,10096,
0,0,2628,2629,2062,2063,2147486277,2147486276,9929,9930,9931,9932,9933,9934,10127,10128,
0,0,2660,2661,2094,2095,2147486309,2147486308,9961,9962,9963,9964,9965,9966,10159,10160,
0,0,2628,2629,2062,2063,2147486277,2147486276,0,0,0,0,0,0,2564,2565
</chunk>
   <chunk x="32" y="368" width="16" height="16">
10097,10098,10099,10100,9903,9904,9905,9906,9907,9908,10095,10096,10097,10098,10099,10100,
10129,10130,10131,10132,9935,9936,9937,9938,9939,9940,10127,10128,10129,10130,10131,10132,
10161,10162,10163,10164,9967,9968,9969,9970,9971,9972,10159,10160,10161,10162,10163,10164,
9809,9810,9811,9812,9999,10000,10001,10002,10003,10004,9807,9808,9809,9810,9811,9812,
9841,9842,9843,9844,10031,10032,10033,10034,10035,10036,9839,9840,9841,9842,9843,9844,
9873,9874,9875,9876,10063,10064,10065,10066,10067,10068,9871,9872,9873,9874,9875,9876,
9905,9906,9907,9908,10095,10096,10097,10098,10099,10100,9903,9904,9905,9906,9907,9908,
9937,9938,9939,9940,10127,10128,10129,10130,10131,10132,9935,9936,9937,9938,9939,9940,
9969,9970,9971,9972,10159,10160,10161,10162,10163,10164,9967,9968,9969,9970,9971,9972,
10001,10002,10003,10004,2564,2565,2566,2567,2566,2567,2566,2567,2566,2567,2566,2567,
10033,10034,10035,10036,2596,2597,2598,2599,2598,2599,2598,2599,2598,2599,2598,2599,
10065,10066,10067,10068,2628,2629,2062,2063,2147486149,2147486148,1073744422,1073744423,1073744422,1073744423,1073744422,1073744423,
10097,10098,10099,10100,2660,2661,2094,2095,2147486181,2147486180,1073744390,1073744391,1073744390,1073744391,1073744390,1073744391,
10129,10130,10131,10132,2628,2629,2062,2063,2147486277,2147486276,9627,9628,9629,9630,2147493276,2147493275,
10161,10162,10163,10164,2660,2661,2094,2095,2147486309,2147486308,9659,9660,9661,9662,2147493308,2147493307,
2566,2567,2566,2567,1073744356,1073744357,2062,2063,2147486277,2147486276,9691,9692,9693,9694,2147493340,2147493339
</chunk>
   <chunk x="48" y="368" width="16" height="16">
9903,9904,9905,9906,9907,9908,10095,10096,10097,10098,10099,10100,9903,9904,9905,9906,
9935,9936,9937,9938,9939,9940,10127,10128,10129,10130,10131,10132,9935,9936,9937,9938,
9967,9968,9969,9970,9971,9972,10159,10160,10161,10162,10163,10164,9967,9968,9969,9970,
9999,10000,10001,10002,10003,10004,9807,9808,9809,9810,9811,9812,9999,10000,10001,10002,
10031,10032,10033,10034,10035,10036,9839,9840,9841,9842,9843,9844,10031,10032,10033,10034,
10063,10064,10065,10066,10067,10068,9871,9872,9873,9874,9875,9876,10063,10064,10065,10066,
10095,10096,10097,10098,10099,10100,9903,9904,9905,9906,9907,9908,10095,10096,10097,10098,
10127,10128,10129,10130,10131,10132,9935,9936,9937,9938,9939,9940,10127,10128,10129,10130,
10159,10160,10161,10162,10163,10164,9967,9968,9969,9970,9971,9972,10159,10160,10161,10162,
2566,2567,2566,2567,2147486213,2147486212,9999,10000,10001,10002,10003,10004,9801,9802,9803,9804,
2598,2599,2598,2599,2147486245,2147486244,10031,10032,10033,10034,10035,10036,9833,9834,9835,9836,
2500,2501,2062,2063,2147486277,2147486276,10063,10064,10065,10066,10067,10068,9865,9866,9867,9868,
2532,2533,2094,2095,2147486309,2147486308,10095,10096,10097,10098,10099,10100,9897,9898,9899,9900,
2628,2629,2062,2063,2147486277,2147486276,10127,10128,10129,10130,10131,10132,9929,9930,9931,9932,
2660,2661,2094,2095,2147486309,2147486308,10159,10160,10161,10162,10163,10164,9961,9962,9963,9964,
2628,2629,2062,2063,3221228005,3221228004,2566,2567,2566,2567,2147486213,2147486212,0,0,0,0
</chunk>
   <chunk x="64" y="368" width="16" height="16">
9907,9908,10095,10096,10097,10098,10099,10100,9903,9904,9905,9906,9907,9908,10089,10090,
9939,9940,10127,10128,10129,10130,10131,10132,9935,9936,9937,9938,9939,9940,10121,10122,
9971,9972,10159,10160,10161,10162,10163,10164,9967,9968,9969,9970,9971,9972,10153,10154,
10003,10004,9801,9802,9803,9804,9805,9806,0,0,0,0,0,0,0,0,
10035,10036,9833,9834,9835,9836,9837,9838,0,0,0,0,0,0,0,0,
10067,10068,9865,9866,9867,9868,9869,9870,0,0,0,0,0,0,0,0,
10099,10100,9897,9898,9899,9900,9901,9902,0,0,0,0,0,0,0,0,
10131,10132,9929,9930,9931,9932,9933,9934,0,0,0,0,0,0,0,0,
10163,10164,9961,9962,9963,9964,9965,9966,0,0,0,0,0,0,0,0,
9805,9806,0,0,0,0,0,0,0,0,0,0,0,0,0,0,
9837,9838,0,0,0,0,0,0,0,0,0,0,0,0,0,0,
9869,9870,0,0,0,0,0,0,0,0,0,0,0,0,0,0,
9901,9902,0,0,0,0,0,0,0,0,0,0,0,0,0,0,
9933,9934,0,0,0,0,2147485897,2147485896,0,0,0,0,0,0,0,0,
9965,9966,0,0,0,0,2147485929,2147485928,0,0,0,0,0,0,0,0,
0,0,0,0,0,0,0,0,0,0,0,0,0,0,0,0
</chunk>
   <chunk x="80" y="368" width="16" height="16">
10091,10092,10093,10094,9897,9898,9899,9900,9901,9902,10101,10102,10103,10104,10105,10106,
10123,10124,10125,10126,9929,9930,9931,9932,9933,9934,10133,10134,10135,10136,10137,10138,
10155,10156,10157,10158,9961,9962,9963,9964,9965,9966,10165,10166,10167,10168,10169,10170,
0,0,0,0,0,0,0,0,0,0,0,0,0,0,0,0,
0,0,0,0,0,0,0,0,0,0,0,0,0,0,0,0,
0,0,0,0,0,0,0,0,0,0,0,0,0,0,0,0,
0,0,0,0,0,0,0,0,0,0,0,0,0,0,0,0,
0,0,0,0,0,0,0,0,0,0,0,0,0,0,2147485897,2147485896,
0,0,0,0,0,0,0,0,0,0,0,0,0,0,2147485929,2147485928,
0,0,0,0,0,0,0,0,0,0,0,0,0,0,0,0,
0,0,0,0,0,0,0,0,0,0,0,0,0,0,0,0,
0,0,0,0,0,0,0,0,0,0,0,0,0,0,0,0,
0,0,0,0,0,0,0,0,0,0,0,0,0,0,0,0,
0,0,0,0,0,0,0,0,0,0,0,0,0,0,0,0,
0,0,0,0,0,0,0,0,0,0,0,0,0,0,0,0,
0,0,0,0,0,0,0,0,0,0,0,0,0,0,0,0
</chunk>
   <chunk x="96" y="368" width="16" height="16">
0,0,0,0,0,0,0,0,0,0,0,0,0,0,0,0,
0,0,0,0,0,0,0,0,0,0,0,0,0,0,0,0,
0,0,0,0,0,0,0,0,0,0,0,0,0,0,0,0,
0,0,0,0,0,0,0,0,0,0,0,0,9813,9814,9815,9816,
0,0,0,0,0,0,0,0,0,0,0,0,9845,9846,9847,9848,
0,0,0,0,0,0,0,0,0,0,0,0,9877,9878,9879,9880,
0,0,0,0,0,0,0,0,0,0,0,0,9909,9910,9911,9912,
0,0,0,0,0,0,0,0,0,0,0,0,9941,9942,9943,9944,
0,0,0,0,0,0,0,0,0,0,0,0,9973,9974,9975,9976,
0,0,0,0,0,0,0,0,0,0,0,0,10005,10006,10007,10008,
0,0,0,0,0,0,0,0,0,0,0,0,10037,10038,10039,10040,
0,0,0,0,0,0,0,0,0,0,0,0,10069,10070,10071,10072,
0,0,0,0,0,0,0,0,0,0,0,0,10101,10102,10103,10104,
0,0,0,0,0,0,2248,2249,0,0,0,0,10133,10134,10135,10136,
0,0,0,0,0,0,2280,2281,0,0,0,0,10165,10166,10167,10168,
0,0,0,0,0,0,0,0,0,0,0,0,9813,9814,9815,9816
</chunk>
   <chunk x="112" y="368" width="16" height="16">
0,0,9909,9910,9911,9912,9913,9914,10101,10102,10103,10104,10105,10106,9909,9910,
0,0,9941,9942,9943,9944,9945,9946,10133,10134,10135,10136,10137,10138,9941,9942,
0,0,9973,9974,9975,9976,9977,9978,10165,10166,10167,10168,10169,10170,9973,9974,
9817,9818,10005,10006,10007,10008,10009,10010,9813,9814,9815,9816,9817,9818,10005,10006,
9849,9850,10037,10038,10039,10040,10041,10042,9845,9846,9847,9848,9849,9850,10037,10038,
9881,9882,10069,10070,10071,10072,10073,10074,9877,9878,9879,9880,9881,9882,10069,10070,
9913,9914,10101,10102,10103,10104,10105,10106,9909,9910,9911,9912,9913,9914,10101,10102,
9945,9946,10133,10134,10135,10136,10137,10138,9941,9942,9943,9944,9945,9946,10133,10134,
9977,9978,10165,10166,10167,10168,10169,10170,9973,9974,9975,9976,9977,9978,10165,10166,
10009,10010,9813,9814,9815,9816,9817,9818,10005,10006,10007,10008,10009,10010,9813,9814,
10041,10042,9845,9846,9847,9848,9849,9850,10037,10038,10039,10040,10041,10042,9845,9846,
10073,10074,9877,9878,9879,9880,9881,9882,10069,10070,10071,10072,10073,10074,9877,9878,
10105,10106,9909,9910,9911,9912,9913,9914,10101,10102,10103,10104,10105,10106,9909,9910,
10137,10138,9941,9942,9943,9944,9945,9946,10133,10134,10135,10136,10137,10138,9941,9942,
10169,10170,9973,9974,9975,9976,9977,9978,10165,10166,10167,10168,10169,10170,9973,9974,
9817,9818,10005,10006,10007,10008,10009,10010,9813,9814,9815,9816,9817,9818,10005,10006
</chunk>
   <chunk x="128" y="368" width="16" height="16">
9911,9912,9913,9914,10101,10102,10103,10104,10105,10106,9909,9910,9911,9912,9913,9914,
9943,9944,9945,9946,10133,10134,10135,10136,10137,10138,9941,9942,9943,9944,9945,9946,
9975,9976,9977,9978,10165,10166,10167,10168,10169,10170,9973,9974,9975,9976,9977,9978,
10007,10008,10009,10010,9813,9814,9815,9816,9817,9818,10005,10006,10007,10008,10009,10010,
10039,10040,10041,10042,9845,9846,9847,9848,9849,9850,10037,10038,10039,10040,10041,10042,
10071,10072,10073,10074,9877,9878,9879,9880,9881,9882,10069,10070,10071,10072,10073,10074,
10103,10104,10105,10106,9909,9910,9911,9912,9913,9914,10101,10102,10103,10104,10105,10106,
10135,10136,10137,10138,9941,9942,9943,9944,9945,9946,10133,10134,10135,10136,10137,10138,
10167,10168,10169,10170,9973,9974,9975,9976,9977,9978,10165,10166,10167,10168,10169,10170,
9815,9816,9817,9818,10005,10006,10007,10008,10009,10010,9813,9814,9815,9816,9817,9818,
9847,9848,9849,9850,10037,10038,10039,10040,10041,10042,9845,9846,9847,9848,9849,9850,
9879,9880,9881,9882,10069,10070,10071,10072,10073,10074,9877,9878,9879,9880,9881,9882,
9911,9912,9913,9914,10101,10102,10103,10104,10105,10106,9909,9910,9911,9912,9913,9914,
9943,9944,9945,9946,10133,10134,10135,10136,10137,10138,9941,9942,9943,9944,9945,9946,
9975,9976,9977,9978,10165,10166,10167,10168,10169,10170,9973,9974,9975,9976,9977,9978,
10007,10008,10009,10010,9813,9814,9815,9816,9817,9818,10005,10006,10007,10008,10009,10010
</chunk>
   <chunk x="144" y="368" width="16" height="16">
10101,10102,10103,10104,10105,10106,0,0,0,0,0,0,0,0,0,0,
10133,10134,10135,10136,10137,10138,0,0,0,0,0,0,0,0,0,0,
10165,10166,10167,10168,10169,10170,0,0,0,0,0,0,0,0,0,0,
9813,9814,9815,9816,9817,9818,0,0,0,0,0,0,0,0,0,0,
9845,9846,9847,9848,9849,9850,0,0,0,0,0,0,0,0,0,0,
9877,9878,9879,9880,9881,9882,0,0,0,0,0,0,0,0,0,0,
9909,9910,9911,9912,9913,9914,0,0,0,0,0,0,0,0,0,0,
9941,9942,9943,9944,9945,9946,0,0,0,0,0,0,0,0,0,0,
9973,9974,9975,9976,9977,9978,0,0,0,0,0,0,0,0,0,0,
10005,10006,10007,10008,10009,10010,0,0,0,0,0,0,0,0,0,0,
10037,10038,10039,10040,10041,10042,0,0,0,0,0,0,0,0,0,0,
10069,10070,10071,10072,10073,10074,0,0,0,0,0,0,0,0,0,0,
10101,10102,10103,10104,10105,10106,0,0,0,0,0,0,0,0,0,0,
10133,10134,10135,10136,10137,10138,0,0,0,0,0,0,0,0,0,0,
10165,10166,10167,10168,10169,10170,0,0,0,0,0,0,0,0,0,0,
9813,9814,9815,9816,9817,9818,0,0,0,0,0,0,0,0,0,0
</chunk>
   <chunk x="-352" y="384" width="16" height="16">
0,0,0,0,0,0,0,0,0,0,0,0,0,0,0,0,
0,0,0,0,0,0,0,0,0,0,0,0,0,0,0,0,
0,0,0,0,0,0,0,0,0,0,0,0,0,0,0,0,
0,0,0,0,0,0,0,0,0,0,0,0,0,0,0,0,
0,0,0,0,0,0,0,0,0,0,0,0,0,0,0,0,
0,0,0,0,0,0,0,0,0,0,10005,10006,10007,10008,10009,10010,
0,0,0,0,0,0,0,0,0,0,10037,10038,10039,10040,10041,10042,
0,0,0,0,0,0,0,0,0,0,10069,10070,10071,10072,10073,10074,
0,0,0,0,0,0,0,0,0,0,10101,10102,10103,10104,10105,10106,
0,0,0,0,0,0,0,0,0,0,10133,10134,10135,10136,10137,10138,
0,0,0,0,0,0,0,0,0,0,10165,10166,10167,10168,10169,10170,
0,0,0,0,0,0,0,0,0,0,9813,9814,9815,9816,9817,9818,
0,0,0,0,0,0,0,0,0,0,9845,9846,9847,9848,9849,9850,
0,0,0,0,0,0,0,0,0,0,9877,9878,9879,9880,9881,9882,
0,0,0,0,0,0,0,0,0,0,9909,9910,9911,9912,9913,9914,
0,0,0,0,0,0,0,0,0,0,9941,9942,9943,9944,9945,9946
</chunk>
   <chunk x="-336" y="384" width="16" height="16">
10037,10038,10039,10040,10041,10042,9833,9834,9835,9836,9837,9838,10025,10026,10027,10028,
10069,10070,10071,10072,10073,10074,9865,9866,9867,9868,9869,9870,10057,10058,10059,10060,
10101,10102,10103,10104,10105,10106,9897,9898,9899,9900,9901,9902,10089,10090,10091,10092,
10133,10134,10135,10136,10137,10138,9929,9930,9931,9932,9933,9934,10121,10122,10123,10124,
10165,10166,10167,10168,10169,10170,9961,9962,9963,9964,9965,9966,10153,10154,10155,10156,
9813,9814,9815,9816,9817,9818,9993,9994,9995,9996,9997,9998,9801,9802,9803,9804,
9845,9846,9847,9848,9849,9850,10025,10026,10027,10028,10029,10030,9833,9834,9835,9836,
9877,9878,9879,9880,9881,9882,10057,10058,10059,10060,10061,10062,9865,9866,9867,9868,
9909,9910,9911,9912,9913,9914,10089,10090,10091,10092,10093,10094,9897,9898,9899,9900,
9941,9942,9943,9944,9945,9946,10121,10122,10123,10124,10125,10126,9929,9930,9931,9932,
9973,9974,9975,9976,9977,9978,10153,10154,10155,10156,10157,10158,9961,9962,9963,9964,
10005,10006,10007,10008,10009,10010,9801,9802,9803,9804,9805,9806,9993,9994,9995,9996,
10037,10038,10039,10040,10041,10042,9833,9834,9835,9836,9837,9838,10025,10026,10027,10028,
10069,10070,10071,10072,10073,10074,9865,9866,9867,9868,9869,9870,10057,10058,10059,10060,
10101,10102,10103,10104,10105,10106,9897,9898,9899,9900,9901,9902,10089,10090,10091,10092,
10133,10134,10135,10136,10137,10138,9929,9930,9931,9932,9933,9934,10121,10122,10123,10124
</chunk>
   <chunk x="-320" y="384" width="16" height="16">
10029,10030,9833,9834,9835,9836,9837,9838,10025,10026,10027,10028,10029,10030,9833,9834,
10061,10062,9865,9866,9867,9868,9869,9870,10057,10058,10059,10060,10061,10062,9865,9866,
10093,10094,9897,9898,9899,9900,9901,9902,10089,10090,10091,10092,10093,10094,9897,9898,
10125,10126,9929,9930,9931,9932,9933,9934,10121,10122,10123,10124,10125,10126,9929,9930,
10157,10158,9961,9962,9963,9964,9965,9966,10153,10154,10155,10156,10157,10158,9961,9962,
9805,9806,9993,9994,9995,9996,9997,9998,9801,9802,9803,9804,9805,9806,9993,9994,
9837,9838,10025,10026,10027,10028,10029,10030,9833,9834,9835,9836,9837,9838,10025,10026,
9869,9870,10057,10058,10059,10060,10061,10062,9865,9866,9867,9868,9869,9870,10057,10058,
9901,9902,10089,10090,10091,10092,10093,10094,9897,9898,9899,9900,9901,9902,10089,10090,
9933,9934,10121,10122,10123,10124,10125,10126,9929,9930,9931,9932,9933,9934,10121,10122,
9965,9966,10153,10154,10155,10156,10157,10158,9961,9962,9963,9964,9965,9966,10153,10154,
9997,9998,9801,9802,9803,9804,9805,9806,9993,9994,9995,9996,9997,9998,9801,9802,
10029,10030,9833,9834,9835,9836,9837,9838,10025,10026,10027,10028,10029,10030,9833,9834,
10061,10062,9865,9866,9867,9868,9869,9870,10057,10058,10059,10060,10061,10062,9865,9866,
10093,10094,9897,9898,9899,9900,9901,9902,10089,10090,10091,10092,10093,10094,9897,9898,
10125,10126,9929,9930,9931,9932,9933,9934,10121,10122,10123,10124,10125,10126,9929,9930
</chunk>
   <chunk x="-304" y="384" width="16" height="16">
9835,9836,9837,9838,10025,10026,10027,10028,10029,10030,9833,9834,9835,9836,9837,9838,
9867,9868,9869,9870,10057,10058,10059,10060,10061,10062,9865,9866,9867,9868,9869,9870,
9899,9900,9901,9902,10089,10090,10091,10092,10093,10094,9897,9898,9899,9900,9901,9902,
9931,9932,9933,9934,10121,10122,10123,10124,10125,10126,9929,9930,9931,9932,9933,9934,
9963,9964,9965,9966,10153,10154,10155,10156,10157,10158,9961,9962,9963,9964,9965,9966,
9995,9996,9997,9998,9801,9802,9803,9804,9805,9806,9993,9994,9995,9996,9997,9998,
10027,10028,10029,10030,9833,9834,9835,9836,9837,9838,10025,10026,10027,10028,10029,10030,
10059,10060,10061,10062,9865,9866,9867,9868,9869,9870,10057,10058,10059,10060,10061,10062,
10091,10092,10093,10094,9897,9898,9899,9900,9901,9902,10089,10090,10091,10092,10093,10094,
10123,10124,10125,10126,9929,9930,9931,9932,9933,9934,10121,10122,10123,10124,10125,10126,
10155,10156,10157,10158,9961,9962,9963,9964,9965,9966,10153,10154,10155,10156,10157,10158,
9803,9804,9805,9806,9993,9994,9995,9996,9997,9998,9801,9802,9803,9804,9805,9806,
9835,9836,9837,9838,10025,10026,10027,10028,10029,10030,9833,9834,9835,9836,9837,9838,
9867,9868,9869,9870,10057,10058,10059,10060,10061,10062,9865,9866,9867,9868,9869,9870,
9899,9900,9901,9902,10089,10090,10091,10092,10093,10094,9897,9898,9899,9900,9901,9902,
9931,9932,9933,9934,10121,10122,10123,10124,10125,10126,9929,9930,9931,9932,9933,9934
</chunk>
   <chunk x="-288" y="384" width="16" height="16">
10025,10026,10027,10028,10029,10030,9833,9834,9835,9836,9837,9838,10037,10038,10039,10040,
10057,10058,10059,10060,10061,10062,9865,9866,9867,9868,9869,9870,10069,10070,10071,10072,
10089,10090,10091,10092,10093,10094,9897,9898,9899,9900,9901,9902,10101,10102,10103,10104,
10121,10122,10123,10124,10125,10126,9929,9930,9931,9932,9933,9934,10133,10134,10135,10136,
10153,10154,10155,10156,10157,10158,9961,9962,9963,9964,9965,9966,10165,10166,10167,10168,
9801,9802,9803,9804,9805,9806,9993,9994,9995,9996,9997,9998,9813,9814,9815,9816,
9833,9834,9835,9836,9837,9838,10025,10026,10027,10028,10029,10030,9845,9846,9847,9848,
9865,9866,9867,9868,9869,9870,10057,10058,10059,10060,10061,10062,9877,9878,9879,9880,
9897,9898,9899,9900,9901,9902,10089,10090,10091,10092,10093,10094,9909,9910,9911,9912,
9929,9930,9931,9932,9933,9934,10121,10122,10123,10124,10125,10126,9941,9942,9943,9944,
9961,9962,9963,9964,9965,9966,10153,10154,10155,10156,10157,10158,9973,9974,9975,9976,
9993,9994,9995,9996,9997,9998,9813,9814,9815,9816,9817,9818,10005,10006,10007,10008,
10025,10026,10027,10028,10029,10030,9845,9846,9847,9848,9849,9850,10037,10038,10039,10040,
10057,10058,10059,10060,10061,10062,9877,9878,9879,9880,9881,9882,10069,10070,10071,10072,
10089,10090,10091,10092,10093,10094,9909,9910,9911,9912,9913,9914,10101,10102,10103,10104,
10121,10122,10123,10124,10125,10126,9941,9942,9943,9944,9945,9946,10133,10134,10135,10136
</chunk>
   <chunk x="-272" y="384" width="16" height="16">
10041,10042,9833,9834,9835,9836,9837,9838,10025,10026,10027,10028,10029,10030,0,0,
10073,10074,9865,9866,9867,9868,9869,9870,10057,10058,10059,10060,10061,10062,0,0,
10105,10106,9897,9898,9899,9900,9901,9902,10089,10090,10091,10092,10093,10094,0,0,
10137,10138,9929,9930,9931,9932,9933,9934,10121,10122,10123,10124,10125,10126,0,0,
10169,10170,9961,9962,9963,9964,9965,9966,10153,10154,10155,10156,10157,10158,0,0,
9817,9818,9993,9994,9995,9996,9997,9998,9801,9802,9803,9804,9805,9806,0,0,
9849,9850,10025,10026,10027,10028,10029,10030,9833,9834,9835,9836,9837,9838,0,0,
9881,9882,10057,10058,10059,10060,10061,10062,9865,9866,9867,9868,9869,9870,0,0,
9913,9914,10089,10090,10091,10092,10093,10094,9897,9898,9899,9900,9901,9902,0,0,
9945,9946,10121,10122,10123,10124,10125,10126,9929,9930,9931,9932,9933,9934,0,0,
9977,9978,10153,10154,10155,10156,10157,10158,9961,9962,9963,9964,9965,9966,0,0,
10009,10010,9801,9802,9803,9804,9805,9806,9993,9994,9995,9996,9997,9998,0,0,
10041,10042,9833,9834,9835,9836,9837,9838,10025,10026,10027,10028,10029,10030,0,0,
10073,10074,9865,9866,9867,9868,9869,9870,10057,10058,10059,10060,10061,10062,0,0,
10105,10106,9897,9898,9899,9900,9901,9902,10089,10090,10091,10092,10093,10094,0,0,
10137,10138,9929,9930,9931,9932,9933,9934,10121,10122,10123,10124,10125,10126,0,0
</chunk>
   <chunk x="-80" y="384" width="16" height="16">
0,0,0,0,0,0,0,0,0,0,0,0,0,0,10025,10026,
0,0,0,0,0,0,0,0,0,0,0,0,0,0,10057,10058,
0,0,0,0,0,0,0,0,0,0,0,0,0,0,10089,10090,
0,0,0,0,0,0,0,0,0,0,0,0,0,0,10121,10122,
0,0,0,0,0,0,0,0,0,0,0,0,0,0,10153,10154,
0,0,0,0,0,0,0,0,0,0,0,0,0,0,9801,9802,
0,0,0,0,0,0,0,0,0,0,0,0,0,0,9833,9834,
0,0,0,0,0,0,0,0,0,0,0,0,0,0,9865,9866,
0,0,0,0,0,0,0,0,0,0,0,0,0,0,9897,9898,
0,0,0,0,0,0,0,0,0,0,0,0,0,0,9929,9930,
0,0,0,0,0,0,0,0,0,0,0,0,0,0,9961,9962,
0,0,0,0,0,0,0,0,0,0,0,0,0,0,9993,9994,
0,0,0,0,0,0,0,0,0,0,0,0,0,0,10025,10026,
0,0,0,0,0,0,0,0,0,0,0,0,0,0,10057,10058,
0,0,0,0,0,0,0,0,0,0,0,0,0,0,10089,10090,
0,0,0,0,0,0,0,0,0,0,0,0,0,0,10121,10122
</chunk>
   <chunk x="-64" y="384" width="16" height="16">
10027,10028,10029,10030,0,0,0,0,0,0,0,0,0,0,0,0,
10059,10060,10061,10062,0,0,0,0,0,0,0,0,0,0,0,0,
10091,10092,10093,10094,0,0,0,0,0,0,0,0,0,0,0,0,
10123,10124,10125,10126,0,0,0,0,0,0,0,0,0,0,0,0,
10155,10156,10157,10158,0,0,0,0,0,0,0,0,0,0,0,0,
9803,9804,9805,9806,9993,9994,9995,9996,9997,9998,0,0,0,0,0,0,
9835,9836,9837,9838,10025,10026,10027,10028,10029,10030,0,0,0,0,0,0,
9867,9868,9869,9870,10057,10058,10059,10060,10061,10062,0,0,0,0,0,0,
9899,9900,9901,9902,10089,10090,10091,10092,10093,10094,0,0,0,0,0,0,
9931,9932,9933,9934,10121,10122,10123,10124,10125,10126,0,0,0,0,0,0,
9963,9964,9965,9966,10153,10154,10155,10156,10157,10158,0,0,0,0,0,0,
9995,9996,9997,9998,9801,9802,9803,9804,9805,9806,0,0,0,0,0,0,
10027,10028,10029,10030,9833,9834,9835,9836,9837,9838,0,0,0,0,0,0,
10059,10060,10061,10062,9865,9866,9867,9868,9869,9870,0,0,0,0,0,0,
10091,10092,10093,10094,9897,9898,9899,9900,9901,9902,0,0,0,0,0,0,
10123,10124,10125,10126,9929,9930,9931,9932,9933,9934,0,0,0,0,0,0
</chunk>
   <chunk x="-48" y="384" width="16" height="16">
0,0,0,0,0,0,2660,2661,2094,2095,2147486309,2147486308,0,0,0,0,
0,0,0,0,0,0,2628,2629,2062,2063,2147486277,2147486276,2634,2635,2634,2635,
0,0,0,0,0,0,2660,2661,2094,2095,2147486309,2147486308,2666,2667,2666,2667,
0,0,0,0,0,0,2628,2629,2062,2063,2147486277,2147486276,2634,2635,2634,2635,
0,0,0,0,0,0,2660,2661,2094,2095,2147486309,2147486308,2666,2667,2666,2667,
0,0,0,0,0,0,2628,2629,2062,2063,3221228005,3221228004,2566,2567,2566,2567,
0,0,0,0,0,0,2660,2661,2094,2095,3221227973,3221227972,2598,2599,2598,2599,
0,0,0,0,0,0,1073744420,1073744421,1073744422,1073744423,1073744422,1073744423,1073744422,1073744423,1073744422,1073744423,
0,0,0,0,0,0,1073744388,1073744389,1073744390,1073744391,1073744390,1073744391,1073744390,1073744391,1073744390,1073744391,
0,0,0,0,0,0,9245,9246,9237,9238,9239,9240,9237,9238,9239,9240,
0,0,0,0,0,0,9277,9278,9269,9270,9271,9272,9269,9270,9271,9272,
9813,9814,9815,9816,9817,9818,9237,9238,9239,9240,9237,9238,9239,9240,9305,9306,
9845,9846,9847,9848,9849,9850,9269,9270,9271,9272,9269,9270,9271,9272,9337,9338,
9877,9878,9879,9880,9881,9882,9245,9246,9237,9238,9239,9240,9241,9242,9239,9240,
9909,9910,9911,9912,9913,9914,9277,9278,9269,9270,9271,9272,9273,9274,9271,9272,
9941,9942,9943,9944,9945,9946,9237,9238,9239,9240,9237,9238,9307,9308,9237,9238
</chunk>
   <chunk x="-32" y="384" width="16" height="16">
0,0,2666,2667,2147492912,2147492911,9261,9262,9261,9262,9261,9262,9261,9262,9261,9262,
2634,2635,2634,2635,2147492944,2147492943,1073751149,1073751150,1073751149,1073751150,1073751149,1073751150,1073751149,1073751150,1073751149,1073751150,
2666,2667,2666,2667,2147492976,2147492975,1073751117,1073751118,1073751117,1073751118,1073751117,1073751118,1073751117,1073751118,1073751117,1073751118,
2634,2635,2634,2635,2634,2635,2634,2635,2634,2635,2634,2635,2634,2635,2634,2635,
2666,2667,2666,2667,2666,2667,2666,2667,2666,2667,2666,2667,2666,2667,2666,2667,
2566,2567,2566,2567,2566,2567,2566,2567,2566,2567,2566,2567,2566,2567,2566,2567,
2598,2599,2598,2599,2598,2599,2598,2599,2598,2599,2598,2599,2598,2599,2598,2599,
1073744422,1073744423,1073744422,1073744423,1073744422,1073744423,1073744422,1073744423,1073744422,1073744423,1073744422,1073744423,1073744422,1073744423,1073744422,1073744423,
1073744390,1073744391,1073744390,1073744391,1073744390,1073744391,1073744390,1073744391,1073744390,1073744391,1073744390,1073744391,1073744390,1073744391,1073744390,1073744391,
9237,9238,9239,9240,9237,9238,9239,9240,9237,9238,9239,9240,9237,9238,9239,9240,
9269,9270,9271,9272,9269,9270,9271,9272,9269,9270,9271,9272,9269,9270,9271,9272,
9239,9240,9241,9242,9239,9240,9301,9302,2634,2635,2634,2635,2634,2635,9237,9238,
9271,9272,9273,9274,9271,9272,9333,9334,2666,2667,2666,2667,2666,2667,9269,9270,
9237,9238,9307,9308,9237,9238,9239,9240,2698,2699,2698,2699,2698,2699,9245,9246,
9269,9270,9339,9340,9269,9270,9271,9272,2730,2731,2730,2731,2730,2731,9277,9278,
9239,9240,9241,9242,9239,9240,9301,9302,2698,2699,2698,2699,2698,2699,9237,9238
</chunk>
   <chunk x="-16" y="384" width="16" height="16">
9263,9264,2666,2667,2666,2667,2666,2667,2730,2731,2660,2661,2094,2095,2147486309,2147486308,
9295,9296,2634,2635,2634,2635,2634,2635,2698,2699,2628,2629,2062,2063,2147486277,2147486276,
9327,9328,2666,2667,2666,2667,2666,2667,2730,2731,2660,2661,2094,2095,2147486309,2147486308,
2634,2635,2634,2635,2634,2635,2634,2635,2698,2699,2628,2629,2062,2063,2147486277,2147486276,
2666,2667,2666,2667,2666,2667,2666,2667,2730,2731,2660,2661,2094,2095,2147486309,2147486308,
2566,2567,2566,2567,2566,2567,2566,2567,2566,2567,1073744356,1073744357,2062,2063,2147486277,2147486276,
2598,2599,2598,2599,2598,2599,2598,2599,2598,2599,1073744324,1073744325,2094,2095,2147486309,2147486308,
1073744422,1073744423,1073744422,1073744423,1073744422,1073744423,1073744422,1073744423,1073744422,1073744423,1073744422,1073744423,1073744422,1073744423,3221228069,3221228068,
1073744390,1073744391,1073744390,1073744391,1073744390,1073744391,1073744390,1073744391,1073744390,1073744391,1073744390,1073744391,1073744390,1073744391,3221228037,3221228036,
9237,9238,9239,9240,9237,9238,9239,9240,9237,9238,9239,9240,9237,9238,9239,9240,
9269,9270,9271,9272,9269,9270,9271,9272,9269,9270,9271,9272,9269,9270,9271,9272,
9239,9240,9237,9238,9239,9240,9305,9306,9239,9240,9241,9242,9239,9240,9301,9302,
9271,9272,9269,9270,9271,9272,9337,9338,9271,9272,9273,9274,9271,9272,9333,9334,
9305,9306,9239,9240,9241,9242,9239,9240,9237,9238,9307,9308,9237,9238,9239,9240,
9337,9338,9271,9272,9273,9274,9271,9272,9269,9270,9339,9340,9269,9270,9271,9272,
9239,9240,9237,9238,9307,9308,9237,9238,9239,9240,9241,9242,9239,9240,9237,9238
</chunk>
   <chunk x="0" y="384" width="16" height="16">
2666,2667,2666,2667,2666,2667,2666,2667,2666,2667,2730,2731,0,0,0,0,
2634,2635,2634,2635,2634,2635,2634,2635,2634,2635,2698,2699,0,0,0,0,
2666,2667,2666,2667,2666,2667,2666,2667,2666,2667,2730,2731,0,0,0,0,
0,0,0,0,0,0,2634,2635,2634,2635,2698,2699,0,0,0,0,
0,0,0,0,0,0,2666,2667,2666,2667,2730,2731,0,0,0,0,
0,0,0,0,0,0,2634,2635,2634,2635,2698,2699,0,0,0,0,
0,0,0,0,0,0,2666,2667,2666,2667,2730,2731,0,0,0,0,
0,0,0,0,0,0,2634,2635,2634,2635,2634,2635,2634,2635,2634,2635,
0,0,0,0,0,0,2666,2667,2666,2667,2666,2667,2666,2667,2666,2667,
2634,2635,2634,2635,2634,2635,2634,2635,2634,2635,2634,2635,2634,2635,2634,2635,
2666,2667,2666,2667,2666,2667,2666,2667,2666,2667,2666,2667,2666,2667,2666,2667,
2566,2567,2566,2567,2566,2567,2566,2567,2566,2567,2566,2567,2566,2567,2566,2567,
2598,2599,2598,2599,2598,2599,2598,2599,2598,2599,2598,2599,2598,2599,2598,2599,
1073744422,1073744423,1073744422,1073744423,1073744422,1073744423,1073744422,1073744423,1073744422,1073744423,1073744422,1073744423,1073744422,1073744423,1073744422,1073744423,
1073744390,1073744391,1073744390,1073744391,1073744390,1073744391,1073744390,1073744391,1073744390,1073744391,1073744390,1073744391,1073744390,1073744391,1073744390,1073744391,
9239,9240,9237,9238,9239,9240,9237,9238,9239,9240,9237,9238,9239,9240,9237,9238
</chunk>
   <chunk x="16" y="384" width="16" height="16">
0,0,2660,2661,2094,2095,2147486309,2147486308,0,0,0,0,0,0,2596,2597,
0,0,2628,2629,2062,2063,2147486277,2147486276,0,0,0,0,0,0,2628,2629,
0,0,2660,2661,2094,2095,2147486309,2147486308,0,0,0,0,0,0,2660,2661,
0,0,2628,2629,2062,2063,2147486277,2147486276,0,0,0,0,0,0,2628,2629,
0,0,2660,2661,2094,2095,2147486309,2147486308,0,0,0,0,0,0,2660,2661,
0,0,2628,2629,2062,2063,2147486277,2147486276,0,0,0,0,0,0,2628,2629,
0,0,2660,2661,2094,2095,2147486309,2147486308,0,0,0,0,0,0,2660,2661,
2698,2699,2628,2629,2062,2063,2147486277,2147486276,0,0,0,0,0,0,2628,2629,
2730,2731,2660,2661,2094,2095,2147486309,2147486308,0,0,0,0,0,0,2660,2661,
2698,2699,2628,2629,2062,2063,2147486277,2147486276,0,0,0,0,0,0,2628,2629,
2730,2731,2660,2661,2094,2095,2147486309,2147486308,0,0,0,0,0,0,2660,2661,
2566,2567,1073744356,1073744357,2062,2063,2147486277,2147486276,10005,10006,10007,10008,10009,10010,2628,2629,
2598,2599,1073744324,1073744325,2094,2095,2147486309,2147486308,10037,10038,10039,10040,10041,10042,2660,2661,
1073744422,1073744423,1073744422,1073744423,1073744422,1073744423,3221228069,3221228068,10069,10070,10071,10072,10073,10074,2628,2629,
1073744390,1073744391,1073744390,1073744391,1073744390,1073744391,3221228037,3221228036,10101,10102,10103,10104,10105,10106,2660,2661,
9239,9240,9237,9238,9239,9240,9301,9302,10133,10134,10135,10136,10137,10138,2628,2629
</chunk>
   <chunk x="32" y="384" width="16" height="16">
2598,2599,2598,2599,1073744324,1073744325,2094,2095,2147486309,2147486308,9723,9724,9725,9726,2147493372,2147493371,
2062,2063,2147486149,2147486148,1073744422,1073744423,1073744422,1073744423,3221228069,3221228068,9755,9756,9757,9758,2147493404,2147493403,
2094,2095,2147486181,2147486180,1073744390,1073744391,1073744390,1073744391,3221228037,3221228036,9787,9788,9789,9790,2147493436,2147493435,
2062,2063,2147486277,2147486276,0,0,0,0,0,0,0,0,0,0,0,0,
2094,2095,2147486309,2147486308,0,0,0,0,0,0,0,0,0,0,0,0,
2062,2063,2147486277,2147486276,0,0,0,0,0,0,2634,2635,2634,2635,2698,2699,
2094,2095,2147486309,2147486308,0,0,0,0,0,0,2666,2667,2666,2667,2730,2731,
2062,2063,2147486277,2147486276,0,0,0,0,0,0,0,0,0,0,0,0,
2094,2095,2147486309,2147486308,0,0,0,0,0,0,0,0,0,0,0,0,
2062,2063,2147486277,2147486276,0,0,0,0,0,0,0,0,0,0,0,0,
2094,2095,2147486309,2147486308,0,0,0,0,0,0,0,0,0,0,0,0,
2062,2063,2147486277,2147486276,2634,2635,2634,2635,2634,2635,0,0,0,0,0,0,
2094,2095,2147486309,2147486308,2666,2667,2666,2667,2666,2667,0,0,0,0,0,0,
2062,2063,2147486277,2147486276,2634,2635,2634,2635,2634,2635,2634,2635,2634,2635,2634,2635,
2094,2095,2147486309,2147486308,2666,2667,2666,2667,2666,2667,2666,2667,2666,2667,2666,2667,
2062,2063,2147486277,2147486276,2634,2635,2634,2635,2634,2635,2634,2635,2634,2635,2634,2635
</chunk>
   <chunk x="48" y="384" width="16" height="16">
2660,2661,2094,2095,3221227973,3221227972,2598,2599,2598,2599,2147486245,2147486244,0,0,0,0,
1073744420,1073744421,1073744422,1073744423,1073744422,1073744423,2500,2501,2062,2063,2147486277,2147486276,0,0,0,0,
1073744388,1073744389,1073744390,1073744391,1073744390,1073744391,2532,2533,2094,2095,2147486309,2147486308,0,0,0,0,
0,0,0,0,0,0,2628,2629,2062,2063,2147486277,2147486276,0,0,0,0,
0,0,0,0,0,0,2660,2661,2094,2095,2147486309,2147486308,0,0,0,0,
0,0,0,0,0,0,2628,2629,2062,2063,2147486277,2147486276,0,0,0,0,
0,0,0,0,0,0,2660,2661,2094,2095,2147486309,2147486308,0,0,0,0,
0,0,0,0,0,0,2628,2629,2062,2063,2147486277,2147486276,0,0,0,0,
0,0,0,0,0,0,2660,2661,2094,2095,2147486309,2147486308,0,0,0,0,
0,0,0,0,0,0,2628,2629,2062,2063,2147486277,2147486276,0,0,0,0,
0,0,0,0,0,0,2660,2661,2094,2095,2147486309,2147486308,0,0,0,0,
2634,2635,2634,2635,2698,2699,2628,2629,2062,2063,2147486277,2147486276,0,0,0,0,
2666,2667,2666,2667,2730,2731,2660,2661,2094,2095,2147486309,2147486308,0,0,0,0,
2634,2635,2634,2635,2698,2699,2628,2629,2062,2063,2147486277,2147486276,0,0,0,0,
2666,2667,2666,2667,2730,2731,2660,2661,2094,2095,2147486309,2147486308,0,0,0,0,
2634,2635,2634,2635,2698,2699,2628,2629,2062,2063,2147486277,2147486276,0,0,0,0
</chunk>
   <chunk x="64" y="384" width="16" height="16">
0,0,0,0,0,0,0,0,0,0,0,0,0,0,0,0,
0,0,0,0,0,0,0,0,0,0,0,0,0,0,0,0,
0,0,0,0,0,0,0,0,0,0,0,0,0,0,0,0,
2147485897,2147485896,0,0,0,0,0,0,0,0,0,0,0,0,0,0,
2147485929,2147485928,0,0,0,0,0,0,0,0,0,0,0,0,0,0,
0,0,0,0,0,0,0,0,0,0,0,0,0,0,0,0,
0,0,0,0,0,0,0,0,0,0,0,0,0,0,0,0,
0,0,0,0,0,0,0,0,0,0,0,0,0,0,0,0,
0,0,0,0,0,0,0,0,0,0,0,0,0,0,0,0,
0,0,0,0,0,0,0,0,0,0,0,0,0,0,0,0,
0,0,0,0,0,0,0,0,0,0,0,0,0,0,0,0,
0,0,0,0,0,0,0,0,0,0,0,0,0,0,0,0,
0,0,0,0,0,0,0,0,0,0,0,0,0,0,0,0,
0,0,0,0,0,0,0,0,0,0,0,0,0,0,0,0,
0,0,0,0,0,0,0,0,0,0,0,0,0,0,0,0,
0,0,0,0,0,0,0,0,0,0,0,0,0,0,0,0
</chunk>
   <chunk x="80" y="384" width="16" height="16">
0,0,0,0,0,0,0,0,0,0,0,0,0,0,0,0,
0,0,0,0,0,0,0,0,0,0,0,0,0,0,0,0,
0,0,0,0,0,0,0,0,0,0,0,0,0,0,0,0,
0,0,0,0,0,0,0,0,0,0,0,0,0,0,0,0,
0,0,0,0,0,0,0,0,0,0,0,0,0,0,0,0,
0,0,0,0,0,0,0,0,0,0,0,0,0,0,0,0,
0,0,0,0,0,0,0,0,0,0,0,0,0,0,0,0,
0,0,0,0,0,0,0,0,0,0,0,0,0,0,0,0,
0,0,0,0,0,0,0,0,0,0,0,0,0,0,0,0,
0,0,0,0,0,0,0,0,0,0,0,0,0,0,0,0,
0,0,0,0,0,0,0,0,0,0,0,0,0,0,0,0,
0,0,0,0,9801,9802,9803,9804,9805,9806,9993,9994,9995,9996,9997,9998,
0,0,0,0,9833,9834,9835,9836,9837,9838,10025,10026,10027,10028,10029,10030,
0,0,0,0,9865,9866,9867,9868,9869,9870,10057,10058,10059,10060,10061,10062,
0,0,0,0,9897,9898,9899,9900,9901,9902,10089,10090,10091,10092,10093,10094,
0,0,0,0,9929,9930,9931,9932,9933,9934,10121,10122,10123,10124,10125,10126
</chunk>
   <chunk x="96" y="384" width="16" height="16">
0,0,0,0,0,0,0,0,0,0,0,0,9845,9846,9847,9848,
0,0,0,0,0,0,0,0,0,0,0,0,9877,9878,9879,9880,
0,0,0,0,0,0,0,0,0,0,0,0,9909,9910,9911,9912,
0,0,0,0,0,0,0,0,0,0,0,0,9941,9942,9943,9944,
0,0,0,0,0,0,0,0,0,0,0,0,9973,9974,9975,9976,
0,0,0,0,0,0,0,0,0,0,0,0,10005,10006,10007,10008,
0,0,0,0,0,0,0,0,0,0,0,0,10037,10038,10039,10040,
0,0,0,0,0,0,0,0,0,0,0,0,10069,10070,10071,10072,
0,0,0,0,0,0,0,0,0,0,0,0,10101,10102,10103,10104,
0,0,0,0,0,0,0,0,0,0,0,0,10133,10134,10135,10136,
0,0,0,0,0,0,0,0,0,0,0,0,10165,10166,10167,10168,
9801,9802,9803,9804,9805,9806,9993,9994,9995,9996,9997,9998,9813,9814,9815,9816,
9833,9834,9835,9836,9837,9838,10025,10026,10027,10028,10029,10030,9845,9846,9847,9848,
9865,9866,9867,9868,9869,9870,10057,10058,10059,10060,10061,10062,9877,9878,9879,9880,
9897,9898,9899,9900,9901,9902,10089,10090,10091,10092,10093,10094,9909,9910,9911,9912,
9929,9930,9931,9932,9933,9934,10121,10122,10123,10124,10125,10126,9941,9942,9943,9944
</chunk>
   <chunk x="112" y="384" width="16" height="16">
9849,9850,10037,10038,10039,10040,10041,10042,9845,9846,9847,9848,9849,9850,10037,10038,
9881,9882,10069,10070,10071,10072,10073,10074,9877,9878,9879,9880,9881,9882,10069,10070,
9913,9914,10101,10102,10103,10104,10105,10106,9909,9910,9911,9912,9913,9914,10101,10102,
9945,9946,10133,10134,10135,10136,10137,10138,9941,9942,9943,9944,9945,9946,10133,10134,
9977,9978,10165,10166,10167,10168,10169,10170,9973,9974,9975,9976,9977,9978,10165,10166,
10009,10010,9813,9814,9815,9816,9817,9818,10005,10006,10007,10008,10009,10010,9813,9814,
10041,10042,9845,9846,9847,9848,9849,9850,10037,10038,10039,10040,10041,10042,9845,9846,
10073,10074,9877,9878,9879,9880,9881,9882,10069,10070,10071,10072,10073,10074,9877,9878,
10105,10106,9909,9910,9911,9912,9913,9914,10101,10102,10103,10104,10105,10106,9909,9910,
10137,10138,9941,9942,9943,9944,9945,9946,10133,10134,10135,10136,10137,10138,9941,9942,
10169,10170,9973,9974,9975,9976,9977,9978,10165,10166,10167,10168,10169,10170,9973,9974,
9817,9818,10005,10006,10007,10008,10009,10010,9813,9814,9815,9816,9817,9818,10005,10006,
9849,9850,10037,10038,10039,10040,10041,10042,9845,9846,9847,9848,9849,9850,10037,10038,
9881,9882,10069,10070,10071,10072,10073,10074,9877,9878,9879,9880,9881,9882,10069,10070,
9913,9914,10101,10102,10103,10104,10105,10106,9909,9910,9911,9912,9913,9914,10101,10102,
9945,9946,10133,10134,10135,10136,10137,10138,9941,9942,9943,9944,9945,9946,10133,10134
</chunk>
   <chunk x="128" y="384" width="16" height="16">
10039,10040,10041,10042,9845,9846,9847,9848,9849,9850,10037,10038,10039,10040,10041,10042,
10071,10072,10073,10074,9877,9878,9879,9880,9881,9882,10069,10070,10071,10072,10073,10074,
10103,10104,10105,10106,9909,9910,9911,9912,9913,9914,10101,10102,10103,10104,10105,10106,
10135,10136,10137,10138,9941,9942,9943,9944,9945,9946,10133,10134,10135,10136,10137,10138,
10167,10168,10169,10170,9973,9974,9975,9976,9977,9978,10165,10166,10167,10168,10169,10170,
9815,9816,9817,9818,10005,10006,10007,10008,10009,10010,9813,9814,9815,9816,9817,9818,
9847,9848,9849,9850,10037,10038,10039,10040,10041,10042,9845,9846,9847,9848,9849,9850,
9879,9880,9881,9882,10069,10070,10071,10072,10073,10074,9877,9878,9879,9880,9881,9882,
9911,9912,9913,9914,10101,10102,10103,10104,10105,10106,9909,9910,9911,9912,9913,9914,
9943,9944,9945,9946,10133,10134,10135,10136,10137,10138,9941,9942,9943,9944,9945,9946,
9975,9976,9977,9978,10165,10166,10167,10168,10169,10170,9973,9974,9975,9976,9977,9978,
10007,10008,10009,10010,9813,9814,9815,9816,9817,9818,10005,10006,10007,10008,10009,10010,
10039,10040,10041,10042,9845,9846,9847,9848,9849,9850,10037,10038,10039,10040,10041,10042,
10071,10072,10073,10074,9877,9878,9879,9880,9881,9882,10069,10070,10071,10072,10073,10074,
10103,10104,10105,10106,9909,9910,9911,9912,9913,9914,10101,10102,10103,10104,10105,10106,
10135,10136,10137,10138,9941,9942,9943,9944,9945,9946,10133,10134,10135,10136,10137,10138
</chunk>
   <chunk x="144" y="384" width="16" height="16">
9845,9846,9847,9848,9849,9850,0,0,0,0,0,0,0,0,0,0,
9877,9878,9879,9880,9881,9882,0,0,0,0,0,0,0,0,0,0,
9909,9910,9911,9912,9913,9914,0,0,0,0,0,0,0,0,0,0,
9941,9942,9943,9944,9945,9946,0,0,0,0,0,0,0,0,0,0,
9973,9974,9975,9976,9977,9978,0,0,0,0,0,0,0,0,0,0,
10005,10006,10007,10008,10009,10010,0,0,0,0,0,0,0,0,0,0,
10037,10038,10039,10040,10041,10042,0,0,0,0,0,0,0,0,0,0,
10069,10070,10071,10072,10073,10074,0,0,0,0,0,0,0,0,0,0,
10101,10102,10103,10104,10105,10106,0,0,0,0,0,0,0,0,0,0,
10133,10134,10135,10136,10137,10138,0,0,0,0,0,0,0,0,0,0,
10165,10166,10167,10168,10169,10170,0,0,0,0,0,0,0,0,0,0,
9813,9814,9815,9816,9817,9818,0,0,0,0,0,0,0,0,0,0,
9845,9846,9847,9848,9849,9850,0,0,0,0,0,0,0,0,0,0,
9877,9878,9879,9880,9881,9882,0,0,0,0,0,0,0,0,0,0,
9909,9910,9911,9912,9913,9914,0,0,0,0,0,0,0,0,0,0,
9941,9942,9943,9944,9945,9946,0,0,0,0,0,0,0,0,0,0
</chunk>
   <chunk x="-352" y="400" width="16" height="16">
0,0,0,0,0,0,0,0,0,0,9973,9974,9975,9976,9977,9978,
0,0,0,0,0,0,0,0,0,0,0,0,0,0,0,0,
0,0,0,0,0,0,0,0,0,0,0,0,0,0,0,0,
0,0,0,0,0,0,0,0,0,0,0,0,0,0,0,0,
0,0,0,0,0,0,0,0,0,0,0,0,0,0,0,0,
0,0,0,0,0,0,0,0,0,0,0,0,0,0,0,0,
0,0,0,0,0,0,0,0,0,0,0,0,0,0,0,0,
0,0,0,0,0,0,0,0,0,0,0,0,0,0,0,0,
0,0,0,0,0,0,0,0,0,0,0,0,0,0,0,0,
0,0,0,0,0,0,0,0,0,0,0,0,0,0,0,0,
0,0,0,0,0,0,0,0,0,0,0,0,0,0,0,0,
0,0,0,0,0,0,0,0,0,0,0,0,0,0,0,0,
0,0,0,0,0,0,0,0,0,0,0,0,0,0,0,0,
0,0,0,0,0,0,0,0,0,0,0,0,0,0,0,0,
0,0,0,0,0,0,0,0,0,0,0,0,0,0,0,0,
0,0,0,0,0,0,0,0,0,0,0,0,0,0,0,0
</chunk>
   <chunk x="-336" y="400" width="16" height="16">
10165,10166,10167,10168,10169,10170,9961,9962,9963,9964,9965,9966,10153,10154,10155,10156,
0,0,0,0,0,0,0,0,0,0,0,0,0,0,0,0,
0,0,0,0,0,0,0,0,0,0,0,0,0,0,0,0,
0,0,0,0,0,0,0,0,0,0,0,0,0,0,0,0,
0,0,0,0,0,0,0,0,0,0,0,0,0,0,0,0,
0,0,0,0,0,0,0,0,0,0,0,0,0,0,0,0,
0,0,0,0,0,0,0,0,0,0,0,0,0,0,0,0,
0,0,0,0,0,0,0,0,0,0,0,0,0,0,0,0,
0,0,0,0,0,0,0,0,0,0,0,0,0,0,0,0,
0,0,0,0,0,0,0,0,0,0,0,0,0,0,0,0,
0,0,0,0,0,0,0,0,0,0,0,0,0,0,0,0,
0,0,0,0,0,0,0,0,0,0,0,0,0,0,0,0,
0,0,0,0,0,0,0,0,0,0,0,0,0,0,0,0,
0,0,0,0,0,0,0,0,0,0,0,0,0,0,0,0,
0,0,0,0,0,0,0,0,0,0,0,0,0,0,0,0,
0,0,0,0,0,0,0,0,0,0,0,0,0,0,0,0
</chunk>
   <chunk x="-320" y="400" width="16" height="16">
10157,10158,9961,9962,9963,9964,9965,9966,10153,10154,10155,10156,10157,10158,9961,9962,
0,0,0,0,0,0,0,0,0,0,0,0,0,0,0,0,
0,0,0,0,0,0,0,0,0,0,0,0,0,0,0,0,
0,0,0,0,0,0,0,0,0,0,0,0,0,0,0,0,
0,0,0,0,0,0,0,0,0,0,0,0,0,0,0,0,
0,0,0,0,0,0,0,0,0,0,0,0,0,0,0,0,
0,0,0,0,0,0,0,0,0,0,0,0,0,0,0,0,
0,0,0,0,0,0,0,0,0,0,0,0,0,0,0,0,
0,0,0,0,0,0,0,0,0,0,0,0,0,0,0,0,
0,0,0,0,0,0,0,0,0,0,0,0,0,0,0,0,
0,0,0,0,0,0,0,0,0,0,0,0,0,0,0,0,
0,0,0,0,0,0,0,0,0,0,0,0,0,0,0,0,
0,0,0,0,0,0,0,0,0,0,0,0,0,0,0,0,
0,0,0,0,0,0,0,0,0,0,0,0,0,0,0,0,
0,0,0,0,0,0,0,0,0,0,0,0,0,0,0,0,
0,0,0,0,0,0,0,0,0,0,0,0,0,0,0,0
</chunk>
   <chunk x="-304" y="400" width="16" height="16">
9963,9964,9965,9966,10153,10154,10155,10156,10157,10158,9961,9962,9963,9964,9965,9966,
0,0,0,0,0,0,0,0,0,0,0,0,0,0,0,0,
0,0,0,0,0,0,0,0,0,0,0,0,0,0,0,0,
0,0,0,0,0,0,0,0,0,0,0,0,0,0,0,0,
0,0,0,0,0,0,0,0,0,0,0,0,0,0,0,0,
0,0,0,0,0,0,0,0,0,0,0,0,0,0,0,0,
0,0,0,0,0,0,0,0,0,0,0,0,0,0,0,0,
0,0,0,0,0,0,0,0,0,0,0,0,0,0,0,0,
0,0,0,0,0,0,0,0,0,0,0,0,0,0,0,0,
0,0,0,0,0,0,0,0,0,0,0,0,0,0,0,0,
0,0,0,0,0,0,0,0,0,0,0,0,0,0,0,0,
0,0,0,0,0,0,0,0,0,0,0,0,0,0,0,0,
0,0,0,0,0,0,0,0,0,0,0,0,0,0,0,0,
0,0,0,0,0,0,0,0,0,0,0,0,0,0,0,0,
0,0,0,0,0,0,0,0,0,0,0,0,0,0,0,0,
0,0,0,0,0,0,0,0,0,0,0,0,0,0,0,0
</chunk>
   <chunk x="-288" y="400" width="16" height="16">
10153,10154,10155,10156,10157,10158,9973,9974,9975,9976,9977,9978,10165,10166,10167,10168,
0,0,0,0,0,0,0,0,0,0,0,0,0,0,0,0,
0,0,0,0,0,0,0,0,0,0,0,0,0,0,0,0,
0,0,0,0,0,0,0,0,0,0,0,0,0,0,0,0,
0,0,0,0,0,0,0,0,0,0,0,0,0,0,0,0,
0,0,0,0,0,0,0,0,0,0,0,0,0,0,0,0,
0,0,0,0,0,0,0,0,0,0,0,0,0,0,0,0,
0,0,0,0,0,0,0,0,0,0,0,0,0,0,0,0,
0,0,0,0,0,0,0,0,0,0,0,0,0,0,0,0,
0,0,0,0,0,0,0,0,0,0,0,0,0,0,0,0,
0,0,0,0,0,0,0,0,0,0,0,0,0,0,0,0,
0,0,0,0,0,0,0,0,0,0,0,0,0,0,0,0,
0,0,0,0,0,0,0,0,0,0,0,0,0,0,0,0,
0,0,0,0,0,0,0,0,0,0,0,0,0,0,0,0,
0,0,0,0,0,0,0,0,0,0,0,0,0,0,0,0,
0,0,0,0,0,0,0,0,0,0,0,0,0,0,0,0
</chunk>
   <chunk x="-272" y="400" width="16" height="16">
10169,10170,9961,9962,9963,9964,9965,9966,10153,10154,10155,10156,10157,10158,0,0,
0,0,0,0,0,0,0,0,0,0,0,0,0,0,0,0,
0,0,0,0,0,0,0,0,0,0,0,0,0,0,0,0,
0,0,0,0,0,0,0,0,0,0,0,0,0,0,0,0,
0,0,0,0,0,0,0,0,0,0,0,0,0,0,0,0,
0,0,0,0,0,0,0,0,0,0,0,0,0,0,0,0,
0,0,0,0,0,0,0,0,0,0,0,0,0,0,0,0,
0,0,0,0,0,0,0,0,0,0,0,0,0,0,0,0,
0,0,0,0,0,0,0,0,0,0,0,0,0,0,0,0,
0,0,0,0,0,0,0,0,0,0,0,0,0,0,0,0,
0,0,0,0,0,0,0,0,0,0,0,0,0,0,0,0,
0,0,0,0,0,0,0,0,0,0,0,0,0,0,0,0,
0,0,0,0,0,0,0,0,0,0,0,0,0,0,0,0,
0,0,0,0,0,0,0,0,0,0,0,0,0,0,0,0,
0,0,0,0,0,0,0,0,0,0,0,0,0,0,0,0,
0,0,0,0,0,0,0,0,0,0,0,0,0,0,0,0
</chunk>
   <chunk x="-256" y="400" width="16" height="16">
0,0,0,0,0,0,0,0,0,0,0,0,0,0,0,0,
0,0,0,0,0,0,0,0,0,0,0,0,0,0,0,0,
0,0,0,0,0,0,0,0,0,0,0,0,0,0,0,0,
0,0,0,0,0,0,0,0,0,0,0,0,0,0,0,0,
0,0,0,0,0,0,0,0,0,0,0,0,0,0,0,0,
0,0,0,0,0,0,0,0,0,0,0,0,0,0,0,0,
0,0,0,0,0,0,0,0,0,0,0,0,0,0,0,0,
0,0,0,0,0,0,0,0,0,0,0,0,0,0,0,0,
0,0,0,0,0,0,0,0,0,0,0,0,0,0,0,0,
0,0,0,0,0,0,0,0,0,0,0,0,0,0,0,0,
0,0,0,0,0,0,0,0,0,0,0,0,0,0,0,0,
0,0,0,0,0,0,0,0,0,0,0,0,0,0,0,0,
0,0,0,0,0,0,0,0,0,0,0,0,0,0,0,0,
0,0,0,0,0,0,0,0,0,0,2634,2635,2634,2635,2698,2699,
0,0,0,0,0,0,0,0,0,0,2666,2667,2666,2667,2730,2731,
0,0,0,0,0,0,0,0,0,0,2634,2635,2634,2635,2698,2699
</chunk>
   <chunk x="-112" y="400" width="16" height="16">
0,0,0,0,0,0,0,0,0,0,0,0,0,0,0,0,
0,0,0,0,0,0,0,0,0,0,0,0,0,0,0,0,
0,0,0,0,0,0,0,0,0,0,0,0,0,0,0,0,
0,0,0,0,0,0,0,0,0,0,0,0,0,0,0,0,
0,0,0,0,0,0,0,0,0,0,0,0,0,0,0,0,
0,0,0,0,0,0,0,0,0,0,0,0,0,0,0,0,
0,0,0,0,0,0,0,0,0,0,0,0,0,0,0,0,
0,0,0,0,0,0,0,0,0,0,0,0,0,0,0,0,
0,0,0,0,0,0,0,0,0,0,0,0,0,0,0,0,
0,0,0,0,0,0,0,0,0,0,0,0,0,0,0,0,
0,0,0,0,0,0,0,0,0,0,0,0,0,0,0,0,
0,0,0,0,0,0,0,0,0,0,0,0,0,0,0,0,
0,0,0,0,0,0,0,0,0,0,0,0,0,0,0,0,
0,0,0,0,0,0,0,0,0,0,0,0,9763,9764,9765,9766,
0,0,0,0,0,0,0,0,0,0,0,0,9795,9796,9797,9798,
0,0,0,0,0,0,0,0,0,0,9445,9446,9827,9828,9829,9830
</chunk>
   <chunk x="-96" y="400" width="16" height="16">
0,0,0,0,0,0,0,0,0,0,0,0,0,0,0,0,
0,0,0,0,0,0,0,0,0,0,0,0,0,0,0,0,
0,0,0,0,0,0,0,0,0,0,0,0,0,0,0,0,
0,0,0,0,0,0,0,0,0,0,0,0,0,0,0,0,
0,0,0,0,0,0,0,0,0,0,0,0,0,0,0,0,
0,0,0,0,0,0,0,0,0,0,0,0,0,0,0,0,
0,0,0,0,0,0,0,0,0,0,0,0,0,0,0,0,
0,0,0,0,0,0,0,0,0,0,0,0,0,0,0,0,
0,0,0,0,0,0,0,0,0,0,0,0,0,0,0,0,
0,0,0,0,0,0,0,0,0,0,0,0,0,0,0,0,
0,0,0,0,0,0,0,0,0,0,0,0,0,0,0,0,
0,0,0,0,0,0,0,0,0,0,0,0,0,0,0,0,
0,0,0,0,0,0,0,0,0,0,0,0,0,0,0,0,
9497,9498,0,0,0,0,0,0,0,0,0,0,0,0,0,0,
9529,9530,0,0,0,0,0,0,0,0,0,0,0,0,0,0,
9561,9562,0,0,0,0,0,0,0,0,0,0,0,0,0,0
</chunk>
   <chunk x="-80" y="400" width="16" height="16">
0,0,0,0,0,0,0,0,0,0,0,0,0,0,10153,10154,
0,0,0,0,0,0,0,0,9993,9994,9995,9996,9997,9998,9801,9802,
0,0,0,0,0,0,0,0,10025,10026,10027,10028,10029,10030,9833,9834,
0,0,0,0,0,0,0,0,10057,10058,10059,10060,10061,10062,9865,9866,
0,0,0,0,0,0,0,0,10089,10090,10091,10092,10093,10094,9897,9898,
0,0,0,0,0,0,0,0,10121,10122,10123,10124,10125,10126,9929,9930,
0,0,0,0,0,0,0,0,10153,10154,10155,10156,10157,10158,9961,9962,
0,0,0,0,0,0,0,0,0,0,0,0,0,0,9993,9994,
0,0,0,0,0,0,0,0,0,0,0,0,0,0,10025,10026,
0,0,0,0,2248,2249,0,0,0,0,0,0,0,0,10057,10058,
0,0,0,0,2280,2281,0,0,0,0,0,0,0,0,10089,10090,
0,0,0,0,0,0,0,0,2248,2249,0,0,0,0,10121,10122,
0,0,0,0,0,0,0,0,2280,2281,0,0,0,0,10153,10154,
0,0,0,0,0,0,0,0,0,0,0,0,0,0,9801,9802,
0,0,0,0,0,0,0,0,0,0,0,0,0,0,9833,9834,
0,0,0,0,0,0,0,0,0,0,0,0,0,0,9865,9866
</chunk>
   <chunk x="-64" y="400" width="16" height="16">
10155,10156,10157,10158,9961,9962,9963,9964,9965,9966,0,0,0,0,0,0,
9803,9804,9805,9806,9993,9994,9995,9996,9997,9998,0,0,0,0,0,0,
9835,9836,9837,9838,10025,10026,10027,10028,10029,10030,0,0,0,0,0,0,
9867,9868,9869,9870,10057,10058,10059,10060,10061,10062,0,0,0,0,0,0,
9899,9900,9901,9902,10089,10090,10091,10092,10093,10094,0,0,0,0,0,0,
9931,9932,9933,9934,10121,10122,10123,10124,10125,10126,0,0,0,0,0,0,
9963,9964,9965,9966,10153,10154,10155,10156,10157,10158,0,0,0,0,0,0,
9995,9996,9997,9998,9801,9802,9803,9804,9805,9806,0,0,0,0,0,0,
10027,10028,10029,10030,9833,9834,9835,9836,9837,9838,0,0,0,0,0,0,
10059,10060,10061,10062,9865,9866,9867,9868,9869,9870,0,0,0,0,0,0,
10091,10092,10093,10094,9897,9898,9899,9900,9901,9902,0,0,0,0,0,0,
10123,10124,10125,10126,9929,9930,9931,9932,9933,9934,0,0,0,0,0,0,
10155,10156,10157,10158,9961,9962,9963,9964,9965,9966,0,0,0,0,0,0,
9803,9804,9805,9806,9993,9994,9995,9996,9997,9998,0,0,0,0,0,0,
9835,9836,9837,9838,10025,10026,10027,10028,10029,10030,0,0,0,0,0,0,
9867,9868,9869,9870,10057,10058,10059,10060,10061,10062,0,0,0,0,0,0
</chunk>
   <chunk x="-48" y="400" width="16" height="16">
9973,9974,9975,9976,9977,9978,9269,9270,9271,9272,9269,9270,9339,9340,9269,9270,
0,0,0,0,0,0,9245,9246,9241,9242,9239,9240,9305,9306,9239,9240,
0,0,0,0,0,0,9277,9278,9273,9274,9271,9272,9337,9338,9271,9272,
0,0,0,0,0,0,9237,9238,9239,9240,9305,9306,9307,9308,9237,9238,
0,0,0,0,0,0,9269,9270,9271,9272,9337,9338,9339,9340,9269,9270,
0,0,0,0,0,0,9245,9246,9241,9242,9243,9244,9241,9242,9243,9244,
0,0,0,0,0,0,9277,9278,9273,9274,9275,9276,9273,9274,9275,9276,
0,0,0,0,0,0,0,0,0,0,0,0,0,0,0,0,
0,0,0,0,0,0,0,0,0,0,0,0,0,0,0,0,
0,0,0,0,0,0,0,0,0,0,0,0,0,0,0,0,
0,0,0,0,0,0,0,0,0,0,0,0,0,0,0,0,
0,0,0,0,0,0,0,0,0,0,0,0,0,0,0,0,
0,0,0,0,0,0,0,0,0,0,0,0,0,0,0,0,
0,0,0,0,0,0,0,0,0,0,0,0,0,0,0,0,
10005,10006,10007,10008,10009,10010,0,0,0,0,0,0,0,0,0,0,
10037,10038,10039,10040,10041,10042,0,0,0,0,0,0,0,0,0,0
</chunk>
   <chunk x="-32" y="400" width="16" height="16">
9271,9272,9273,9274,9271,9272,9333,9334,2730,2731,2730,2731,2730,2731,9269,9270,
9237,9238,9307,9308,9237,9238,9239,9240,0,0,0,0,0,0,9245,9246,
9269,9270,9339,9340,9269,9270,9271,9272,0,0,0,0,0,0,9277,9278,
9239,9240,9241,9242,9239,9240,9301,9302,0,0,0,0,0,0,9305,9306,
9271,9272,9273,9274,9271,9272,9333,9334,0,0,0,0,0,0,9337,9338,
9241,9242,9307,9308,9237,9238,9239,9240,0,0,0,0,0,0,9245,9246,
9273,9274,9339,9340,9269,9270,9271,9272,0,0,0,0,0,0,9277,9278,
0,0,2052,2053,2054,2055,2056,2057,0,0,0,0,0,0,0,0,
0,0,2084,2085,2086,2087,2088,2089,0,0,0,0,0,0,0,0,
0,0,2116,2117,2118,2119,2120,2121,0,0,0,0,0,0,0,0,
0,0,2148,2149,2150,2151,2152,2153,0,0,0,0,0,0,0,0,
0,0,2180,2181,2182,2183,2184,2185,0,0,0,0,0,0,0,0,
0,0,2212,2213,2214,2215,2216,2217,0,0,0,0,0,0,0,0,
0,0,0,0,0,0,0,0,0,0,0,0,0,0,0,0,
0,0,0,0,0,0,0,0,0,0,0,0,0,0,0,0,
0,0,0,0,0,0,0,0,0,0,0,0,0,0,0,0
</chunk>
   <chunk x="-16" y="400" width="16" height="16">
9271,9272,9269,9270,9339,9340,9269,9270,9271,9272,9273,9274,9271,9272,9269,9270,
9237,9238,9239,9240,9305,9306,9239,9240,9237,9238,9239,9240,9305,9306,9239,9240,
9269,9270,9271,9272,9337,9338,9271,9272,9269,9270,9271,9272,9337,9338,9271,9272,
9239,9240,9237,9238,9307,9308,9237,9238,9239,9240,9241,9242,9239,9240,9237,9238,
9271,9272,9269,9270,9339,9340,9269,9270,9271,9272,9273,9274,9271,9272,9269,9270,
9241,9242,9243,9244,9241,9242,9243,9244,9241,9242,9307,9308,9237,9238,9239,9240,
9273,9274,9275,9276,9273,9274,9275,9276,9273,9274,9339,9340,9269,9270,9271,9272,
0,0,0,0,0,0,0,0,0,0,0,0,0,0,0,0,
0,0,0,0,0,0,0,0,0,0,0,0,0,0,0,0,
0,0,0,0,0,0,0,0,0,0,0,0,0,0,0,0,
0,0,0,0,0,0,0,0,0,0,0,0,0,0,0,0,
0,0,0,0,0,0,0,0,0,0,0,0,0,0,0,0,
0,0,0,0,0,0,0,0,0,0,0,0,0,0,0,0,
0,0,0,0,0,0,0,0,0,0,0,0,0,0,0,0,
0,0,0,0,0,0,0,0,0,0,0,0,0,0,0,0,
0,0,0,0,0,0,0,0,0,0,0,0,0,0,0,0
</chunk>
   <chunk x="0" y="400" width="16" height="16">
9271,9272,9269,9270,9271,9272,9269,9270,9271,9272,9269,9270,9271,9272,9269,9270,
9241,9242,9239,9240,9301,9302,2634,2635,2634,2635,2634,2635,9237,9238,9239,9240,
9273,9274,9271,9272,9333,9334,2666,2667,2666,2667,2666,2667,9269,9270,9271,9272,
9307,9308,9237,9238,9239,9240,2698,2699,2698,2699,2698,2699,9245,9246,9305,9306,
9339,9340,9269,9270,9271,9272,2730,2731,2730,2731,2730,2731,9277,9278,9337,9338,
9241,9242,9239,9240,9301,9302,2698,2699,2698,2699,2698,2699,9237,9238,9239,9240,
9273,9274,9271,9272,9333,9334,2730,2731,2730,2731,2730,2731,9269,9270,9271,9272,
0,0,0,0,0,0,0,0,0,0,0,0,2052,2053,2054,2055,
0,0,0,0,0,0,0,0,0,0,0,0,2084,2085,2086,2087,
0,0,0,0,0,0,0,0,0,0,0,0,2116,2117,2118,2119,
0,0,0,0,0,0,0,0,0,0,0,0,2148,2149,2150,2151,
0,0,0,0,0,0,0,0,0,0,0,0,2180,2181,2182,2183,
0,0,0,0,0,0,0,0,0,0,0,0,2212,2213,2214,2215,
0,0,0,0,0,0,0,0,0,0,0,0,0,0,0,0,
0,0,0,0,0,0,0,0,0,0,0,0,0,0,0,0,
0,0,0,0,0,0,0,0,0,0,0,0,0,0,0,0
</chunk>
   <chunk x="16" y="400" width="16" height="16">
9271,9272,9269,9270,9271,9272,9333,9334,10165,10166,10167,10168,10169,10170,2660,2661,
9237,9238,9239,9240,9237,9238,9303,9304,9813,9814,9815,9816,9817,9818,2628,2629,
9269,9270,9271,9272,9269,9270,9335,9336,9845,9846,9847,9848,9849,9850,2660,2661,
9239,9240,9237,9238,9239,9240,9301,9302,9877,9878,9879,9880,9881,9882,2628,2629,
9271,9272,9269,9270,9271,9272,9333,9334,9909,9910,9911,9912,9913,9914,2660,2661,
9237,9238,9239,9240,9305,9306,9303,9304,9941,9942,9943,9944,9945,9946,2628,2629,
9269,9270,9271,9272,9337,9338,9335,9336,9973,9974,9975,9976,9977,9978,2660,2661,
2056,2057,2052,2053,2054,2055,2056,2057,0,0,0,0,0,0,2628,2629,
2088,2089,2084,2085,2086,2087,2088,2089,0,0,0,0,0,0,2660,2661,
2120,2121,2116,2117,2118,2119,2120,2121,0,0,0,0,0,0,2628,2629,
2152,2153,2148,2149,2150,2151,2152,2153,0,0,0,0,0,0,2660,2661,
2184,2185,2180,2181,2182,2183,2184,2185,0,0,0,0,0,0,2628,2629,
2216,2217,2212,2213,2214,2215,2216,2217,0,0,0,0,0,0,2660,2661,
0,0,0,0,0,0,0,0,9813,9814,9815,9816,9817,9818,2628,2629,
0,0,0,0,0,0,0,0,9845,9846,9847,9848,9849,9850,2660,2661,
0,0,0,0,0,0,0,0,9877,9878,9879,9880,9881,9882,1073744420,1073744421
</chunk>
   <chunk x="32" y="400" width="16" height="16">
2094,2095,2147486309,2147486308,2666,2667,2666,2667,2666,2667,2666,2667,2666,2667,2666,2667,
2062,2063,2147486277,2147486276,2634,2635,2634,2635,2634,2635,2634,2635,2634,2635,2634,2635,
2094,2095,2147486309,2147486308,2666,2667,2666,2667,2666,2667,2666,2667,2666,2667,2666,2667,
2062,2063,2147486277,2147486276,0,0,0,0,0,0,2634,2635,2634,2635,2634,2635,
2094,2095,2147486309,2147486308,0,0,0,0,0,0,2666,2667,2666,2667,2666,2667,
2062,2063,2147486277,2147486276,0,0,0,0,0,0,2634,2635,2634,2635,2698,2699,
2094,2095,2147486309,2147486308,0,0,0,0,0,0,2666,2667,2666,2667,2730,2731,
2062,2063,2147486277,2147486276,2634,2635,2634,2635,2634,2635,2634,2635,2634,2635,2634,2635,
2094,2095,2147486309,2147486308,2666,2667,2666,2667,2666,2667,2666,2667,2666,2667,2666,2667,
2062,2063,2147486277,2147486276,0,0,0,0,0,0,2634,2635,2634,2635,2634,2635,
2094,2095,2147486309,2147486308,0,0,0,0,0,0,2666,2667,2666,2667,2666,2667,
2062,2063,2147486277,2147486276,0,0,0,0,0,0,2634,2635,2634,2635,2698,2699,
2094,2095,2147486309,2147486308,0,0,0,0,0,0,2666,2667,2666,2667,2730,2731,
2062,2063,3221228005,3221228004,2566,2567,2566,2567,2566,2567,2566,2567,2566,2567,2566,2567,
2094,2095,3221227973,3221227972,2598,2599,2598,2599,2598,2599,2598,2599,2598,2599,2598,2599,
1073744422,1073744423,1073744422,1073744423,1073744422,1073744423,1073744422,1073744423,1073744422,1073744423,1073744422,1073744423,1073744422,1073744423,1073744422,1073744423
</chunk>
   <chunk x="48" y="400" width="16" height="16">
2666,2667,2666,2667,2730,2731,2660,2661,2094,2095,2147486309,2147486308,0,0,0,0,
2634,2635,2634,2635,2698,2699,2628,2629,2062,2063,2147486277,2147486276,0,0,0,0,
2666,2667,2666,2667,2730,2731,2660,2661,2094,2095,2147486309,2147486308,0,0,0,0,
0,0,0,0,0,0,2628,2629,2062,2063,2147486277,2147486276,0,0,0,0,
0,0,0,0,0,0,2660,2661,2094,2095,2147486309,2147486308,0,0,0,0,
0,0,0,0,0,0,2628,2629,2062,2063,2147486277,2147486276,0,0,0,0,
0,0,0,0,0,0,2660,2661,2094,2095,2147486309,2147486308,0,0,0,0,
2634,2635,2634,2635,2698,2699,2628,2629,2062,2063,2147486277,2147486276,0,0,0,0,
2666,2667,2666,2667,2730,2731,2660,2661,2094,2095,2147486309,2147486308,0,0,0,0,
0,0,0,0,0,0,2628,2629,2062,2063,2147486277,2147486276,0,0,0,0,
0,0,0,0,0,0,2660,2661,2094,2095,2147486309,2147486308,0,0,0,0,
0,0,0,0,0,0,2628,2629,2062,2063,2147486277,2147486276,0,0,0,0,
0,0,0,0,0,0,2660,2661,2094,2095,2147486309,2147486308,0,0,0,0,
2566,2567,2566,2567,2566,2567,1073744356,1073744357,2062,2063,2147486277,2147486276,0,0,0,0,
2598,2599,2598,2599,2598,2599,1073744324,1073744325,2094,2095,2147486309,2147486308,0,0,0,0,
1073744422,1073744423,1073744422,1073744423,1073744422,1073744423,1073744422,1073744423,1073744422,1073744423,3221228069,3221228068,0,0,0,0
</chunk>
   <chunk x="64" y="400" width="16" height="16">
0,0,0,0,0,0,0,0,0,0,0,0,0,0,0,0,
0,0,0,0,0,0,0,0,0,0,0,0,0,0,0,0,
0,0,0,0,0,0,0,0,0,0,0,0,0,0,0,0,
0,0,0,0,0,0,0,0,0,0,0,0,0,0,0,0,
0,0,0,0,0,0,0,0,0,0,0,0,0,0,0,0,
0,0,0,0,0,0,0,0,0,0,0,0,0,0,0,0,
0,0,0,0,0,0,0,0,0,0,0,0,0,0,0,0,
0,0,0,0,0,0,0,0,0,0,0,0,0,0,9993,9994,
0,0,0,0,0,0,0,0,0,0,0,0,0,0,10025,10026,
0,0,0,0,0,0,0,0,0,0,0,0,0,0,10057,10058,
0,0,0,0,0,0,0,0,0,0,0,0,0,0,10089,10090,
0,0,0,0,0,0,0,0,0,0,0,0,0,0,10121,10122,
0,0,0,0,0,0,0,0,0,0,0,0,0,0,10153,10154,
0,0,0,0,0,0,0,0,0,0,0,0,0,0,2564,2565,
0,0,0,0,0,0,0,0,0,0,0,0,0,0,2596,2597,
0,0,0,0,0,0,0,0,0,0,0,0,0,0,2628,2629
</chunk>
   <chunk x="80" y="400" width="16" height="16">
0,0,0,0,9961,9962,9963,9964,9965,9966,10153,10154,10155,10156,10157,10158,
0,0,0,0,9993,9994,9995,9996,9997,9998,9801,9802,9803,9804,9805,9806,
0,0,0,0,10025,10026,10027,10028,10029,10030,9833,9834,9835,9836,9837,9838,
0,0,0,0,10057,10058,10059,10060,10061,10062,9865,9866,9867,9868,9869,9870,
0,0,0,0,10089,10090,10091,10092,10093,10094,9897,9898,9899,9900,9901,9902,
0,0,0,0,10121,10122,10123,10124,10125,10126,9929,9930,9931,9932,9933,9934,
0,0,0,0,10153,10154,10155,10156,10157,10158,9961,9962,9963,9964,9965,9966,
9995,9996,9997,9998,9801,9802,9803,9804,9805,9806,9993,9994,9995,9996,9997,9998,
10027,10028,10029,10030,9833,9834,9835,9836,9837,9838,10025,10026,10027,10028,10029,10030,
10059,10060,10061,10062,9865,9866,9867,9868,9869,9870,10057,10058,10059,10060,10061,10062,
10091,10092,10093,10094,9897,9898,9899,9900,9901,9902,10089,10090,10091,10092,10093,10094,
10123,10124,10125,10126,9929,9930,9931,9932,9933,9934,10121,10122,10123,10124,10125,10126,
10155,10156,10157,10158,9961,9962,9963,9964,9965,9966,10153,10154,10155,10156,10157,10158,
2566,2567,2566,2567,2566,2567,2566,2567,2566,2567,2566,2567,2566,2567,2566,2567,
2598,2599,2598,2599,2598,2599,2598,2599,2598,2599,2598,2599,2598,2599,2598,2599,
2062,2063,2147486149,2147486148,1073744422,1073744423,1073744422,1073744423,1073744422,1073744423,1073744422,1073744423,1073744422,1073744423,1073744422,1073744423
</chunk>
   <chunk x="96" y="400" width="16" height="16">
9961,9962,9963,9964,9965,9966,10153,10154,10155,10156,10157,10158,9973,9974,9975,9976,
9993,9994,9995,9996,9997,9998,9813,9814,9815,9816,9817,9818,10005,10006,10007,10008,
10025,10026,10027,10028,10029,10030,9845,9846,9847,9848,9849,9850,10037,10038,10039,10040,
10057,10058,10059,10060,10061,10062,9877,9878,9879,9880,9881,9882,10069,10070,10071,10072,
10089,10090,10091,10092,10093,10094,9909,9910,9911,9912,9913,9914,10101,10102,10103,10104,
10121,10122,10123,10124,10125,10126,9941,9942,9943,9944,9945,9946,10133,10134,10135,10136,
10153,10154,10155,10156,10157,10158,9973,9974,9975,9976,9977,9978,10165,10166,10167,10168,
9813,9814,9815,9816,9817,9818,10005,10006,10007,10008,10009,10010,9813,9814,9815,9816,
9845,9846,9847,9848,9849,9850,10037,10038,10039,10040,10041,10042,9845,9846,9847,9848,
9877,9878,9879,9880,9881,9882,10069,10070,10071,10072,10073,10074,9877,9878,9879,9880,
9909,9910,9911,9912,9913,9914,10101,10102,10103,10104,10105,10106,9909,9910,9911,9912,
9941,9942,9943,9944,9945,9946,10133,10134,10135,10136,10137,10138,9941,9942,9943,9944,
9973,9974,9975,9976,9977,9978,10165,10166,10167,10168,10169,10170,9973,9974,9975,9976,
2566,2567,2566,2567,2566,2567,2566,2567,2566,2567,2147486213,2147486212,10005,10006,10007,10008,
2598,2599,2598,2599,2598,2599,2598,2599,2598,2599,2147486245,2147486244,10037,10038,10039,10040,
1073744422,1073744423,1073744422,1073744423,1073744422,1073744423,2500,2501,2062,2063,2147486277,2147486276,10069,10070,10071,10072
</chunk>
   <chunk x="112" y="400" width="16" height="16">
9977,9978,10165,10166,10167,10168,10169,10170,9973,9974,9975,9976,9977,9978,10165,10166,
10009,10010,9813,9814,9815,9816,9817,9818,10005,10006,10007,10008,10009,10010,9813,9814,
10041,10042,9845,9846,9847,9848,9849,9850,10037,10038,10039,10040,10041,10042,9845,9846,
10073,10074,9877,9878,9879,9880,9881,9882,10069,10070,10071,10072,10073,10074,9877,9878,
10105,10106,9909,9910,9911,9912,9913,9914,10101,10102,10103,10104,10105,10106,9909,9910,
10137,10138,9941,9942,9943,9944,9945,9946,10133,10134,10135,10136,10137,10138,9941,9942,
10169,10170,9973,9974,9975,9976,9977,9978,10165,10166,10167,10168,10169,10170,9973,9974,
9817,9818,10005,10006,10007,10008,10009,10010,9813,9814,9815,9816,9817,9818,10005,10006,
9849,9850,10037,10038,10039,10040,10041,10042,9845,9846,9847,9848,9849,9850,10037,10038,
9881,9882,10069,10070,10071,10072,10073,10074,9877,9878,9879,9880,9881,9882,10069,10070,
9913,9914,10101,10102,10103,10104,10105,10106,9909,9910,9911,9912,9913,9914,10101,10102,
9945,9946,10133,10134,10135,10136,10137,10138,9941,9942,9943,9944,9945,9946,10133,10134,
9977,9978,10165,10166,10167,10168,10169,10170,9973,9974,9975,9976,9977,9978,10165,10166,
10009,10010,9813,9814,9815,9816,9817,9818,10005,10006,10007,10008,10009,10010,9813,9814,
10041,10042,9845,9846,9847,9848,9849,9850,10037,10038,10039,10040,10041,10042,9845,9846,
10073,10074,9877,9878,9879,9880,9881,9882,10069,10070,10071,10072,10073,10074,9877,9878
</chunk>
   <chunk x="128" y="400" width="16" height="16">
10167,10168,10169,10170,9973,9974,9975,9976,9977,9978,10165,10166,10167,10168,10169,10170,
9815,9816,9817,9818,10005,10006,10007,10008,10009,10010,9813,9814,9815,9816,9817,9818,
9847,9848,9849,9850,10037,10038,10039,10040,10041,10042,9845,9846,9847,9848,9849,9850,
9879,9880,9881,9882,10069,10070,10071,10072,10073,10074,9877,9878,9879,9880,9881,9882,
9911,9912,9913,9914,10101,10102,10103,10104,10105,10106,9909,9910,9911,9912,9913,9914,
9943,9944,9945,9946,10133,10134,10135,10136,10137,10138,9941,9942,9943,9944,9945,9946,
9975,9976,9977,9978,10165,10166,10167,10168,10169,10170,9973,9974,9975,9976,9977,9978,
10007,10008,10009,10010,9813,9814,9815,9816,9817,9818,10005,10006,10007,10008,10009,10010,
10039,10040,10041,10042,9845,9846,9847,9848,9849,9850,10037,10038,10039,10040,10041,10042,
10071,10072,10073,10074,9877,9878,9879,9880,9881,9882,10069,10070,10071,10072,10073,10074,
10103,10104,10105,10106,9909,9910,9911,9912,9913,9914,10101,10102,10103,10104,10105,10106,
10135,10136,10137,10138,9941,9942,9943,9944,9945,9946,10133,10134,10135,10136,10137,10138,
10167,10168,10169,10170,9973,9974,9975,9976,9977,9978,10165,10166,10167,10168,10169,10170,
9815,9816,9817,9818,10005,10006,10007,10008,10009,10010,9801,9802,9803,9804,9805,9806,
9847,9848,9849,9850,10037,10038,10039,10040,10041,10042,9833,9834,9835,9836,9837,9838,
9879,9880,9881,9882,10069,10070,10071,10072,10073,10074,9865,9866,9867,9868,9869,9870
</chunk>
   <chunk x="144" y="400" width="16" height="16">
9973,9974,9975,9976,9977,9978,0,0,0,0,0,0,0,0,0,0,
10005,10006,10007,10008,10009,10010,0,0,0,0,0,0,0,0,0,0,
10037,10038,10039,10040,10041,10042,0,0,0,0,0,0,0,0,0,0,
10069,10070,10071,10072,10073,10074,0,0,0,0,0,0,0,0,0,0,
10101,10102,10103,10104,10105,10106,0,0,0,0,0,0,0,0,0,0,
10133,10134,10135,10136,10137,10138,0,0,0,0,0,0,0,0,0,0,
10165,10166,10167,10168,10169,10170,0,0,0,0,0,0,0,0,0,0,
9801,9802,9803,9804,9805,9806,0,0,0,0,0,0,0,0,0,0,
9833,9834,9835,9836,9837,9838,0,0,0,0,0,0,0,0,0,0,
9865,9866,9867,9868,9869,9870,0,0,0,0,0,0,0,0,0,0,
9897,9898,9899,9900,9901,9902,0,0,0,0,0,0,0,0,0,0,
9929,9930,9931,9932,9933,9934,0,0,0,0,0,0,0,0,0,0,
9961,9962,9963,9964,9965,9966,0,0,0,0,0,0,0,0,0,0,
9993,9994,9995,9996,9997,9998,0,0,0,0,0,0,0,0,0,0,
10025,10026,10027,10028,10029,10030,0,0,0,0,0,0,0,0,0,0,
10057,10058,10059,10060,10061,10062,0,0,0,0,0,0,0,0,0,0
</chunk>
   <chunk x="-352" y="416" width="16" height="16">
0,0,0,0,0,0,0,0,0,0,0,0,0,0,0,0,
0,0,0,0,0,0,0,0,0,0,0,0,0,0,0,0,
0,0,0,0,0,0,0,0,0,0,0,0,0,0,0,0,
0,0,0,0,0,0,0,0,0,0,0,0,0,0,0,0,
0,0,0,0,0,0,0,0,0,0,0,0,0,0,0,0,
0,0,0,0,0,0,0,0,0,0,0,0,0,0,0,0,
0,0,0,0,0,0,0,0,0,0,0,0,0,0,0,0,
0,0,0,0,0,0,0,0,0,0,0,0,0,0,0,0,
0,0,0,0,0,0,0,0,0,0,0,0,0,0,0,0,
0,0,0,0,0,0,0,0,0,0,0,0,0,0,0,0,
0,0,0,0,0,0,0,0,0,0,0,0,0,0,0,0,
0,0,0,0,0,0,0,0,0,0,0,0,0,0,0,0,
0,0,0,0,0,0,0,0,0,0,0,0,0,0,0,0,
0,0,0,0,0,0,0,0,0,0,0,0,0,0,0,0,
0,0,0,0,0,0,0,0,0,0,0,0,0,0,0,0,
0,0,0,0,2634,2635,2634,2635,2634,2635,2634,2635,2634,2635,2698,2699
</chunk>
   <chunk x="-256" y="416" width="16" height="16">
0,0,0,0,0,0,0,0,0,0,2666,2667,2666,2667,2730,2731,
0,0,0,0,0,0,0,0,0,0,2634,2635,2634,2635,2698,2699,
0,0,0,0,0,0,0,0,0,0,2666,2667,2666,2667,2730,2731,
0,0,0,0,2634,2635,2634,2635,2634,2635,2634,2635,2634,2635,2698,2699,
0,0,0,0,2666,2667,2666,2667,2666,2667,2666,2667,2666,2667,2730,2731,
0,0,0,0,2634,2635,2634,2635,2634,2635,2634,2635,2634,2635,2698,2699,
0,0,0,0,2666,2667,2666,2667,2666,2667,2666,2667,2666,2667,2730,2731,
0,0,0,0,2634,2635,2634,2635,2634,2635,2634,2635,2634,2635,2698,2699,
0,0,0,0,2666,2667,2666,2667,2666,2667,2666,2667,2666,2667,2730,2731,
0,0,0,0,2634,2635,2634,2635,2634,2635,0,0,0,0,0,0,
0,0,0,0,2666,2667,2666,2667,2666,2667,0,0,0,0,0,0,
0,0,0,0,2634,2635,2634,2635,2634,2635,0,0,0,0,0,0,
0,0,0,0,2666,2667,2666,2667,2666,2667,0,0,0,0,0,0,
0,0,0,0,2634,2635,2634,2635,2634,2635,0,0,0,0,0,0,
0,0,0,0,2666,2667,2666,2667,2666,2667,0,0,0,0,0,0,
0,0,0,0,2634,2635,2634,2635,2634,2635,0,0,0,0,0,0
</chunk>
   <chunk x="-112" y="416" width="16" height="16">
0,0,0,0,0,0,0,0,0,0,9477,9478,9859,9860,9861,9862,
0,0,0,0,0,0,0,0,0,0,0,0,0,0,0,0,
0,0,0,0,0,0,0,0,0,0,0,0,0,0,0,0,
0,0,0,0,0,0,0,0,0,0,0,0,0,0,0,0,
0,0,0,0,0,0,0,0,0,0,0,0,0,0,0,0,
0,0,0,0,0,0,0,0,0,0,0,0,0,0,0,0,
0,0,0,0,0,0,0,0,0,0,0,0,0,0,0,0,
0,0,0,0,0,0,0,0,0,0,0,0,0,0,0,0,
0,0,0,0,0,0,0,0,0,0,0,0,0,0,0,0,
0,0,0,0,0,0,0,0,0,0,0,0,0,0,0,0,
0,0,0,0,0,0,0,0,0,0,0,0,0,0,0,0,
0,0,0,0,0,0,0,0,0,0,0,0,0,0,0,0,
0,0,0,0,0,0,0,0,0,0,0,0,0,0,0,0,
0,0,0,0,0,0,0,0,0,0,0,0,0,0,0,0,
0,0,0,0,0,0,0,0,0,0,0,0,0,0,0,0,
0,0,0,0,0,0,0,0,0,0,0,0,0,0,0,0
</chunk>
   <chunk x="-96" y="416" width="16" height="16">
9593,9594,0,0,0,0,0,0,0,0,0,0,0,0,0,0,
0,0,0,0,0,0,0,0,0,0,0,0,0,0,0,0,
0,0,0,0,0,0,0,0,0,0,0,0,0,0,0,0,
0,0,9763,9764,9765,9766,9497,9498,0,0,0,0,0,0,0,0,
0,0,9795,9796,9797,9798,9529,9530,0,0,0,0,0,0,0,0,
9445,9446,9827,9828,9829,9830,9561,9562,0,0,0,0,0,0,0,0,
9477,9478,9859,9860,9861,9862,9593,9594,0,0,0,0,0,0,0,0,
0,0,0,0,0,0,0,0,0,0,0,0,0,0,0,0,
0,0,0,0,0,0,0,0,0,0,0,0,0,0,0,0,
0,0,0,0,0,0,0,0,0,0,0,0,0,0,0,0,
0,0,0,0,0,0,0,0,0,0,0,0,0,0,0,0,
0,0,0,0,0,0,0,0,0,0,0,0,0,0,0,0,
0,0,0,0,0,0,0,0,0,0,0,0,0,0,0,0,
0,0,0,0,0,0,0,0,0,0,0,0,0,0,0,0,
0,0,0,0,0,0,0,0,0,0,0,0,0,0,0,0,
0,0,0,0,0,0,0,0,0,0,0,0,0,0,0,0
</chunk>
   <chunk x="-80" y="416" width="16" height="16">
0,0,0,0,0,0,0,0,0,0,0,0,0,0,9897,9898,
0,0,0,0,0,0,0,0,0,0,0,0,0,0,9929,9930,
0,0,0,0,0,0,0,0,0,0,0,0,0,0,9961,9962,
0,0,0,0,0,0,0,0,9801,9802,9803,9804,9805,9806,9993,9994,
0,0,0,0,0,0,0,0,9833,9834,9835,9836,9837,9838,10025,10026,
0,0,0,0,0,0,0,0,9865,9866,9867,9868,9869,9870,10057,10058,
0,0,0,0,0,0,0,0,9897,9898,9899,9900,9901,9902,10089,10090,
0,0,0,0,0,0,0,0,9929,9930,9931,9932,9933,9934,10121,10122,
0,0,0,0,0,0,0,0,9961,9962,9963,9964,9965,9966,10153,10154,
0,0,9801,9802,9803,9804,9805,9806,9993,9994,9995,9996,9997,9998,9801,9802,
0,0,9833,9834,9835,9836,9837,9838,10025,10026,10027,10028,10029,10030,9833,9834,
0,0,9865,9866,9867,9868,9869,9870,10057,10058,10059,10060,10061,10062,9865,9866,
0,0,9897,9898,9899,9900,9901,9902,10089,10090,10091,10092,10093,10094,9897,9898,
0,0,9929,9930,9931,9932,9933,9934,10121,10122,10123,10124,10125,10126,9929,9930,
0,0,9961,9962,9963,9964,9965,9966,10153,10154,10155,10156,10157,10158,9961,9962,
0,0,9993,9994,9995,9996,9997,9998,9801,9802,9803,9804,9805,9806,9993,9994
</chunk>
   <chunk x="-64" y="416" width="16" height="16">
9899,9900,9901,9902,10089,10090,10091,10092,10093,10094,0,0,0,0,0,0,
9931,9932,9933,9934,10121,10122,10123,10124,10125,10126,0,0,0,0,0,0,
9963,9964,9965,9966,10153,10154,10155,10156,10157,10158,0,0,0,0,0,0,
9995,9996,9997,9998,9801,9802,9803,9804,9805,9806,0,0,0,0,0,0,
10027,10028,10029,10030,9833,9834,9835,9836,9837,9838,0,0,0,0,0,0,
10059,10060,10061,10062,9865,9866,9867,9868,9869,9870,0,0,0,0,0,0,
10091,10092,10093,10094,9897,9898,9899,9900,9901,9902,0,0,0,0,0,0,
10123,10124,10125,10126,9929,9930,9931,9932,9933,9934,0,0,0,0,0,0,
10155,10156,10157,10158,9961,9962,9963,9964,9965,9966,0,0,0,0,0,0,
9803,9804,9805,9806,9993,9994,9995,9996,9997,9998,0,0,0,0,0,0,
9835,9836,9837,9838,10025,10026,10027,10028,10029,10030,0,0,0,0,0,0,
9867,9868,9869,9870,10057,10058,10059,10060,10061,10062,0,0,0,0,0,0,
9899,9900,9901,9902,10089,10090,10091,10092,10093,10094,0,0,0,0,0,0,
9931,9932,9933,9934,10121,10122,10123,10124,10125,10126,0,0,0,0,0,0,
9963,9964,9965,9966,10153,10154,10155,10156,10157,10158,0,0,0,0,0,0,
9995,9996,9997,9998,9801,9802,9803,9804,9805,9806,0,0,0,0,0,0
</chunk>
   <chunk x="-48" y="416" width="16" height="16">
10069,10070,10071,10072,10073,10074,0,0,0,0,0,0,0,0,0,0,
10101,10102,10103,10104,10105,10106,0,0,0,0,0,0,0,0,0,0,
10133,10134,10135,10136,10137,10138,0,0,0,0,0,0,0,0,0,0,
10165,10166,10167,10168,10169,10170,0,0,0,0,0,0,9801,9802,9803,9804,
9813,9814,9815,9816,9817,9818,0,0,0,0,0,0,9833,9834,9835,9836,
9845,9846,9847,9848,9849,9850,0,0,0,0,0,0,9865,9866,9867,9868,
9877,9878,9879,9880,9881,9882,0,0,0,0,0,0,9897,9898,9899,9900,
9909,9910,9911,9912,9913,9914,0,0,0,0,0,0,9929,9930,9931,9932,
9941,9942,9943,9944,9945,9946,0,0,0,0,0,0,9961,9962,9963,9964,
9973,9974,9975,9976,9977,9978,9801,9802,9803,9804,9805,9806,0,0,0,0,
10037,10038,10039,10040,10041,10042,9833,9834,9835,9836,9837,9838,0,0,0,0,
10069,10070,10071,10072,10073,10074,9865,9866,9867,9868,9869,9870,0,0,0,0,
10101,10102,10103,10104,10105,10106,9897,9898,9899,9900,9901,9902,0,0,0,0,
10133,10134,10135,10136,10137,10138,9929,9930,9931,9932,9933,9934,0,0,0,0,
10165,10166,10167,10168,10169,10170,9961,9962,9963,9964,9965,9966,0,0,0,0,
9813,9814,9815,9816,9817,9818,0,0,0,0,0,0,2052,2053,2054,2055
</chunk>
   <chunk x="-32" y="416" width="16" height="16">
0,0,0,0,0,0,0,0,0,0,0,0,0,0,0,0,
0,0,0,0,0,0,0,0,0,0,0,0,0,0,0,0,
0,0,0,0,0,0,0,0,0,0,0,0,0,0,0,0,
9805,9806,0,0,0,0,0,0,0,0,0,0,0,0,0,0,
9837,9838,0,0,0,0,0,0,0,0,0,0,0,0,0,0,
9869,9870,0,0,0,0,0,0,0,0,0,0,0,0,0,0,
9901,9902,0,0,0,0,0,0,0,0,0,0,0,0,0,0,
9933,9934,0,0,0,0,0,0,0,0,0,0,0,0,0,0,
9965,9966,0,0,0,0,0,0,0,0,0,0,0,0,0,0,
0,0,0,0,0,0,0,0,0,0,0,0,0,0,0,0,
0,0,0,0,0,0,0,0,0,0,0,0,0,0,0,0,
0,0,0,0,0,0,0,0,0,0,0,0,0,0,0,0,
0,0,0,0,0,0,0,0,0,0,0,0,0,0,0,0,
0,0,0,0,0,0,0,0,0,0,0,0,0,0,0,0,
0,0,0,0,0,0,0,0,0,0,0,0,0,0,0,0,
2056,2057,0,0,0,0,0,0,0,0,0,0,0,0,0,0
</chunk>
   <chunk x="-16" y="416" width="16" height="16">
0,0,0,0,0,0,0,0,0,0,0,0,0,0,0,0,
0,0,0,0,0,0,0,0,0,0,0,0,0,0,0,0,
0,0,0,0,0,0,0,0,0,0,0,0,0,0,0,0,
0,0,0,0,9801,9802,9803,9804,9805,9806,0,0,0,0,0,0,
0,0,0,0,9833,9834,9835,9836,9837,9838,0,0,0,0,0,0,
0,0,0,0,9865,9866,9867,9868,9869,9870,0,0,0,0,0,0,
0,0,0,0,9897,9898,9899,9900,9901,9902,0,0,0,0,0,0,
0,0,0,0,9929,9930,9931,9932,9933,9934,0,0,0,0,0,0,
0,0,0,0,9961,9962,9963,9964,9965,9966,0,0,0,0,0,0,
0,0,0,0,0,0,0,0,0,0,0,0,0,0,0,0,
0,0,0,0,0,0,0,0,0,0,0,0,0,0,0,0,
0,0,0,0,0,0,0,0,0,0,0,0,0,0,0,0,
0,0,0,0,0,0,0,0,0,0,0,0,0,0,0,0,
0,0,0,0,0,0,0,0,0,0,0,0,0,0,0,0,
0,0,0,0,0,0,0,0,0,0,0,0,0,0,0,0,
0,0,0,0,0,0,0,0,0,0,0,0,0,0,0,0
</chunk>
   <chunk x="0" y="416" width="16" height="16">
0,0,0,0,0,0,0,0,0,0,0,0,0,0,0,0,
0,0,0,0,0,0,0,0,0,0,0,0,0,0,0,0,
0,0,0,0,0,0,0,0,0,0,0,0,0,0,0,0,
9801,9802,9803,9804,9805,9806,0,0,0,0,0,0,9801,9802,9803,9804,
9833,9834,9835,9836,9837,9838,0,0,0,0,0,0,9833,9834,9835,9836,
9865,9866,9867,9868,9869,9870,0,0,0,0,0,0,9865,9866,9867,9868,
9897,9898,9899,9900,9901,9902,0,0,0,0,0,0,9897,9898,9899,9900,
9929,9930,9931,9932,9933,9934,0,0,0,0,0,0,9929,9930,9931,9932,
9961,9962,9963,9964,9965,9966,0,0,0,0,0,0,9961,9962,9963,9964,
0,0,0,0,0,0,2634,2635,2634,2635,2634,2635,0,0,0,0,
0,0,0,0,0,0,2666,2667,2666,2667,2666,2667,0,0,0,0,
2692,2693,2694,2695,2696,2697,2698,2699,2698,2699,2698,2699,2692,2693,2694,2695,
2724,2725,2726,2727,2728,2729,2730,2731,2730,2731,2730,2731,2724,2725,2726,2727,
2756,2757,2758,2759,2760,2761,2698,2699,2698,2699,2698,2699,2756,2757,2758,2759,
2788,2789,2790,2791,2792,2793,2730,2731,2730,2731,2730,2731,2788,2789,2790,2791,
0,0,0,0,0,0,0,0,0,0,0,0,0,0,0,0
</chunk>
   <chunk x="16" y="416" width="16" height="16">
0,0,0,0,0,0,0,0,9909,9910,9911,9912,9913,9914,1073744388,1073744389,
0,0,0,0,0,0,0,0,9941,9942,9943,9944,9945,9946,9237,9238,
0,0,0,0,0,0,0,0,9973,9974,9975,9976,9977,9978,9269,9270,
9805,9806,0,0,0,0,0,0,0,0,0,0,0,0,9245,9246,
9837,9838,0,0,0,0,0,0,0,0,0,0,0,0,9277,9278,
9869,9870,0,0,0,0,0,0,0,0,0,0,0,0,9237,9238,
9901,9902,0,0,0,0,0,0,0,0,0,0,0,0,9269,9270,
9933,9934,0,0,0,0,0,0,0,0,0,0,0,0,9245,9246,
9965,9966,0,0,0,0,0,0,0,0,0,0,0,0,9277,9278,
0,0,0,0,0,0,0,0,0,0,0,0,0,0,2052,2053,
0,0,0,0,0,0,0,0,0,0,0,0,0,0,2084,2085,
2696,2697,0,0,0,0,0,0,0,0,0,0,0,0,2116,2117,
2728,2729,0,0,0,0,0,0,0,0,0,0,0,0,2148,2149,
2760,2761,0,0,0,0,0,0,0,0,0,0,0,0,2180,2181,
2792,2793,0,0,0,0,0,0,0,0,0,0,0,0,2212,2213,
0,0,0,0,0,0,0,0,0,0,0,0,0,0,0,0
</chunk>
   <chunk x="32" y="416" width="16" height="16">
1073744390,1073744391,1073744390,1073744391,1073744390,1073744391,1073744390,1073744391,1073744390,1073744391,1073744390,1073744391,1073744390,1073744391,1073744390,1073744391,
9239,9240,9237,9238,9239,9240,9237,9238,9239,9240,9237,9238,9239,9240,9237,9238,
9271,9272,9269,9270,9271,9272,9269,9270,9271,9272,9269,9270,9271,9272,9269,9270,
9241,9242,9239,9240,9241,9242,9239,9240,9301,9302,2634,2635,2634,2635,2634,2635,
9273,9274,9271,9272,9273,9274,9271,9272,9333,9334,2666,2667,2666,2667,2666,2667,
9239,9240,9305,9306,9307,9308,9237,9238,9239,9240,2698,2699,2698,2699,2698,2699,
9271,9272,9337,9338,9339,9340,9269,9270,9271,9272,2730,2731,2730,2731,2730,2731,
9241,9242,9243,9244,9241,9242,9239,9240,9301,9302,2698,2699,2698,2699,2698,2699,
9273,9274,9275,9276,9273,9274,9271,9272,9333,9334,2730,2731,2730,2731,2730,2731,
2054,2055,2056,2057,0,0,0,0,0,0,0,0,0,0,0,0,
2086,2087,2088,2089,0,0,0,0,0,0,0,0,0,0,0,0,
2118,2119,2120,2121,0,0,0,0,0,0,0,0,0,0,0,0,
2150,2151,2152,2153,0,0,0,0,0,0,0,0,0,0,0,0,
2182,2183,2184,2185,0,0,0,0,0,0,0,0,0,0,0,0,
2214,2215,2216,2217,0,0,0,0,0,0,0,0,0,0,0,0,
0,0,0,0,0,0,0,0,0,0,0,0,0,0,0,0
</chunk>
   <chunk x="48" y="416" width="16" height="16">
1073744390,1073744391,1073744390,1073744391,1073744390,1073744391,1073744390,1073744391,1073744390,1073744391,3221228037,3221228036,0,0,0,0,
9239,9240,9237,9238,9239,9240,9237,9238,9239,9240,9301,9302,0,0,0,0,
9271,9272,9269,9270,9271,9272,9269,9270,9271,9272,9333,9334,0,0,0,0,
9237,9238,9239,9240,9237,9238,9239,9240,9237,9238,9303,9304,0,0,0,0,
9269,9270,9271,9272,9269,9270,9271,9272,9269,9270,9335,9336,0,0,0,0,
9245,9246,9305,9306,9239,9240,9237,9238,9239,9240,9301,9302,0,0,0,0,
9277,9278,9337,9338,9271,9272,9269,9270,9271,9272,9333,9334,0,0,0,0,
9237,9238,9239,9240,9237,9238,9239,9240,9305,9306,9303,9304,0,0,0,0,
9269,9270,9271,9272,9269,9270,9271,9272,9337,9338,9335,9336,0,0,0,0,
0,0,0,0,0,0,0,0,0,0,0,0,0,0,0,0,
0,0,0,0,0,0,0,0,0,0,0,0,0,0,0,0,
0,0,0,0,0,0,0,0,0,0,0,0,0,0,0,0,
0,0,0,0,0,0,0,0,0,0,0,0,0,0,0,0,
0,0,0,0,0,0,0,0,0,0,0,0,0,0,0,0,
0,0,0,0,0,0,0,0,0,0,0,0,0,0,0,0,
0,0,0,0,0,0,0,0,0,0,0,0,0,0,0,0
</chunk>
   <chunk x="64" y="416" width="16" height="16">
0,0,0,0,0,0,0,0,0,0,0,0,0,0,2660,2661,
0,0,0,0,0,0,0,0,0,0,0,0,0,0,2628,2629,
0,0,0,0,0,0,0,0,0,0,0,0,0,0,2660,2661,
0,0,0,0,0,0,0,0,9993,9994,9995,9996,9997,9998,2628,2629,
0,0,0,0,0,0,0,0,10025,10026,10027,10028,10029,10030,2660,2661,
0,0,0,0,0,0,0,0,10057,10058,10059,10060,10061,10062,2628,2629,
0,0,0,0,0,0,0,0,10089,10090,10091,10092,10093,10094,2660,2661,
0,0,0,0,0,0,0,0,10121,10122,10123,10124,10125,10126,2628,2629,
0,0,0,0,0,0,0,0,10153,10154,10155,10156,10157,10158,2660,2661,
0,0,0,0,0,0,0,0,9801,9802,9803,9804,9805,9806,2628,2629,
0,0,0,0,0,0,0,0,9833,9834,9835,9836,9837,9838,2660,2661,
0,0,0,0,0,0,0,0,9865,9866,9867,9868,9869,9870,2628,2629,
0,0,0,0,0,0,0,0,9897,9898,9899,9900,9901,9902,2660,2661,
0,0,0,0,0,0,0,0,9929,9930,9931,9932,9933,9934,2628,2629,
0,0,0,0,0,0,0,0,9961,9962,9963,9964,9965,9966,2660,2661,
0,0,0,0,0,0,0,0,9993,9994,9995,9996,9997,9998,2628,2629
</chunk>
   <chunk x="80" y="416" width="16" height="16">
2094,2095,2147486181,2147486180,1073744390,1073744391,1073744390,1073744391,1073744390,1073744391,1073744390,1073744391,1073744390,1073744391,1073744390,1073744391,
2062,2063,2147486277,2147486276,0,0,0,0,0,0,0,0,0,0,0,0,
2094,2095,2147486309,2147486308,0,0,0,0,0,0,0,0,0,0,0,0,
2062,2063,2147486277,2147486276,0,0,0,0,0,0,0,0,0,0,0,0,
2094,2095,2147486309,2147486308,0,0,0,0,0,0,0,0,0,0,0,0,
2062,2063,2147486277,2147486276,0,0,0,0,0,0,0,0,0,0,0,0,
2094,2095,2147486309,2147486308,0,0,0,0,0,0,0,0,0,0,0,0,
2062,2063,2147486277,2147486276,0,0,0,0,0,0,0,0,0,0,0,0,
2094,2095,2147486309,2147486308,0,0,0,0,0,0,0,0,0,0,0,0,
2062,2063,2147486277,2147486276,0,0,0,0,0,0,0,0,0,0,0,0,
2094,2095,2147486309,2147486308,0,0,0,0,0,0,0,0,0,0,0,0,
2062,2063,2147486277,2147486276,0,0,0,0,0,0,0,0,0,0,0,0,
2094,2095,2147486309,2147486308,0,0,0,0,0,0,0,0,0,0,0,0,
2062,2063,2147486277,2147486276,2634,2635,2634,2635,2634,2635,2634,2635,2634,2635,2634,2635,
2094,2095,2147486309,2147486308,2666,2667,2666,2667,2666,2667,2666,2667,2666,2667,2666,2667,
2062,2063,2147486277,2147486276,2634,2635,2634,2635,2634,2635,2634,2635,2634,2635,2634,2635
</chunk>
   <chunk x="96" y="416" width="16" height="16">
1073744390,1073744391,1073744390,1073744391,1073744390,1073744391,2532,2533,2094,2095,2147486309,2147486308,10101,10102,10103,10104,
2692,2693,2694,2695,2762,2763,2628,2629,2062,2063,2147486277,2147486276,10133,10134,10135,10136,
2724,2725,2726,2727,2794,2795,2660,2661,2094,2095,2147486309,2147486308,10165,10166,10167,10168,
2756,2757,2758,2759,2826,2827,2628,2629,2062,2063,2147486277,2147486276,9813,9814,9815,9816,
2788,2789,2790,2791,2858,2859,2660,2661,2094,2095,2147486309,2147486308,9845,9846,9847,9848,
2692,2693,2694,2695,2762,2763,2628,2629,2062,2063,2147486277,2147486276,9877,9878,9879,9880,
2724,2725,2726,2727,2794,2795,2660,2661,2094,2095,2147486309,2147486308,9909,9910,9911,9912,
0,0,0,0,0,0,2628,2629,2062,2063,2147486277,2147486276,9941,9942,9943,9944,
0,0,0,0,0,0,2660,2661,2094,2095,2147486309,2147486308,9973,9974,9975,9976,
0,0,0,0,0,0,2628,2629,2062,2063,2147486277,2147486276,10005,10006,10007,10008,
0,0,0,0,0,0,2660,2661,2094,2095,2147486309,2147486308,10037,10038,10039,10040,
0,0,0,0,0,0,2628,2629,2062,2063,2147486277,2147486276,10069,10070,10071,10072,
0,0,0,0,0,0,2660,2661,2094,2095,2147486309,2147486308,10101,10102,10103,10104,
0,0,0,0,0,0,2628,2629,2062,2063,2147486277,2147486276,10133,10134,10135,10136,
0,0,0,0,0,0,2660,2661,2094,2095,2147486309,2147486308,10165,10166,10167,10168,
2634,2635,2634,2635,2698,2699,2628,2629,2062,2063,2147486277,2147486276,9801,9802,9803,9804
</chunk>
   <chunk x="112" y="416" width="16" height="16">
10105,10106,9909,9910,9911,9912,9913,9914,10101,10102,10103,10104,10105,10106,9909,9910,
10137,10138,9941,9942,9943,9944,9945,9946,10133,10134,10135,10136,10137,10138,9941,9942,
10169,10170,9973,9974,9975,9976,9977,9978,10165,10166,10167,10168,10169,10170,9973,9974,
9817,9818,10005,10006,10007,10008,10009,10010,9813,9814,9815,9816,9817,9818,10005,10006,
9849,9850,10037,10038,10039,10040,10041,10042,9845,9846,9847,9848,9849,9850,10037,10038,
9881,9882,10069,10070,10071,10072,10073,10074,9877,9878,9879,9880,9881,9882,10069,10070,
9913,9914,10101,10102,10103,10104,10105,10106,9909,9910,9911,9912,9913,9914,10101,10102,
9945,9946,10133,10134,10135,10136,10137,10138,9941,9942,9943,9944,9945,9946,10133,10134,
9977,9978,10165,10166,10167,10168,10169,10170,9973,9974,9975,9976,9977,9978,10165,10166,
10009,10010,9813,9814,9815,9816,9817,9818,10005,10006,10007,10008,10009,10010,9813,9814,
10041,10042,9845,9846,9847,9848,9849,9850,10037,10038,10039,10040,10041,10042,9845,9846,
10073,10074,9877,9878,9879,9880,9881,9882,10069,10070,10071,10072,10073,10074,9877,9878,
10105,10106,9909,9910,9911,9912,9913,9914,10101,10102,10103,10104,10105,10106,9909,9910,
10137,10138,9941,9942,9943,9944,9945,9946,10133,10134,10135,10136,10137,10138,9941,9942,
10169,10170,9973,9974,9975,9976,9977,9978,10165,10166,10167,10168,10169,10170,9973,9974,
9805,9806,10005,10006,10007,10008,10009,10010,9813,9814,9815,9816,9817,9818,10005,10006
</chunk>
   <chunk x="128" y="416" width="16" height="16">
9911,9912,9913,9914,10101,10102,10103,10104,10105,10106,9897,9898,9899,9900,9901,9902,
9943,9944,9945,9946,10133,10134,10135,10136,10137,10138,9929,9930,9931,9932,9933,9934,
9975,9976,9977,9978,10165,10166,10167,10168,10169,10170,9961,9962,9963,9964,9965,9966,
10007,10008,10009,10010,9801,9802,9803,9804,9805,9806,9993,9994,9995,9996,9997,9998,
10039,10040,10041,10042,9833,9834,9835,9836,9837,9838,10025,10026,10027,10028,10029,10030,
10071,10072,10073,10074,9865,9866,9867,9868,9869,9870,10057,10058,10059,10060,10061,10062,
10103,10104,10105,10106,9897,9898,9899,9900,9901,9902,10089,10090,10091,10092,10093,10094,
10135,10136,10137,10138,9929,9930,9931,9932,9933,9934,10121,10122,10123,10124,10125,10126,
10167,10168,10169,10170,9961,9962,9963,9964,9965,9966,10153,10154,10155,10156,10157,10158,
9815,9816,9817,9818,9993,9994,9995,9996,9997,9998,9801,9802,9803,9804,9805,9806,
9847,9848,9849,9850,10025,10026,10027,10028,10029,10030,9833,9834,9835,9836,9837,9838,
9879,9880,9881,9882,10057,10058,10059,10060,10061,10062,9865,9866,9867,9868,9869,9870,
9911,9912,9913,9914,10089,10090,10091,10092,10093,10094,9897,9898,9899,9900,9901,9902,
9943,9944,9945,9946,10121,10122,10123,10124,10125,10126,9929,9930,9931,9932,9933,9934,
9975,9976,9977,9978,10153,10154,10155,10156,10157,10158,9961,9962,9963,9964,9965,9966,
10007,10008,10009,10010,9801,9802,9803,9804,9805,9806,9993,9994,9995,9996,9997,9998
</chunk>
   <chunk x="144" y="416" width="16" height="16">
10089,10090,10091,10092,10093,10094,0,0,0,0,0,0,0,0,0,0,
10121,10122,10123,10124,10125,10126,0,0,0,0,0,0,0,0,0,0,
10153,10154,10155,10156,10157,10158,0,0,0,0,0,0,0,0,0,0,
9801,9802,9803,9804,9805,9806,0,0,0,0,0,0,0,0,0,0,
9833,9834,9835,9836,9837,9838,0,0,0,0,0,0,0,0,0,0,
9865,9866,9867,9868,9869,9870,0,0,0,0,0,0,0,0,0,0,
9897,9898,9899,9900,9901,9902,0,0,0,0,0,0,0,0,0,0,
9929,9930,9931,9932,9933,9934,0,0,0,0,0,0,0,0,0,0,
9961,9962,9963,9964,9965,9966,0,0,0,0,0,0,0,0,0,0,
9993,9994,9995,9996,9997,9998,0,0,0,0,0,0,0,0,0,0,
10025,10026,10027,10028,10029,10030,0,0,0,0,0,0,0,0,0,0,
10057,10058,10059,10060,10061,10062,0,0,0,0,0,0,0,0,0,0,
10089,10090,10091,10092,10093,10094,0,0,0,0,0,0,0,0,0,0,
10121,10122,10123,10124,10125,10126,0,0,0,0,0,0,0,0,0,0,
10153,10154,10155,10156,10157,10158,0,0,0,0,0,0,0,0,0,0,
9801,9802,9803,9804,9805,9806,0,0,0,0,0,0,0,0,0,0
</chunk>
   <chunk x="-368" y="432" width="16" height="16">
0,0,0,0,0,0,0,0,0,0,0,0,0,0,0,0,
0,0,0,0,0,0,0,0,0,0,0,0,0,0,0,0,
0,0,0,0,0,0,0,0,0,0,0,0,0,0,0,0,
0,0,0,0,0,0,0,0,0,0,0,0,0,0,2634,2635,
0,0,0,0,0,0,0,0,0,0,0,0,0,0,2666,2667,
0,0,0,0,0,0,0,0,0,0,0,0,0,0,2634,2635,
0,0,0,0,0,0,0,0,0,0,0,0,0,0,2666,2667,
0,0,0,0,0,0,0,0,0,0,0,0,0,0,2634,2635,
0,0,0,0,0,0,0,0,0,0,0,0,0,0,2666,2667,
0,0,0,0,0,0,0,0,0,0,0,0,0,0,2634,2635,
0,0,0,0,0,0,0,0,0,0,0,0,0,0,2666,2667,
0,0,0,0,0,0,0,0,0,0,0,0,0,0,0,0,
0,0,0,0,0,0,0,0,0,0,0,0,0,0,0,0,
0,0,0,0,0,0,0,0,0,0,0,0,0,0,0,0,
0,0,0,0,0,0,0,0,0,0,0,0,0,0,0,0,
0,0,0,0,0,0,0,0,0,0,0,0,0,0,0,0
</chunk>
   <chunk x="-352" y="432" width="16" height="16">
0,0,0,0,2666,2667,2666,2667,2666,2667,2666,2667,2666,2667,2730,2731,
0,0,0,0,2634,2635,2634,2635,2634,2635,2634,2635,2634,2635,2698,2699,
0,0,0,0,2666,2667,2666,2667,2666,2667,2666,2667,2666,2667,2730,2731,
2634,2635,2634,2635,2634,2635,2634,2635,2634,2635,2634,2635,2634,2635,2698,2699,
2666,2667,2666,2667,2666,2667,2666,2667,2666,2667,2666,2667,2666,2667,2730,2731,
2634,2635,2634,2635,2634,2635,2634,2635,2634,2635,2634,2635,2634,2635,2698,2699,
2666,2667,2666,2667,2666,2667,2666,2667,2666,2667,2666,2667,2666,2667,2730,2731,
2634,2635,2634,2635,2634,2635,2634,2635,2634,2635,2634,2635,2634,2635,2698,2699,
2666,2667,2666,2667,2666,2667,2666,2667,2666,2667,2666,2667,2666,2667,2730,2731,
2634,2635,2634,2635,2634,2635,2634,2635,2634,2635,2634,2635,2634,2635,2698,2699,
2666,2667,2666,2667,2666,2667,2666,2667,2666,2667,2666,2667,2666,2667,2730,2731,
0,0,0,0,2634,2635,2634,2635,2634,2635,0,0,0,0,0,0,
0,0,0,0,2666,2667,2666,2667,2666,2667,0,0,0,0,0,0,
0,0,0,0,2634,2635,2634,2635,2634,2635,0,0,0,0,0,0,
0,0,0,0,2666,2667,2666,2667,2666,2667,0,0,0,0,0,0,
0,0,0,0,2634,2635,2634,2635,2634,2635,0,0,0,0,0,0
</chunk>
   <chunk x="-256" y="432" width="16" height="16">
0,0,0,0,2666,2667,2666,2667,2666,2667,0,0,0,0,0,0,
0,0,0,0,2634,2635,2634,2635,2634,2635,0,0,0,0,0,0,
0,0,0,0,2666,2667,2666,2667,2666,2667,0,0,0,0,0,0,
0,0,0,0,2634,2635,2634,2635,2634,2635,0,0,0,0,0,0,
0,0,0,0,2666,2667,2666,2667,2666,2667,0,0,0,0,0,0,
0,0,0,0,2634,2635,2634,2635,2634,2635,0,0,0,0,0,0,
0,0,0,0,2666,2667,2666,2667,2666,2667,0,0,0,0,0,0,
0,0,0,0,2698,2699,2698,2699,2698,2699,0,0,0,0,0,0,
0,0,0,0,2730,2731,2730,2731,2730,2731,0,0,0,0,0,0,
0,0,0,0,2698,2699,2698,2699,2698,2699,0,0,0,0,0,0,
0,0,0,0,2730,2731,2730,2731,2730,2731,0,0,0,0,0,0,
0,0,0,0,0,0,0,0,0,0,0,0,0,0,0,0,
0,0,0,0,0,0,0,0,0,0,0,0,0,0,0,0,
0,0,0,0,0,0,0,0,0,0,0,0,0,0,0,0,
0,0,0,0,0,0,0,0,0,0,0,0,0,0,0,0,
0,0,0,0,0,0,0,0,0,0,0,0,0,0,0,0
</chunk>
   <chunk x="-96" y="432" width="16" height="16">
0,0,0,0,0,0,0,0,0,0,0,0,0,0,0,0,
0,0,0,0,0,0,0,0,0,0,0,0,0,0,0,0,
0,0,0,0,0,0,0,0,0,0,0,0,0,0,0,0,
0,0,0,0,0,0,0,0,0,0,0,0,0,0,0,0,
0,0,0,0,0,0,0,0,0,0,0,0,0,0,0,0,
0,0,9763,9764,9765,9766,9497,9498,0,0,0,0,0,0,0,0,
0,0,9795,9796,9797,9798,9529,9530,0,0,0,0,0,0,0,0,
9505,9506,9827,9828,9829,9830,9819,9820,9625,9626,0,0,0,0,0,0,
9537,9538,9859,9860,9861,9862,9851,9852,9657,9658,0,0,0,0,0,0,
0,0,0,0,0,0,0,0,0,0,0,0,0,0,0,0,
0,0,0,0,0,0,0,0,0,0,0,0,0,0,0,0,
0,0,0,0,0,0,0,0,0,0,0,0,0,0,0,0,
0,0,0,0,0,0,0,0,0,0,0,0,0,0,0,0,
0,0,0,0,0,0,0,0,0,0,0,0,0,0,0,0,
0,0,0,0,0,0,0,0,0,0,0,0,0,0,0,0,
0,0,0,0,0,0,0,0,0,0,0,0,0,0,0,0
</chunk>
   <chunk x="-80" y="432" width="16" height="16">
0,0,10025,10026,10027,10028,10029,10030,9833,9834,9835,9836,9837,9838,10025,10026,
0,0,10057,10058,10059,10060,10061,10062,9865,9866,9867,9868,9869,9870,10057,10058,
0,0,10089,10090,10091,10092,10093,10094,9897,9898,9899,9900,9901,9902,10089,10090,
0,0,10121,10122,10123,10124,10125,10126,9929,9930,9931,9932,9933,9934,10121,10122,
0,0,10153,10154,10155,10156,10157,10158,9961,9962,9963,9964,9965,9966,10153,10154,
0,0,0,0,0,0,0,0,0,0,0,0,0,0,2634,2635,
0,0,0,0,0,0,0,0,0,0,0,0,0,0,2666,2667,
0,0,0,0,0,0,0,0,0,0,0,0,0,0,2698,2699,
0,0,0,0,0,0,0,0,0,0,0,0,0,0,2730,2731,
0,0,0,0,0,0,0,0,0,0,0,0,0,0,2698,2699,
0,0,0,0,0,0,0,0,0,0,0,0,0,0,2730,2731,
0,0,0,0,0,0,0,0,0,0,0,0,0,0,0,0,
0,0,0,0,0,0,0,0,0,0,0,0,0,0,0,0,
0,0,0,0,0,0,0,0,0,0,0,0,0,0,0,0,
0,0,0,0,0,0,0,0,0,0,0,0,0,0,0,0,
0,0,0,0,0,0,0,0,0,0,0,0,0,0,0,0
</chunk>
   <chunk x="-64" y="432" width="16" height="16">
10027,10028,10029,10030,9833,9834,9835,9836,9837,9838,0,0,0,0,0,0,
10059,10060,10061,10062,9865,9866,9867,9868,9869,9870,0,0,0,0,0,0,
10091,10092,10093,10094,9897,9898,9899,9900,9901,9902,0,0,0,0,0,0,
10123,10124,10125,10126,9929,9930,9931,9932,9933,9934,0,0,0,0,0,0,
10155,10156,10157,10158,9961,9962,9963,9964,9965,9966,0,0,0,0,0,0,
2634,2635,2634,2635,0,0,0,0,0,0,0,0,0,0,0,0,
2666,2667,2666,2667,0,0,0,0,0,0,0,0,0,0,0,0,
2698,2699,2698,2699,0,0,0,0,0,0,0,0,0,0,0,0,
2730,2731,2730,2731,0,0,0,0,0,0,0,0,0,0,0,0,
2698,2699,2698,2699,0,0,0,0,0,0,0,0,0,0,0,0,
2730,2731,2730,2731,0,0,0,0,0,0,0,0,0,0,0,0,
0,0,0,0,0,0,0,0,0,0,0,0,0,0,0,0,
0,0,0,0,0,0,0,0,0,0,0,0,0,0,0,0,
0,0,0,0,0,0,0,0,0,0,0,0,0,0,0,0,
0,0,0,0,0,0,0,0,0,0,0,0,0,0,0,0,
0,0,0,0,2248,2249,0,0,0,0,0,0,0,0,0,0
</chunk>
   <chunk x="-48" y="432" width="16" height="16">
9845,9846,9847,9848,9849,9850,0,0,0,0,0,0,2084,2085,2086,2087,
9877,9878,9879,9880,9881,9882,0,0,0,0,0,0,2116,2117,2118,2119,
9909,9910,9911,9912,9913,9914,0,0,0,0,0,0,2148,2149,2150,2151,
9941,9942,9943,9944,9945,9946,0,0,0,0,0,0,2180,2181,2182,2183,
9973,9974,9975,9976,9977,9978,0,0,0,0,0,0,2212,2213,2214,2215,
10005,10006,10007,10008,10009,10010,0,0,0,0,0,0,2052,2053,2054,2055,
10037,10038,10039,10040,10041,10042,0,0,0,0,0,0,2084,2085,2086,2087,
10069,10070,10071,10072,10073,10074,0,0,0,0,0,0,2116,2117,2118,2119,
10101,10102,10103,10104,10105,10106,0,0,0,0,0,0,2148,2149,2150,2151,
10133,10134,10135,10136,10137,10138,0,0,0,0,0,0,2180,2181,2182,2183,
10165,10166,10167,10168,10169,10170,0,0,0,0,0,0,2212,2213,2214,2215,
9813,9814,9815,9816,9817,9818,10005,10006,10007,10008,10009,10010,0,0,0,0,
9845,9846,9847,9848,9849,9850,10037,10038,10039,10040,10041,10042,0,0,0,0,
9877,9878,9879,9880,9881,9882,10069,10070,10071,10072,10073,10074,0,0,0,0,
9909,9910,9911,9912,9913,9914,10101,10102,10103,10104,10105,10106,0,0,0,0,
9941,9942,9943,9944,9945,9946,10133,10134,10135,10136,10137,10138,0,0,0,0
</chunk>
   <chunk x="-32" y="432" width="16" height="16">
2088,2089,0,0,0,0,0,0,0,0,0,0,0,0,0,0,
2120,2121,0,0,0,0,0,0,0,0,0,0,0,0,0,0,
2152,2153,0,0,0,0,0,0,0,0,0,0,0,0,0,0,
2184,2185,0,0,0,0,0,0,0,0,0,0,0,0,0,0,
2216,2217,0,0,0,0,0,0,0,0,0,0,0,0,0,0,
2056,2057,2052,2053,2054,2055,2056,2057,0,0,0,0,0,0,0,0,
2088,2089,2084,2085,2086,2087,2088,2089,0,0,0,0,0,0,0,0,
2120,2121,2116,2117,2118,2119,2120,2121,0,0,0,0,0,0,0,0,
2152,2153,2148,2149,2150,2151,2152,2153,0,0,0,0,0,0,0,0,
2184,2185,2180,2181,2182,2183,2184,2185,0,0,0,0,0,0,0,0,
2216,2217,2212,2213,2214,2215,2216,2217,0,0,0,0,0,0,0,0,
0,0,0,0,0,0,0,0,0,0,0,0,0,0,0,0,
0,0,0,0,0,0,0,0,0,0,0,0,0,0,0,0,
0,0,0,0,0,0,0,0,0,0,0,0,0,0,0,0,
0,0,0,0,0,0,0,0,0,0,0,0,0,0,0,0,
0,0,0,0,0,0,0,0,0,0,0,0,0,0,0,0
</chunk>
   <chunk x="16" y="432" width="16" height="16">
0,0,0,0,0,0,0,0,0,0,0,0,0,0,0,0,
0,0,0,0,0,0,0,0,0,0,0,0,0,0,0,0,
0,0,0,0,0,0,0,0,0,0,0,0,0,0,0,0,
0,0,0,0,0,0,0,0,0,0,0,0,0,0,0,0,
0,0,0,0,0,0,0,0,0,0,0,0,0,0,0,0,
0,0,0,0,0,0,0,0,0,0,0,0,0,0,0,0,
0,0,0,0,0,0,0,0,0,0,0,0,0,0,0,0,
0,0,0,0,0,0,0,0,0,0,0,0,0,0,0,0,
0,0,0,0,0,0,0,0,0,0,0,0,0,0,0,0,
0,0,0,0,0,0,0,0,0,0,0,0,0,0,0,0,
0,0,0,0,0,0,0,0,0,0,0,0,0,0,0,0,
0,0,0,0,0,0,0,0,0,0,0,0,0,0,9801,9802,
0,0,0,0,0,0,0,0,0,0,0,0,0,0,9833,9834,
0,0,0,0,0,0,0,0,0,0,0,0,0,0,9865,9866,
0,0,0,0,0,0,0,0,0,0,0,0,0,0,9897,9898,
0,0,0,0,0,0,0,0,0,0,0,0,0,0,9929,9930
</chunk>
   <chunk x="32" y="432" width="16" height="16">
0,0,0,0,0,0,0,0,0,0,0,0,0,0,0,0,
0,0,0,0,0,0,0,0,0,0,0,0,0,0,0,0,
0,0,0,0,0,0,0,0,0,0,0,0,0,0,0,0,
0,0,0,0,0,0,0,0,0,0,0,0,0,0,0,0,
0,0,0,0,0,0,0,0,0,0,0,0,0,0,0,0,
0,0,0,0,0,0,0,0,0,0,0,0,0,0,0,0,
0,0,0,0,0,0,0,0,0,0,0,0,0,0,0,0,
0,0,0,0,0,0,0,0,0,0,0,0,0,0,0,0,
0,0,0,0,0,0,0,0,0,0,0,0,0,0,0,0,
0,0,0,0,0,0,0,0,0,0,0,0,0,0,0,0,
0,0,0,0,0,0,0,0,0,0,0,0,0,0,0,0,
9803,9804,9805,9806,9993,9994,9995,9996,9997,9998,9801,9802,9803,9804,9805,9806,
9835,9836,9837,9838,10025,10026,10027,10028,10029,10030,9833,9834,9835,9836,9837,9838,
9867,9868,9869,9870,10057,10058,10059,10060,10061,10062,9865,9866,9867,9868,9869,9870,
9899,9900,9901,9902,10089,10090,10091,10092,10093,10094,9897,9898,9899,9900,9901,9902,
9931,9932,9933,9934,10121,10122,10123,10124,10125,10126,9929,9930,9931,9932,9933,9934
</chunk>
   <chunk x="48" y="432" width="16" height="16">
0,0,0,0,0,0,0,0,0,0,0,0,0,0,0,0,
0,0,0,0,0,0,0,0,0,0,0,0,0,0,0,0,
0,0,0,0,0,0,0,0,0,0,0,0,0,0,0,0,
0,0,0,0,0,0,0,0,0,0,0,0,0,0,0,0,
0,0,0,0,0,0,0,0,0,0,0,0,0,0,0,0,
0,0,0,0,0,0,0,0,0,0,0,0,0,0,0,0,
0,0,0,0,0,0,0,0,0,0,0,0,0,0,0,0,
0,0,0,0,0,0,0,0,0,0,0,0,0,0,0,0,
0,0,0,0,0,0,0,0,0,0,0,0,0,0,0,0,
0,0,0,0,0,0,0,0,0,0,0,0,0,0,0,0,
0,0,0,0,0,0,0,0,0,0,0,0,0,0,0,0,
9993,9994,9995,9996,9997,9998,9801,9802,9803,9804,9805,9806,9993,9994,9995,9996,
10025,10026,10027,10028,10029,10030,9833,9834,9835,9836,9837,9838,10025,10026,10027,10028,
10057,10058,10059,10060,10061,10062,9865,9866,9867,9868,9869,9870,10057,10058,10059,10060,
10089,10090,10091,10092,10093,10094,9897,9898,9899,9900,9901,9902,10089,10090,10091,10092,
10121,10122,10123,10124,10125,10126,9929,9930,9931,9932,9933,9934,10121,10122,10123,10124
</chunk>
   <chunk x="64" y="432" width="16" height="16">
0,0,0,0,0,0,0,0,10025,10026,10027,10028,10029,10030,2660,2661,
0,0,0,0,0,0,0,0,10057,10058,10059,10060,10061,10062,2628,2629,
0,0,0,0,0,0,0,0,10089,10090,10091,10092,10093,10094,2660,2661,
0,0,0,0,0,0,0,0,10121,10122,10123,10124,10125,10126,2628,2629,
0,0,0,0,0,0,0,0,10153,10154,10155,10156,10157,10158,2660,2661,
0,0,9993,9994,9995,9996,9997,9998,9801,9802,9803,9804,9805,9806,2628,2629,
0,0,10025,10026,10027,10028,10029,10030,9833,9834,9835,9836,9837,9838,2660,2661,
0,0,10057,10058,10059,10060,10061,10062,9865,9866,9867,9868,9869,9870,1073744420,1073744421,
0,0,10089,10090,10091,10092,10093,10094,9897,9898,9899,9900,9901,9902,1073744388,1073744389,
0,0,10121,10122,10123,10124,10125,10126,9929,9930,9931,9932,9933,9934,9237,9238,
0,0,10153,10154,10155,10156,10157,10158,9961,9962,9963,9964,9965,9966,9269,9270,
9997,9998,9813,9814,9815,9816,9817,9818,9993,9994,9995,9996,9997,9998,9245,9246,
10029,10030,9845,9846,9847,9848,9849,9850,10025,10026,10027,10028,10029,10030,9277,9278,
10061,10062,9877,9878,9879,9880,9881,9882,10057,10058,10059,10060,10061,10062,9237,9238,
10093,10094,9909,9910,9911,9912,9913,9914,10089,10090,10091,10092,10093,10094,9269,9270,
10125,10126,9941,9942,9943,9944,9945,9946,10121,10122,10123,10124,10125,10126,9245,9246
</chunk>
   <chunk x="80" y="432" width="16" height="16">
2094,2095,2147486309,2147486308,2666,2667,2666,2667,2666,2667,2666,2667,2666,2667,2666,2667,
2062,2063,2147486277,2147486276,2634,2635,2634,2635,2634,2635,2634,2635,2634,2635,2634,2635,
2094,2095,2147486309,2147486308,2666,2667,2666,2667,2666,2667,2666,2667,2666,2667,2666,2667,
2062,2063,2147486277,2147486276,2634,2635,2634,2635,2634,2635,2634,2635,2634,2635,2634,2635,
2094,2095,2147486309,2147486308,2666,2667,2666,2667,2666,2667,2666,2667,2666,2667,2666,2667,
2062,2063,3221228005,3221228004,2566,2567,2566,2567,2566,2567,2566,2567,2566,2567,2566,2567,
2094,2095,3221227973,3221227972,2598,2599,2598,2599,2598,2599,2598,2599,2598,2599,2598,2599,
1073744422,1073744423,1073744422,1073744423,1073744422,1073744423,1073744422,1073744423,1073744422,1073744423,1073744422,1073744423,1073744422,1073744423,1073744422,1073744423,
1073744390,1073744391,1073744390,1073744391,1073744390,1073744391,1073744390,1073744391,1073744390,1073744391,1073744390,1073744391,1073744390,1073744391,1073744390,1073744391,
9239,9240,9237,9238,9239,9240,9237,9238,9239,9240,9237,9238,9239,9240,9237,9238,
9271,9272,9269,9270,9271,9272,9269,9270,9271,9272,9269,9270,9271,9272,9269,9270,
9241,9242,9239,9240,9241,9242,9239,9240,9301,9302,2634,2635,2634,2635,2634,2635,
9273,9274,9271,9272,9273,9274,9271,9272,9333,9334,2666,2667,2666,2667,2666,2667,
9239,9240,9305,9306,9307,9308,9237,9238,9239,9240,2698,2699,2698,2699,2698,2699,
9271,9272,9337,9338,9339,9340,9269,9270,9271,9272,2730,2731,2730,2731,2730,2731,
9241,9242,9243,9244,9241,9242,9239,9240,9301,9302,2698,2699,2698,2699,2698,2699
</chunk>
   <chunk x="96" y="432" width="16" height="16">
2666,2667,2666,2667,2730,2731,2660,2661,2094,2095,2147486309,2147486308,9833,9834,9835,9836,
2634,2635,2634,2635,2698,2699,2628,2629,2062,2063,2147486277,2147486276,9865,9866,9867,9868,
2666,2667,2666,2667,2730,2731,2660,2661,2094,2095,2147486309,2147486308,9897,9898,9899,9900,
2634,2635,2634,2635,2698,2699,2628,2629,2062,2063,2147486277,2147486276,9929,9930,9931,9932,
2666,2667,2666,2667,2730,2731,2660,2661,2094,2095,2147486309,2147486308,9961,9962,9963,9964,
2566,2567,2566,2567,2566,2567,1073744356,1073744357,2062,2063,2147486277,2147486276,9993,9994,9995,9996,
2598,2599,2598,2599,2598,2599,1073744324,1073744325,2094,2095,2147486309,2147486308,10025,10026,10027,10028,
1073744422,1073744423,1073744422,1073744423,1073744422,1073744423,1073744422,1073744423,1073744422,1073744423,3221228069,3221228068,10057,10058,10059,10060,
1073744390,1073744391,1073744390,1073744391,1073744390,1073744391,1073744390,1073744391,1073744390,1073744391,3221228037,3221228036,10089,10090,10091,10092,
9239,9240,9237,9238,9239,9240,9237,9238,9239,9240,9301,9302,10121,10122,10123,10124,
9271,9272,9269,9270,9271,9272,9269,9270,9271,9272,9333,9334,10153,10154,10155,10156,
9237,9238,9239,9240,9237,9238,9239,9240,9237,9238,9303,9304,0,0,0,0,
9269,9270,9271,9272,9269,9270,9271,9272,9269,9270,9335,9336,0,0,0,0,
2147492950,2147492949,9305,9306,9239,9240,9237,9238,9239,9240,9301,9302,0,0,0,0,
2147492982,2147492981,9337,9338,9271,9272,9269,9270,9271,9272,9333,9334,0,0,0,0,
9237,9238,9239,9240,9237,9238,9239,9240,9305,9306,9303,9304,2248,2249,0,0
</chunk>
   <chunk x="112" y="432" width="16" height="16">
9837,9838,10037,10038,10039,10040,10041,10042,9845,9846,9847,9848,9849,9850,10037,10038,
9869,9870,10069,10070,10071,10072,10073,10074,9877,9878,9879,9880,9881,9882,10069,10070,
9901,9902,10101,10102,10103,10104,10105,10106,9909,9910,9911,9912,9913,9914,10101,10102,
9933,9934,10133,10134,10135,10136,10137,10138,9941,9942,9943,9944,9945,9946,10133,10134,
9965,9966,10165,10166,10167,10168,10169,10170,9973,9974,9975,9976,9977,9978,10165,10166,
9997,9998,9801,9802,9803,9804,9805,9806,10005,10006,10007,10008,10009,10010,9801,9802,
10029,10030,9833,9834,9835,9836,9837,9838,10037,10038,10039,10040,10041,10042,9833,9834,
10061,10062,9865,9866,9867,9868,9869,9870,10069,10070,10071,10072,10073,10074,9865,9866,
10093,10094,9897,9898,9899,9900,9901,9902,10101,10102,10103,10104,10105,10106,9897,9898,
10125,10126,9929,9930,9931,9932,9933,9934,10133,10134,10135,10136,10137,10138,9929,9930,
10157,10158,9961,9962,9963,9964,9965,9966,10165,10166,10167,10168,10169,10170,9961,9962,
0,0,9993,9994,9995,9996,9997,9998,9801,9802,9803,9804,9805,9806,9993,9994,
0,0,10025,10026,10027,10028,10029,10030,9833,9834,9835,9836,9837,9838,10025,10026,
0,0,10057,10058,10059,10060,10061,10062,9865,9866,9867,9868,9869,9870,10057,10058,
0,0,10089,10090,10091,10092,10093,10094,9897,9898,9899,9900,9901,9902,10089,10090,
0,0,10121,10122,10123,10124,10125,10126,9929,9930,9931,9932,9933,9934,10121,10122
</chunk>
   <chunk x="128" y="432" width="16" height="16">
10039,10040,10041,10042,9833,9834,9835,9836,9837,9838,10025,10026,10027,10028,10029,10030,
10071,10072,10073,10074,9865,9866,9867,9868,9869,9870,10057,10058,10059,10060,10061,10062,
10103,10104,10105,10106,9897,9898,9899,9900,9901,9902,10089,10090,10091,10092,10093,10094,
10135,10136,10137,10138,9929,9930,9931,9932,9933,9934,10121,10122,10123,10124,10125,10126,
10167,10168,10169,10170,9961,9962,9963,9964,9965,9966,10153,10154,10155,10156,10157,10158,
9803,9804,9805,9806,9993,9994,9995,9996,9997,9998,9801,9802,9803,9804,9805,9806,
9835,9836,9837,9838,10025,10026,10027,10028,10029,10030,9833,9834,9835,9836,9837,9838,
9867,9868,9869,9870,10057,10058,10059,10060,10061,10062,9865,9866,9867,9868,9869,9870,
9899,9900,9901,9902,10089,10090,10091,10092,10093,10094,9897,9898,9899,9900,9901,9902,
9931,9932,9933,9934,10121,10122,10123,10124,10125,10126,9929,9930,9931,9932,9933,9934,
9963,9964,9965,9966,10153,10154,10155,10156,10157,10158,9961,9962,9963,9964,9965,9966,
9995,9996,9997,9998,9801,9802,9803,9804,9805,9806,9993,9994,9995,9996,9997,9998,
10027,10028,10029,10030,9833,9834,9835,9836,9837,9838,10025,10026,10027,10028,10029,10030,
10059,10060,10061,10062,9865,9866,9867,9868,9869,9870,10057,10058,10059,10060,10061,10062,
10091,10092,10093,10094,9897,9898,9899,9900,9901,9902,10089,10090,10091,10092,10093,10094,
10123,10124,10125,10126,9929,9930,9931,9932,9933,9934,10121,10122,10123,10124,10125,10126
</chunk>
   <chunk x="144" y="432" width="16" height="16">
9833,9834,9835,9836,9837,9838,0,0,0,0,0,0,0,0,0,0,
9865,9866,9867,9868,9869,9870,0,0,0,0,0,0,0,0,0,0,
9897,9898,9899,9900,9901,9902,0,0,0,0,0,0,0,0,0,0,
9929,9930,9931,9932,9933,9934,0,0,0,0,0,0,0,0,0,0,
9961,9962,9963,9964,9965,9966,0,0,0,0,0,0,0,0,0,0,
9993,9994,9995,9996,9997,9998,0,0,0,0,0,0,0,0,0,0,
10025,10026,10027,10028,10029,10030,0,0,0,0,0,0,0,0,0,0,
10057,10058,10059,10060,10061,10062,0,0,0,0,0,0,0,0,0,0,
10089,10090,10091,10092,10093,10094,0,0,0,0,0,0,0,0,0,0,
10121,10122,10123,10124,10125,10126,0,0,0,0,0,0,0,0,0,0,
10153,10154,10155,10156,10157,10158,0,0,0,0,0,0,0,0,0,0,
9801,9802,9803,9804,9805,9806,0,0,0,0,0,0,0,0,0,0,
9833,9834,9835,9836,9837,9838,0,0,0,0,0,0,0,0,0,0,
9865,9866,9867,9868,9869,9870,0,0,0,0,0,0,0,0,0,0,
9897,9898,9899,9900,9901,9902,0,0,0,0,0,0,0,0,0,0,
9929,9930,9931,9932,9933,9934,0,0,0,0,0,0,0,0,0,0
</chunk>
   <chunk x="-368" y="448" width="16" height="16">
0,0,0,0,0,0,0,0,0,0,0,0,0,0,0,0,
0,0,0,0,0,0,0,0,0,0,0,0,0,0,0,0,
0,0,0,0,0,0,0,0,0,0,0,0,0,0,0,0,
0,0,0,0,0,0,0,0,0,0,0,0,0,0,0,0,
0,0,0,0,0,0,0,0,0,0,0,0,0,0,0,0,
0,0,0,0,0,0,0,0,0,0,0,0,0,0,0,0,
0,0,0,0,0,0,0,0,0,0,0,0,0,0,0,0,
0,0,0,0,0,0,0,0,0,0,0,0,0,0,0,0,
0,0,0,0,0,0,0,0,0,0,0,0,0,0,0,0,
0,0,0,0,0,0,0,0,0,0,0,0,0,0,0,0,
0,0,0,0,0,0,0,0,0,0,0,0,0,0,0,0,
0,0,0,0,0,0,0,0,0,0,0,0,0,0,0,0,
0,0,0,0,0,0,0,0,0,0,0,0,0,0,0,0,
0,0,0,0,0,0,0,0,0,0,0,0,0,0,2564,2565,
0,0,0,0,0,0,0,0,0,0,0,0,0,0,2596,2597,
0,0,0,0,0,0,0,0,0,0,0,0,0,0,2628,2629
</chunk>
   <chunk x="-352" y="448" width="16" height="16">
0,0,0,0,2666,2667,2666,2667,2666,2667,0,0,0,0,0,0,
0,0,0,0,2634,2635,2634,2635,2634,2635,0,0,0,0,0,0,
0,0,0,0,2666,2667,2666,2667,2666,2667,0,0,0,0,0,0,
0,0,0,0,2698,2699,2698,2699,2698,2699,0,0,0,0,0,0,
0,0,0,0,2730,2731,2730,2731,2730,2731,0,0,0,0,0,0,
0,0,0,0,2698,2699,2698,2699,2698,2699,0,0,0,0,0,0,
0,0,0,0,2730,2731,2730,2731,2730,2731,0,0,0,0,0,0,
0,0,0,0,0,0,0,0,0,0,0,0,0,0,0,0,
0,0,0,0,0,0,0,0,0,0,0,0,0,0,0,0,
0,0,0,0,0,0,0,0,0,0,0,0,0,0,0,0,
0,0,0,0,0,0,0,0,0,0,0,0,0,0,0,0,
0,0,0,0,0,0,0,0,0,0,0,0,0,0,0,0,
0,0,0,0,0,0,0,0,0,0,0,0,0,0,0,0,
2566,2567,2566,2567,2566,2567,2566,2567,2566,2567,2566,2567,2566,2567,2566,2567,
2598,2599,2598,2599,2598,2599,2598,2599,2598,2599,2598,2599,2598,2599,2598,2599,
2062,2063,2147486149,2147486148,1073744422,1073744423,1073744422,1073744423,1073744422,1073744423,1073744422,1073744423,1073744422,1073744423,1073744422,1073744423
</chunk>
   <chunk x="-336" y="448" width="16" height="16">
0,0,0,0,0,0,0,0,0,0,0,0,0,0,0,0,
0,0,0,0,0,0,0,0,0,0,0,0,0,0,0,0,
0,0,0,0,0,0,0,0,0,0,0,0,0,0,0,0,
0,0,0,0,0,0,0,0,0,0,0,0,0,0,0,0,
0,0,0,0,0,0,0,0,0,0,0,0,0,0,0,0,
0,0,0,0,0,0,0,0,0,0,0,0,0,0,0,0,
0,0,0,0,0,0,0,0,0,0,0,0,0,0,0,0,
0,0,0,0,0,0,0,0,0,0,0,0,0,0,0,0,
0,0,0,0,0,0,0,0,0,0,0,0,0,0,0,0,
0,0,0,0,0,0,0,0,0,0,0,0,0,0,0,0,
0,0,0,0,0,0,0,0,0,0,0,0,0,0,0,0,
0,0,0,0,0,0,0,0,0,0,0,0,0,0,0,0,
0,0,0,0,0,0,0,0,0,0,0,0,0,0,0,0,
2566,2567,2566,2567,2566,2567,2566,2567,2566,2567,2566,2567,2566,2567,2566,2567,
2598,2599,2598,2599,2598,2599,2598,2599,2598,2599,2598,2599,2598,2599,2598,2599,
1073744422,1073744423,1073744422,1073744423,1073744422,1073744423,2500,2501,2062,2063,2147486149,2147486148,1073744422,1073744423,1073744422,1073744423
</chunk>
   <chunk x="-320" y="448" width="16" height="16">
0,0,0,0,0,0,0,0,0,0,0,0,0,0,0,0,
0,0,0,0,0,0,0,0,0,0,0,0,0,0,0,0,
0,0,0,0,0,0,0,0,0,0,0,0,0,0,0,0,
0,0,0,0,0,0,0,0,0,0,0,0,0,0,0,0,
0,0,0,0,0,0,0,0,0,0,0,0,0,0,0,0,
0,0,0,0,0,0,0,0,0,0,0,0,0,0,0,0,
0,0,0,0,0,0,0,0,0,0,0,0,0,0,0,0,
0,0,0,0,0,0,0,0,0,0,0,0,0,0,0,0,
0,0,0,0,0,0,0,0,0,0,0,0,0,0,0,0,
0,0,0,0,0,0,0,0,0,0,0,0,0,0,0,0,
0,0,0,0,0,0,0,0,0,0,0,0,0,0,0,0,
0,0,0,0,0,0,0,0,0,0,0,0,0,0,0,0,
0,0,0,0,0,0,0,0,0,0,0,0,0,0,0,0,
2566,2567,2566,2567,2566,2567,2566,2567,2566,2567,2566,2567,2566,2567,2566,2567,
2598,2599,2598,2599,2598,2599,2598,2599,2598,2599,2598,2599,2598,2599,2598,2599,
1073744422,1073744423,1073744422,1073744423,1073744422,1073744423,1073744422,1073744423,1073744422,1073744423,1073744422,1073744423,1073744422,1073744423,1073744422,1073744423
</chunk>
   <chunk x="-304" y="448" width="16" height="16">
0,0,0,0,0,0,0,0,0,0,0,0,0,0,0,0,
0,0,0,0,0,0,0,0,0,0,0,0,0,0,0,0,
0,0,0,0,0,0,0,0,0,0,0,0,0,0,0,0,
0,0,0,0,0,0,0,0,0,0,0,0,0,0,0,0,
0,0,0,0,0,0,0,0,0,0,0,0,0,0,0,0,
0,0,0,0,0,0,0,0,0,0,0,0,0,0,0,0,
0,0,0,0,0,0,0,0,0,0,0,0,0,0,0,0,
0,0,0,0,0,0,0,0,0,0,0,0,0,0,0,0,
0,0,0,0,0,0,0,0,0,0,0,0,0,0,0,0,
0,0,0,0,0,0,0,0,0,0,0,0,0,0,0,0,
0,0,0,0,0,0,0,0,0,0,0,0,0,0,0,0,
0,0,0,0,0,0,0,0,0,0,0,0,0,0,0,0,
0,0,0,0,0,0,0,0,0,0,0,0,0,0,0,0,
2566,2567,2566,2567,2566,2567,2566,2567,2147486213,2147486212,0,0,0,0,0,0,
2598,2599,2598,2599,2598,2599,2598,2599,2147486245,2147486244,0,0,0,0,0,0,
1073744422,1073744423,1073744422,1073744423,2500,2501,2062,2063,2147486277,2147486276,0,0,0,0,0,0
</chunk>
   <chunk x="-288" y="448" width="16" height="16">
0,0,0,0,0,0,0,0,0,0,0,0,0,0,0,0,
0,0,0,0,0,0,2564,2565,2566,2567,2566,2567,2566,2567,2566,2567,
0,0,0,0,0,0,2596,2597,2598,2599,2598,2599,2598,2599,2598,2599,
0,0,0,0,0,0,2628,2629,2062,2063,2147486149,2147486148,1073744422,1073744423,1073744422,1073744423,
0,0,0,0,0,0,2660,2661,2094,2095,2147486181,2147486180,1073744390,1073744391,1073744390,1073744391,
0,0,0,0,0,0,2628,2629,2062,2063,2147486277,2147486276,2692,2693,2694,2695,
0,0,0,0,0,0,2660,2661,2094,2095,2147486309,2147486308,2724,2725,2726,2727,
0,0,0,0,0,0,2628,2629,2062,2063,2147486277,2147486276,2756,2757,2758,2759,
0,0,0,0,0,0,2660,2661,2094,2095,2147486309,2147486308,2788,2789,2790,2791,
0,0,0,0,0,0,2628,2629,2062,2063,2147486277,2147486276,2692,2693,2694,2695,
0,0,0,0,0,0,2660,2661,2094,2095,2147486309,2147486308,2724,2725,2726,2727,
0,0,0,0,0,0,2628,2629,2062,2063,2147486277,2147486276,2756,2757,2758,2759,
0,0,0,0,0,0,2660,2661,2094,2095,2147486309,2147486308,2788,2789,2790,2791,
0,0,0,0,0,0,2628,2629,2062,2063,2147486277,2147486276,2634,2635,2634,2635,
0,0,0,0,0,0,2660,2661,2094,2095,2147486309,2147486308,2666,2667,2666,2667,
0,0,0,0,0,0,2628,2629,2062,2063,2147486277,2147486276,2634,2635,2634,2635
</chunk>
   <chunk x="-272" y="448" width="16" height="16">
0,0,0,0,0,0,0,0,0,0,0,0,0,0,0,0,
2566,2567,2566,2567,2566,2567,2566,2567,2566,2567,2566,2567,2566,2567,2566,2567,
2598,2599,2598,2599,2598,2599,2598,2599,2598,2599,2598,2599,2598,2599,2598,2599,
1073744422,1073744423,1073744422,1073744423,1073744422,1073744423,1073744422,1073744423,1073744422,1073744423,1073744422,1073744423,1073744422,1073744423,1073744422,1073744423,
1073744390,1073744391,1073744390,1073744391,1073744390,1073744391,1073744390,1073744391,1073744390,1073744391,1073744390,1073744391,1073744390,1073744391,1073744390,1073744391,
2696,2697,2692,2693,2694,2695,2696,2697,2692,2693,2694,2695,2696,2697,2692,2693,
2728,2729,2724,2725,2726,2727,2728,2729,2724,2725,2726,2727,2728,2729,2724,2725,
2760,2761,2692,2693,2694,2695,2696,2697,2756,2757,2758,2759,2760,2761,2692,2693,
2792,2793,2724,2725,2726,2727,2728,2729,2788,2789,2790,2791,2792,2793,2724,2725,
2696,2697,2756,2757,2758,2759,2760,2761,2692,2693,2694,2695,2696,2697,2756,2757,
2728,2729,2788,2789,2790,2791,2792,2793,2724,2725,2726,2727,2728,2729,2788,2789,
2760,2761,2692,2693,2694,2695,2696,2697,2756,2757,2758,2759,2760,2761,2692,2693,
2792,2793,2724,2725,2726,2727,2728,2729,2788,2789,2790,2791,2792,2793,2724,2725,
2634,2635,2634,2635,2634,2635,2634,2635,2634,2635,2634,2635,2634,2635,2634,2635,
2666,2667,2666,2667,2666,2667,2666,2667,2666,2667,2666,2667,2666,2667,2666,2667,
2634,2635,2634,2635,2634,2635,2634,2635,2634,2635,2634,2635,2634,2635,2634,2635
</chunk>
   <chunk x="-256" y="448" width="16" height="16">
0,0,0,0,0,0,0,0,0,0,0,0,0,0,0,0,
2566,2567,2566,2567,2566,2567,2566,2567,2566,2567,2566,2567,2566,2567,2147486213,2147486212,
2598,2599,2598,2599,2598,2599,2598,2599,2598,2599,2598,2599,2598,2599,2147486245,2147486244,
1073744422,1073744423,1073744422,1073744423,1073744422,1073744423,1073744422,1073744423,1073744422,1073744423,2500,2501,2062,2063,2147486277,2147486276,
1073744390,1073744391,1073744390,1073744391,1073744390,1073744391,1073744390,1073744391,1073744390,1073744391,2532,2533,2094,2095,2147486309,2147486308,
2694,2695,2696,2697,2692,2693,2694,2695,2762,2763,2628,2629,2062,2063,2147486277,2147486276,
2726,2727,2728,2729,2724,2725,2726,2727,2794,2795,2660,2661,2094,2095,2147486309,2147486308,
2694,2695,2696,2697,2756,2757,2758,2759,2826,2827,2628,2629,2062,2063,2147486277,2147486276,
2726,2727,2728,2729,2788,2789,2790,2791,2858,2859,2660,2661,2094,2095,2147486309,2147486308,
2758,2759,2760,2761,2692,2693,2694,2695,2762,2763,2628,2629,2062,2063,2147486277,2147486276,
2790,2791,2792,2793,2724,2725,2726,2727,2794,2795,2660,2661,2094,2095,2147486309,2147486308,
2694,2695,2696,2697,2756,2757,2758,2759,2826,2827,2628,2629,2062,2063,2147486277,2147486276,
2726,2727,2728,2729,2788,2789,2790,2791,2858,2859,2660,2661,2094,2095,2147486309,2147486308,
2634,2635,2634,2635,2634,2635,2634,2635,2698,2699,2628,2629,2062,2063,2147486277,2147486276,
2666,2667,2666,2667,2666,2667,2666,2667,2730,2731,2660,2661,2094,2095,2147486309,2147486308,
2634,2635,2634,2635,2634,2635,2634,2635,2698,2699,2628,2629,2062,2063,2147486277,2147486276
</chunk>
   <chunk x="-80" y="448" width="16" height="16">
0,0,0,0,0,0,0,0,0,0,0,0,0,0,0,0,
0,0,0,0,0,0,0,0,0,0,0,0,0,0,0,0,
0,0,0,0,0,0,0,0,0,0,0,0,0,0,0,0,
0,0,0,0,0,0,0,0,0,0,0,0,0,0,0,0,
0,0,0,0,0,0,0,0,0,0,0,0,0,0,0,0,
0,0,0,0,0,0,0,0,0,0,0,0,0,0,0,0,
0,0,0,0,0,0,0,0,0,0,0,0,0,0,0,0,
0,0,0,0,0,0,0,0,0,0,0,0,0,0,0,0,
0,0,0,0,0,0,0,0,0,0,0,0,0,0,0,0,
0,0,0,0,0,0,0,0,0,0,0,0,0,0,0,0,
0,0,0,0,0,0,0,0,0,0,0,0,0,0,0,0,
0,0,0,0,0,0,0,0,0,0,0,0,0,0,0,0,
0,0,0,0,0,0,0,0,0,0,0,0,0,0,0,0,
0,0,9801,9802,9803,9804,9805,9806,9993,9994,9995,9996,9997,9998,9801,9802,
0,0,9833,9834,9835,9836,9837,9838,10025,10026,10027,10028,10029,10030,9833,9834,
0,0,9865,9866,9867,9868,9869,9870,10057,10058,10059,10060,10061,10062,9865,9866
</chunk>
   <chunk x="-64" y="448" width="16" height="16">
0,0,0,0,2280,2281,0,0,0,0,0,0,0,0,0,0,
0,0,0,0,0,0,0,0,0,0,0,0,0,0,0,0,
0,0,0,0,0,0,0,0,0,0,0,0,0,0,0,0,
0,0,0,0,0,0,0,0,0,0,0,0,0,0,0,0,
0,0,0,0,0,0,0,0,0,0,0,0,0,0,0,0,
0,0,0,0,0,0,0,0,0,0,0,0,0,0,0,0,
0,0,0,0,0,0,0,0,0,0,0,0,0,0,0,0,
0,0,0,0,0,0,0,0,0,0,0,0,0,0,0,0,
0,0,0,0,0,0,0,0,0,0,0,0,0,0,0,0,
0,0,0,0,0,0,0,0,0,0,0,0,0,0,0,0,
0,0,0,0,0,0,0,0,0,0,0,0,0,0,0,0,
0,0,0,0,0,0,0,0,0,0,0,0,0,0,0,0,
0,0,0,0,0,0,0,0,0,0,0,0,0,0,0,0,
9803,9804,9805,9806,9993,9994,9995,9996,9997,9998,9801,9802,9803,9804,9805,9806,
9835,9836,9837,9838,10025,10026,10027,10028,10029,10030,9833,9834,9835,9836,9837,9838,
9867,9868,9869,9870,10057,10058,10059,10060,10061,10062,9865,9866,9867,9868,9869,9870
</chunk>
   <chunk x="-48" y="448" width="16" height="16">
9973,9974,9975,9976,9977,9978,10165,10166,10167,10168,10169,10170,0,0,0,0,
0,0,0,0,0,0,9813,9814,9815,9816,9817,9818,9993,9994,9995,9996,
0,0,0,0,0,0,9845,9846,9847,9848,9849,9850,10025,10026,10027,10028,
0,0,0,0,0,0,9877,9878,9879,9880,9881,9882,10057,10058,10059,10060,
0,0,0,0,0,0,9909,9910,9911,9912,9913,9914,10089,10090,10091,10092,
0,0,0,0,0,0,9941,9942,9943,9944,9945,9946,10121,10122,10123,10124,
0,0,0,0,0,0,9973,9974,9975,9976,9977,9978,10153,10154,10155,10156,
9813,9814,9815,9816,9817,9818,10005,10006,10007,10008,10009,10010,9801,9802,9803,9804,
9845,9846,9847,9848,9849,9850,10037,10038,10039,10040,10041,10042,9833,9834,9835,9836,
9877,9878,9879,9880,9881,9882,10069,10070,10071,10072,10073,10074,9865,9866,9867,9868,
9909,9910,9911,9912,9913,9914,10101,10102,10103,10104,10105,10106,9897,9898,9899,9900,
9941,9942,9943,9944,9945,9946,10133,10134,10135,10136,10137,10138,9929,9930,9931,9932,
9973,9974,9975,9976,9977,9978,10165,10166,10167,10168,10169,10170,9961,9962,9963,9964,
10005,10006,10007,10008,10009,10010,9813,9814,9815,9816,9817,9818,9993,9994,9995,9996,
10037,10038,10039,10040,10041,10042,9845,9846,9847,9848,9849,9850,10025,10026,10027,10028,
10069,10070,10071,10072,10073,10074,9877,9878,9879,9880,9881,9882,10057,10058,10059,10060
</chunk>
   <chunk x="-32" y="448" width="16" height="16">
0,0,0,0,0,0,0,0,0,0,0,0,0,0,0,0,
9997,9998,9801,9802,9803,9804,9805,9806,9993,9994,9995,9996,9997,9998,9801,9802,
10029,10030,9833,9834,9835,9836,9837,9838,10025,10026,10027,10028,10029,10030,9833,9834,
10061,10062,9865,9866,9867,9868,9869,9870,10057,10058,10059,10060,10061,10062,9865,9866,
10093,10094,9897,9898,9899,9900,9901,9902,10089,10090,10091,10092,10093,10094,9897,9898,
10125,10126,9929,9930,9931,9932,9933,9934,10121,10122,10123,10124,10125,10126,9929,9930,
10157,10158,9961,9962,9963,9964,9965,9966,10153,10154,10155,10156,10157,10158,9961,9962,
9805,9806,9993,9994,9995,9996,9997,9998,9801,9802,9803,9804,9805,9806,9993,9994,
9837,9838,10025,10026,10027,10028,10029,10030,9833,9834,9835,9836,9837,9838,10025,10026,
9869,9870,10057,10058,10059,10060,10061,10062,9865,9866,9867,9868,9869,9870,10057,10058,
9901,9902,10089,10090,10091,10092,10093,10094,9897,9898,9899,9900,9901,9902,10089,10090,
9933,9934,10121,10122,10123,10124,10125,10126,9929,9930,9931,9932,9933,9934,10121,10122,
9965,9966,10153,10154,10155,10156,10157,10158,9961,9962,9963,9964,9965,9966,10153,10154,
9997,9998,9801,9802,9803,9804,9805,9806,0,0,0,0,0,0,9801,9802,
10029,10030,9833,9834,9835,9836,9837,9838,0,0,0,0,0,0,9833,9834,
10061,10062,9865,9866,9867,9868,9869,9870,0,0,0,0,0,0,9865,9866
</chunk>
   <chunk x="-16" y="448" width="16" height="16">
0,0,0,0,0,0,0,0,0,0,0,0,0,0,0,0,
9803,9804,9805,9806,9993,9994,9995,9996,9997,9998,9801,9802,9803,9804,9805,9806,
9835,9836,9837,9838,10025,10026,10027,10028,10029,10030,9833,9834,9835,9836,9837,9838,
9867,9868,9869,9870,10057,10058,10059,10060,10061,10062,9865,9866,9867,9868,9869,9870,
9899,9900,9901,9902,10089,10090,10091,10092,10093,10094,9897,9898,9899,9900,9901,9902,
9931,9932,9933,9934,10121,10122,10123,10124,10125,10126,9929,9930,9931,9932,9933,9934,
9963,9964,9965,9966,10153,10154,10155,10156,10157,10158,9961,9962,9963,9964,9965,9966,
9995,9996,9997,9998,9801,9802,9803,9804,9805,9806,9993,9994,9995,9996,9997,9998,
10027,10028,10029,10030,9833,9834,9835,9836,9837,9838,10025,10026,10027,10028,10029,10030,
10059,10060,10061,10062,9865,9866,9867,9868,9869,9870,10057,10058,10059,10060,10061,10062,
10091,10092,10093,10094,9897,9898,9899,9900,9901,9902,10089,10090,10091,10092,10093,10094,
10123,10124,10125,10126,9929,9930,9931,9932,9933,9934,10121,10122,10123,10124,10125,10126,
10155,10156,10157,10158,9961,9962,9963,9964,9965,9966,10153,10154,10155,10156,10157,10158,
9803,9804,9805,9806,9993,9994,9995,9996,9997,9998,9801,9802,9803,9804,9805,9806,
9835,9836,9837,9838,10025,10026,10027,10028,10029,10030,9833,9834,9835,9836,9837,9838,
9867,9868,9869,9870,10057,10058,10059,10060,10061,10062,9865,9866,9867,9868,9869,9870
</chunk>
   <chunk x="0" y="448" width="16" height="16">
0,0,0,0,0,0,0,0,0,0,0,0,0,0,0,0,
9993,9994,9995,9996,9997,9998,9801,9802,9803,9804,9805,9806,9993,9994,9995,9996,
10025,10026,10027,10028,10029,10030,9833,9834,9835,9836,9837,9838,10025,10026,10027,10028,
10057,10058,10059,10060,10061,10062,9865,9866,9867,9868,9869,9870,10057,10058,10059,10060,
10089,10090,10091,10092,10093,10094,9897,9898,9899,9900,9901,9902,10089,10090,10091,10092,
10121,10122,10123,10124,10125,10126,9929,9930,9931,9932,9933,9934,10121,10122,10123,10124,
10153,10154,10155,10156,10157,10158,9961,9962,9963,9964,9965,9966,10153,10154,10155,10156,
9801,9802,9803,9804,9805,9806,9993,9994,9995,9996,9997,9998,9801,9802,9803,9804,
9833,9834,9835,9836,9837,9838,10025,10026,10027,10028,10029,10030,9833,9834,9835,9836,
9865,9866,9867,9868,9869,9870,10057,10058,10059,10060,10061,10062,9865,9866,9867,9868,
9897,9898,9899,9900,9901,9902,10089,10090,10091,10092,10093,10094,9897,9898,9899,9900,
9929,9930,9931,9932,9933,9934,10121,10122,10123,10124,10125,10126,9929,9930,9931,9932,
9961,9962,9963,9964,9965,9966,10153,10154,10155,10156,10157,10158,9961,9962,9963,9964,
0,0,0,0,0,0,9801,9802,9803,9804,9805,9806,9993,9994,9995,9996,
0,0,0,0,0,0,9833,9834,9835,9836,9837,9838,10025,10026,10027,10028,
0,0,0,0,0,0,9865,9866,9867,9868,9869,9870,10057,10058,10059,10060
</chunk>
   <chunk x="16" y="448" width="16" height="16">
0,0,0,0,0,0,0,0,0,0,0,0,0,0,9961,9962,
9997,9998,0,0,0,0,0,0,0,0,0,0,0,0,9993,9994,
10029,10030,0,0,0,0,0,0,0,0,0,0,0,0,10025,10026,
10061,10062,0,0,0,0,0,0,0,0,0,0,0,0,10057,10058,
10093,10094,0,0,0,0,0,0,0,0,0,0,0,0,10089,10090,
10125,10126,0,0,0,0,0,0,0,0,0,0,0,0,10121,10122,
10157,10158,0,0,0,0,0,0,0,0,0,0,0,0,10153,10154,
9805,9806,0,0,0,0,0,0,0,0,0,0,0,0,9801,9802,
9837,9838,0,0,0,0,0,0,0,0,0,0,0,0,9833,9834,
9869,9870,0,0,0,0,0,0,0,0,0,0,0,0,9865,9866,
9901,9902,0,0,0,0,0,0,0,0,0,0,0,0,9897,9898,
9933,9934,0,0,0,0,0,0,0,0,0,0,0,0,9929,9930,
9965,9966,0,0,0,0,0,0,0,0,0,0,0,0,9961,9962,
9997,9998,9801,9802,9803,9804,9805,9806,0,0,0,0,0,0,0,0,
10029,10030,9833,9834,9835,9836,9837,9838,0,0,0,0,0,0,0,0,
10061,10062,9865,9866,9867,9868,9869,9870,0,0,0,0,0,0,0,0
</chunk>
   <chunk x="32" y="448" width="16" height="16">
9963,9964,9965,9966,10153,10154,10155,10156,10157,10158,9961,9962,9963,9964,9965,9966,
9995,9996,9997,9998,9801,9802,9803,9804,9805,9806,9993,9994,9995,9996,9997,9998,
10027,10028,10029,10030,9833,9834,9835,9836,9837,9838,10025,10026,10027,10028,10029,10030,
10059,10060,10061,10062,9865,9866,9867,9868,9869,9870,10057,10058,10059,10060,10061,10062,
10091,10092,10093,10094,9897,9898,9899,9900,9901,9902,10089,10090,10091,10092,10093,10094,
10123,10124,10125,10126,9929,9930,9931,9932,9933,9934,10121,10122,10123,10124,10125,10126,
10155,10156,10157,10158,9961,9962,9963,9964,9965,9966,10153,10154,10155,10156,10157,10158,
9803,9804,9805,9806,9993,9994,9995,9996,9997,9998,9801,9802,9803,9804,9805,9806,
9835,9836,9837,9838,10025,10026,10027,10028,10029,10030,9833,9834,9835,9836,9837,9838,
9867,9868,9869,9870,10057,10058,10059,10060,10061,10062,9865,9866,9867,9868,9869,9870,
9899,9900,9901,9902,10089,10090,10091,10092,10093,10094,9897,9898,9899,9900,9901,9902,
9931,9932,9933,9934,10121,10122,10123,10124,10125,10126,9929,9930,9931,9932,9933,9934,
9963,9964,9965,9966,10153,10154,10155,10156,10157,10158,9961,9962,9963,9964,9965,9966,
0,0,0,0,0,0,0,0,0,0,0,0,0,0,0,0,
0,0,0,0,0,0,0,0,0,0,0,0,0,0,0,0,
0,0,0,0,0,0,0,0,0,0,2692,2693,2694,2695,2696,2697
</chunk>
   <chunk x="48" y="448" width="16" height="16">
10153,10154,10155,10156,10157,10158,9961,9962,9963,9964,9965,9966,10153,10154,10155,10156,
9801,9802,9803,9804,9805,9806,9993,9994,9995,9996,9997,9998,9801,9802,9803,9804,
9833,9834,9835,9836,9837,9838,10025,10026,10027,10028,10029,10030,9833,9834,9835,9836,
9865,9866,9867,9868,9869,9870,10057,10058,10059,10060,10061,10062,9865,9866,9867,9868,
9897,9898,9899,9900,9901,9902,10089,10090,10091,10092,10093,10094,9897,9898,9899,9900,
9929,9930,9931,9932,9933,9934,10121,10122,10123,10124,10125,10126,9929,9930,9931,9932,
9961,9962,9963,9964,9965,9966,10153,10154,10155,10156,10157,10158,9961,9962,9963,9964,
0,0,0,0,0,0,9801,9802,9803,9804,9805,9806,9993,9994,9995,9996,
0,0,0,0,0,0,9833,9834,9835,9836,9837,9838,10025,10026,10027,10028,
0,0,0,0,0,0,9865,9866,9867,9868,9869,9870,10057,10058,10059,10060,
0,0,0,0,0,0,9897,9898,9899,9900,9901,9902,10089,10090,10091,10092,
0,0,0,0,0,0,9929,9930,9931,9932,9933,9934,10121,10122,10123,10124,
0,0,0,0,0,0,9961,9962,9963,9964,9965,9966,10153,10154,10155,10156,
2634,2635,2634,2635,2634,2635,0,0,0,0,0,0,0,0,0,0,
2666,2667,2666,2667,2666,2667,0,0,0,0,0,0,0,0,0,0,
2698,2699,2698,2699,2698,2699,2692,2693,2694,2695,2696,2697,0,0,0,0
</chunk>
   <chunk x="64" y="448" width="16" height="16">
10157,10158,9973,9974,9975,9976,9977,9978,10153,10154,10155,10156,10157,10158,9277,9278,
9805,9806,0,0,0,0,0,0,0,0,0,0,0,0,0,0,
9837,9838,0,0,0,0,0,0,0,0,0,0,0,0,0,0,
9869,9870,0,0,0,0,0,0,0,0,0,0,0,0,0,0,
9901,9902,0,0,0,0,0,0,0,0,0,0,0,0,0,0,
9933,9934,0,0,0,0,0,0,0,0,0,0,2147485897,2147485896,0,0,
9965,9966,0,0,0,0,0,0,0,0,0,0,2147485929,2147485928,0,0,
9997,9998,0,0,0,0,0,0,0,0,0,0,0,0,0,0,
10029,10030,0,0,0,0,0,0,0,0,0,0,0,0,0,0,
10061,10062,0,0,0,0,0,0,0,0,0,0,0,0,0,0,
10093,10094,0,0,0,0,0,0,0,0,0,0,0,0,0,0,
10125,10126,0,0,0,0,2147485897,2147485896,0,0,0,0,0,0,0,0,
10157,10158,0,0,0,0,2147485929,2147485928,0,0,0,0,0,0,0,0,
0,0,0,0,0,0,0,0,0,0,0,0,0,0,0,0,
0,0,0,0,0,0,0,0,0,0,0,0,0,0,0,0,
0,0,0,0,0,0,0,0,0,0,0,0,0,0,0,0
</chunk>
   <chunk x="80" y="448" width="16" height="16">
9273,9274,9275,9276,9273,9274,9271,9272,9333,9334,2730,2731,2730,2731,2730,2731,
0,0,0,0,0,0,0,0,0,0,0,0,0,0,0,0,
0,0,0,0,0,0,0,0,0,0,0,0,0,0,0,0,
0,0,0,0,0,0,0,0,0,0,0,0,0,0,0,0,
0,0,0,0,0,0,0,0,0,0,0,0,0,0,0,0,
0,0,0,0,0,0,0,0,0,0,0,0,0,0,0,0,
0,0,0,0,0,0,0,0,0,0,0,0,0,0,0,0,
0,0,0,0,0,0,0,0,0,0,0,0,0,0,0,0,
0,0,0,0,0,0,0,0,0,0,0,0,0,0,0,0,
0,0,0,0,0,0,0,0,0,0,0,0,0,0,0,0,
0,0,0,0,0,0,0,0,0,0,0,0,0,0,0,0,
0,0,0,0,0,0,0,0,0,0,0,0,0,0,0,0,
0,0,0,0,0,0,0,0,0,0,0,0,0,0,0,0,
0,0,0,0,0,0,0,0,0,0,9801,9802,9803,9804,9805,9806,
0,0,0,0,0,0,0,0,0,0,9833,9834,9835,9836,9837,9838,
0,0,0,0,0,0,0,0,0,0,9865,9866,9867,9868,9869,9870
</chunk>
   <chunk x="96" y="448" width="16" height="16">
9269,9270,9271,9272,9269,9270,9271,9272,9337,9338,9335,9336,2280,2281,0,0,
0,0,0,0,0,0,0,0,0,0,0,0,0,0,0,0,
0,0,0,0,0,0,0,0,0,0,0,0,0,0,0,0,
0,0,0,0,0,0,0,0,0,0,0,0,0,0,0,0,
0,0,0,0,0,0,0,0,0,0,0,0,0,0,0,0,
0,0,0,0,0,0,0,0,0,0,0,0,0,0,0,0,
0,0,0,0,0,0,0,0,0,0,0,0,0,0,0,0,
0,0,0,0,0,0,0,0,0,0,0,0,0,0,0,0,
0,0,0,0,0,0,0,0,0,0,0,0,0,0,0,0,
0,0,0,0,0,0,0,0,0,0,0,0,0,0,0,0,
0,0,0,0,0,0,0,0,0,0,0,0,0,0,0,0,
0,0,0,0,0,0,0,0,0,0,0,0,0,0,0,0,
0,0,0,0,0,0,0,0,0,0,0,0,0,0,0,0,
9993,9994,9995,9996,9997,9998,0,0,0,0,0,0,0,0,0,0,
10025,10026,10027,10028,10029,10030,0,0,0,0,0,0,0,0,0,0,
10057,10058,10059,10060,10061,10062,0,0,0,0,0,0,0,0,0,0
</chunk>
   <chunk x="112" y="448" width="16" height="16">
0,0,10153,10154,10155,10156,10157,10158,9961,9962,9963,9964,9965,9966,10153,10154,
0,0,0,0,0,0,0,0,9993,9994,9995,9996,9997,9998,9801,9802,
0,0,0,0,0,0,0,0,10025,10026,10027,10028,10029,10030,9833,9834,
0,0,0,0,0,0,0,0,10057,10058,10059,10060,10061,10062,9865,9866,
0,0,0,0,0,0,0,0,10089,10090,10091,10092,10093,10094,9897,9898,
0,0,2248,2249,0,0,0,0,10121,10122,10123,10124,10125,10126,9929,9930,
0,0,2280,2281,0,0,0,0,10153,10154,10155,10156,10157,10158,9961,9962,
0,0,0,0,0,0,0,0,0,0,0,0,0,0,9993,9994,
0,0,0,0,0,0,0,0,0,0,0,0,0,0,10025,10026,
0,0,0,0,0,0,0,0,0,0,0,0,0,0,10057,10058,
0,0,0,0,0,0,0,0,0,0,0,0,0,0,10089,10090,
0,0,0,0,0,0,0,0,2248,2249,0,0,0,0,10121,10122,
0,0,0,0,0,0,0,0,2280,2281,0,0,0,0,10153,10154,
0,0,0,0,0,0,0,0,0,0,0,0,0,0,9801,9802,
0,0,0,0,0,0,0,0,0,0,0,0,0,0,9833,9834,
0,0,0,0,0,0,0,0,0,0,0,0,0,0,9865,9866
</chunk>
   <chunk x="128" y="448" width="16" height="16">
10155,10156,10157,10158,9961,9962,9963,9964,9965,9966,10153,10154,10155,10156,10157,10158,
9803,9804,9805,9806,9993,9994,9995,9996,9997,9998,9801,9802,9803,9804,9805,9806,
9835,9836,9837,9838,10025,10026,10027,10028,10029,10030,9833,9834,9835,9836,9837,9838,
9867,9868,9869,9870,10057,10058,10059,10060,10061,10062,9865,9866,9867,9868,9869,9870,
9899,9900,9901,9902,10089,10090,10091,10092,10093,10094,9897,9898,9899,9900,9901,9902,
9931,9932,9933,9934,10121,10122,10123,10124,10125,10126,9929,9930,9931,9932,9933,9934,
9963,9964,9965,9966,10153,10154,10155,10156,10157,10158,9961,9962,9963,9964,9965,9966,
9995,9996,9997,9998,9801,9802,9803,9804,9805,9806,9993,9994,9995,9996,9997,9998,
10027,10028,10029,10030,9833,9834,9835,9836,9837,9838,10025,10026,10027,10028,10029,10030,
10059,10060,10061,10062,9865,9866,9867,9868,9869,9870,10057,10058,10059,10060,10061,10062,
10091,10092,10093,10094,9897,9898,9899,9900,9901,9902,10089,10090,10091,10092,10093,10094,
10123,10124,10125,10126,9929,9930,9931,9932,9933,9934,10121,10122,10123,10124,10125,10126,
10155,10156,10157,10158,9961,9962,9963,9964,9965,9966,10153,10154,10155,10156,10157,10158,
9803,9804,9805,9806,9993,9994,9995,9996,9997,9998,9801,9802,9803,9804,9805,9806,
9835,9836,9837,9838,10025,10026,10027,10028,10029,10030,9833,9834,9835,9836,9837,9838,
9867,9868,9869,9870,10057,10058,10059,10060,10061,10062,9865,9866,9867,9868,9869,9870
</chunk>
   <chunk x="144" y="448" width="16" height="16">
9961,9962,9963,9964,9965,9966,0,0,0,0,0,0,0,0,0,0,
9993,9994,9995,9996,9997,9998,0,0,0,0,0,0,0,0,0,0,
10025,10026,10027,10028,10029,10030,0,0,0,0,0,0,0,0,0,0,
10057,10058,10059,10060,10061,10062,0,0,0,0,0,0,0,0,0,0,
10089,10090,10091,10092,10093,10094,0,0,0,0,0,0,0,0,0,0,
10121,10122,10123,10124,10125,10126,0,0,0,0,0,0,0,0,0,0,
10153,10154,10155,10156,10157,10158,0,0,0,0,0,0,0,0,0,0,
9801,9802,9803,9804,9805,9806,0,0,0,0,0,0,0,0,0,0,
9833,9834,9835,9836,9837,9838,0,0,0,0,0,0,0,0,0,0,
9865,9866,9867,9868,9869,9870,0,0,0,0,0,0,0,0,0,0,
9897,9898,9899,9900,9901,9902,0,0,0,0,0,0,0,0,0,0,
9929,9930,9931,9932,9933,9934,0,0,0,0,0,0,0,0,0,0,
9961,9962,9963,9964,9965,9966,0,0,0,0,0,0,0,0,0,0,
9993,9994,9995,9996,9997,9998,0,0,0,0,0,0,0,0,0,0,
10025,10026,10027,10028,10029,10030,0,0,0,0,0,0,0,0,0,0,
10057,10058,10059,10060,10061,10062,0,0,0,0,0,0,0,0,0,0
</chunk>
   <chunk x="-368" y="464" width="16" height="16">
0,0,0,0,0,0,0,0,0,0,0,0,0,0,2660,2661,
0,0,0,0,0,0,0,0,0,0,0,0,0,0,2628,2629,
0,0,0,0,0,0,0,0,0,0,0,0,0,0,2660,2661,
0,0,0,0,0,0,0,0,0,0,0,0,0,0,2628,2629,
0,0,0,0,0,0,0,0,0,0,0,0,0,0,2660,2661,
0,0,0,0,0,0,0,0,0,0,0,0,0,0,2628,2629,
0,0,0,0,0,0,0,0,0,0,0,0,0,0,2660,2661,
0,0,0,0,0,0,0,0,0,0,0,0,0,0,2628,2629,
0,0,0,0,0,0,0,0,0,0,0,0,0,0,2660,2661,
0,0,0,0,0,0,0,0,0,0,0,0,0,0,2628,2629,
0,0,0,0,0,0,0,0,0,0,0,0,0,0,2660,2661,
0,0,0,0,0,0,0,0,0,0,0,0,0,0,2628,2629,
0,0,0,0,0,0,0,0,0,0,0,0,0,0,2660,2661,
0,0,0,0,0,0,0,0,0,0,0,0,0,0,2628,2629,
0,0,0,0,0,0,0,0,0,0,0,0,0,0,2660,2661,
0,0,0,0,0,0,0,0,0,0,0,0,0,0,2628,2629
</chunk>
   <chunk x="-352" y="464" width="16" height="16">
2094,2095,2147486181,2147486180,1073744390,1073744391,1073744390,1073744391,1073744390,1073744391,1073744390,1073744391,1073744390,1073744391,1073744390,1073744391,
2062,2063,2147486277,2147486276,2756,2757,2758,2759,2760,2761,0,0,0,0,0,0,
2094,2095,2147486309,2147486308,2788,2789,2790,2791,2792,2793,0,0,0,0,0,0,
2062,2063,2147486277,2147486276,2692,2693,2694,2695,2696,2697,0,0,0,0,0,0,
2094,2095,2147486309,2147486308,2724,2725,2726,2727,2728,2729,0,0,0,0,0,0,
2062,2063,2147486277,2147486276,2756,2757,2758,2759,2760,2761,0,0,0,0,0,0,
2094,2095,2147486309,2147486308,2788,2789,2790,2791,2792,2793,0,0,0,0,0,0,
2062,2063,2147486277,2147486276,2692,2693,2694,2695,2696,2697,0,0,0,0,0,0,
2094,2095,2147486309,2147486308,2724,2725,2726,2727,2728,2729,0,0,0,0,0,0,
2062,2063,2147486277,2147486276,0,0,0,0,0,0,0,0,0,0,0,0,
2094,2095,2147486309,2147486308,0,0,0,0,0,0,0,0,0,0,0,0,
2062,2063,2147486277,2147486276,0,0,0,0,0,0,0,0,0,0,0,0,
2094,2095,2147486309,2147486308,0,0,0,0,0,0,0,0,0,0,0,0,
2062,2063,2147486277,2147486276,0,0,0,0,0,0,0,0,0,0,0,0,
2094,2095,2147486309,2147486308,0,0,0,0,0,0,0,0,0,0,0,0,
2062,2063,2147486277,2147486276,2634,2635,2634,2635,2634,2635,0,0,0,0,0,0
</chunk>
   <chunk x="-336" y="464" width="16" height="16">
1073744390,1073744391,1073744390,1073744391,1073744390,1073744391,2532,2533,2094,2095,2147486181,2147486180,1073744390,1073744391,1073744390,1073744391,
2756,2757,2758,2759,2760,2761,2628,2629,2062,2063,2147486277,2147486276,2756,2757,2758,2759,
2788,2789,2790,2791,2792,2793,2660,2661,2094,2095,2147486309,2147486308,2788,2789,2790,2791,
0,0,0,0,0,0,2628,2629,2062,2063,2147486277,2147486276,0,0,0,0,
0,0,0,0,0,0,2660,2661,2094,2095,2147486309,2147486308,0,0,0,0,
0,0,0,0,0,0,2628,2629,2062,2063,2147486277,2147486276,0,0,0,0,
0,0,0,0,0,0,2660,2661,2094,2095,2147486309,2147486308,0,0,0,0,
0,0,0,0,0,0,2628,2629,2062,2063,2147486277,2147486276,0,0,0,0,
0,0,0,0,0,0,2660,2661,2094,2095,2147486309,2147486308,0,0,0,0,
9439,9440,9443,9444,2147493088,2147493087,2628,2629,2062,2063,2147486277,2147486276,9439,9440,9443,9444,
9471,9472,9475,9476,2147493120,2147493119,2660,2661,2094,2095,2147486309,2147486308,9471,9472,9475,9476,
9379,9380,9381,9382,2147493028,2147493027,2628,2629,2062,2063,2147486277,2147486276,9379,9380,9381,9382,
9411,9412,9413,9414,2147493060,2147493059,2660,2661,2094,2095,2147486309,2147486308,9411,9412,9413,9414,
1073751235,1073751236,1073751237,1073751238,3221234884,3221234883,2628,2629,2062,2063,2147486277,2147486276,1073751235,1073751236,1073751237,1073751238,
1073751203,1073751204,1073751205,1073751206,3221234852,3221234851,2660,2661,2094,2095,2147486309,2147486308,1073751203,1073751204,1073751205,1073751206,
2634,2635,2634,2635,2698,2699,2628,2629,2062,2063,2147486277,2147486276,2634,2635,2634,2635
</chunk>
   <chunk x="-320" y="464" width="16" height="16">
1073744390,1073744391,1073744390,1073744391,1073744390,1073744391,1073744390,1073744391,1073744390,1073744391,1073744390,1073744391,1073744390,1073744391,1073744390,1073744391,
2760,2761,0,0,0,0,0,0,2756,2757,2758,2759,2760,2761,2692,2693,
2792,2793,0,0,0,0,0,0,2788,2789,2790,2791,2792,2793,2724,2725,
0,0,0,0,0,0,0,0,2692,2693,2694,2695,2696,2697,2756,2757,
0,0,0,0,0,0,0,0,2724,2725,2726,2727,2728,2729,2788,2789,
0,0,0,0,0,0,0,0,2756,2757,2758,2759,2760,2761,2692,2693,
0,0,0,0,0,0,0,0,2788,2789,2790,2791,2792,2793,2724,2725,
0,0,0,0,0,0,0,0,2692,2693,2694,2695,2696,2697,0,0,
0,0,0,0,0,0,0,0,2724,2725,2726,2727,2728,2729,0,0,
2147493088,2147493087,0,0,0,0,0,0,2634,2635,2634,2635,2698,2699,0,0,
2147493120,2147493119,0,0,0,0,0,0,2666,2667,2666,2667,2730,2731,0,0,
2147493028,2147493027,0,0,0,0,0,0,2634,2635,2634,2635,2698,2699,0,0,
2147493060,2147493059,0,0,0,0,0,0,2666,2667,2666,2667,2730,2731,0,0,
3221234884,3221234883,0,0,0,0,0,0,2634,2635,2634,2635,2698,2699,0,0,
3221234852,3221234851,0,0,0,0,0,0,2666,2667,2666,2667,2730,2731,0,0,
2634,2635,0,0,0,0,0,0,2634,2635,2634,2635,2634,2635,0,0
</chunk>
   <chunk x="-304" y="464" width="16" height="16">
1073744390,1073744391,1073744390,1073744391,2532,2533,2094,2095,2147486309,2147486308,0,0,0,0,0,0,
2694,2695,2762,2763,2628,2629,2062,2063,2147486277,2147486276,0,0,0,0,0,0,
2726,2727,2794,2795,2660,2661,2094,2095,2147486309,2147486308,0,0,0,0,0,0,
2758,2759,2826,2827,2628,2629,2062,2063,2147486277,2147486276,0,0,0,0,0,0,
2790,2791,2858,2859,2660,2661,2094,2095,2147486309,2147486308,0,0,0,0,0,0,
2694,2695,2762,2763,2628,2629,2062,2063,2147486277,2147486276,0,0,0,0,0,0,
2726,2727,2794,2795,2660,2661,2094,2095,2147486309,2147486308,0,0,0,0,0,0,
0,0,0,0,2628,2629,2062,2063,2147486277,2147486276,0,0,0,0,0,0,
0,0,0,0,2660,2661,2094,2095,2147486309,2147486308,0,0,0,0,0,0,
0,0,0,0,2628,2629,2062,2063,2147486277,2147486276,0,0,0,0,0,0,
0,0,0,0,2660,2661,2094,2095,2147486309,2147486308,0,0,0,0,0,0,
0,0,0,0,2628,2629,2062,2063,2147486277,2147486276,0,0,0,0,0,0,
0,0,0,0,2660,2661,2094,2095,2147486309,2147486308,0,0,0,0,0,0,
0,0,0,0,2628,2629,2062,2063,2147486277,2147486276,0,0,0,0,0,0,
0,0,0,0,2660,2661,2094,2095,2147486309,2147486308,0,0,0,0,0,0,
0,0,0,0,2628,2629,2062,2063,2147486277,2147486276,0,0,0,0,0,0
</chunk>
   <chunk x="-288" y="464" width="16" height="16">
0,0,0,0,0,0,2660,2661,2094,2095,2147486309,2147486308,2666,2667,2666,2667,
0,0,0,0,0,0,2628,2629,2062,2063,2147486277,2147486276,0,0,0,0,
0,0,0,0,0,0,2660,2661,2094,2095,2147486309,2147486308,0,0,0,0,
0,0,0,0,0,0,2628,2629,2062,2063,2147486277,2147486276,0,0,0,0,
0,0,0,0,0,0,2660,2661,2094,2095,2147486309,2147486308,0,0,0,0,
0,0,0,0,0,0,2628,2629,2062,2063,2147486277,2147486276,0,0,0,0,
0,0,0,0,0,0,2660,2661,2094,2095,2147486309,2147486308,0,0,0,0,
0,0,0,0,0,0,2628,2629,2062,2063,2147486277,2147486276,2634,2635,2634,2635,
0,0,0,0,0,0,2660,2661,2094,2095,2147486309,2147486308,2666,2667,2666,2667,
0,0,0,0,0,0,2628,2629,2062,2063,3221228005,3221228004,2566,2567,2566,2567,
0,0,0,0,0,0,2660,2661,2094,2095,3221227973,3221227972,2598,2599,2598,2599,
0,0,0,0,0,0,2628,2629,2062,2063,2147486149,2147486148,1073744422,1073744423,1073744422,1073744423,
0,0,0,0,0,0,2660,2661,2094,2095,2147486181,2147486180,1073744390,1073744391,1073744390,1073744391,
0,0,0,0,0,0,2628,2629,2062,2063,2147486277,2147486276,2756,2757,2758,2759,
0,0,0,0,0,0,2660,2661,2094,2095,2147486309,2147486308,2788,2789,2790,2791,
0,0,0,0,0,0,2628,2629,2062,2063,2147486277,2147486276,0,0,0,0
</chunk>
   <chunk x="-272" y="464" width="16" height="16">
2666,2667,2666,2667,2666,2667,2666,2667,2666,2667,2666,2667,2666,2667,2666,2667,
0,0,2634,2635,2634,2635,2634,2635,2634,2635,2634,2635,2634,2635,2634,2635,
0,0,2666,2667,2666,2667,2666,2667,2666,2667,2666,2667,2666,2667,2666,2667,
0,0,2634,2635,2634,2635,2634,2635,2634,2635,2634,2635,2634,2635,2634,2635,
0,0,2666,2667,2666,2667,2666,2667,2666,2667,2666,2667,2666,2667,2666,2667,
0,0,2634,2635,2634,2635,2634,2635,2634,2635,2634,2635,2634,2635,2634,2635,
0,0,2666,2667,2666,2667,2666,2667,2666,2667,2666,2667,2666,2667,2666,2667,
2634,2635,2634,2635,2634,2635,2634,2635,2634,2635,2634,2635,2634,2635,2634,2635,
2666,2667,2666,2667,2666,2667,2666,2667,2666,2667,2666,2667,2666,2667,2666,2667,
2566,2567,2566,2567,2566,2567,2566,2567,2566,2567,2566,2567,2566,2567,2566,2567,
2598,2599,2598,2599,2598,2599,2598,2599,2598,2599,2598,2599,2598,2599,2598,2599,
1073744422,1073744423,1073744422,1073744423,1073744422,1073744423,1073744422,1073744423,1073744422,1073744423,1073744422,1073744423,1073744422,1073744423,1073744422,1073744423,
1073744390,1073744391,1073744390,1073744391,1073744390,1073744391,1073744390,1073744391,1073744390,1073744391,1073744390,1073744391,1073744390,1073744391,1073744390,1073744391,
2760,2761,2692,2693,2694,2695,2696,2697,2756,2757,2758,2759,2760,2761,2692,2693,
2792,2793,2724,2725,2726,2727,2728,2729,2788,2789,2790,2791,2792,2793,2724,2725,
0,0,2756,2757,2758,2759,2760,2761,2634,2635,2634,2635,2634,2635,2756,2757
</chunk>
   <chunk x="-256" y="464" width="16" height="16">
2666,2667,2666,2667,2666,2667,2666,2667,2730,2731,2660,2661,2094,2095,2147486309,2147486308,
2634,2635,2634,2635,2634,2635,2634,2635,2698,2699,2628,2629,2062,2063,2147486277,2147486276,
2666,2667,2666,2667,2666,2667,2666,2667,2730,2731,2660,2661,2094,2095,2147486309,2147486308,
2634,2635,2634,2635,2634,2635,2634,2635,2698,2699,2628,2629,2062,2063,2147486277,2147486276,
2666,2667,2666,2667,2666,2667,2666,2667,2730,2731,2660,2661,2094,2095,2147486309,2147486308,
2634,2635,2634,2635,2634,2635,2634,2635,2698,2699,2628,2629,2062,2063,2147486277,2147486276,
2666,2667,2666,2667,2666,2667,2666,2667,2730,2731,2660,2661,2094,2095,2147486309,2147486308,
2634,2635,2634,2635,2634,2635,2634,2635,2698,2699,2628,2629,2062,2063,2147486277,2147486276,
2666,2667,2666,2667,2666,2667,2666,2667,2730,2731,2660,2661,2094,2095,2147486309,2147486308,
2566,2567,2566,2567,2566,2567,2566,2567,2566,2567,1073744356,1073744357,2062,2063,2147486277,2147486276,
2598,2599,2598,2599,2598,2599,2598,2599,2598,2599,1073744324,1073744325,2094,2095,2147486309,2147486308,
1073744422,1073744423,1073744422,1073744423,1073744422,1073744423,1073744422,1073744423,1073744422,1073744423,2500,2501,2062,2063,2147486277,2147486276,
1073744390,1073744391,1073744390,1073744391,1073744390,1073744391,1073744390,1073744391,1073744390,1073744391,2532,2533,2094,2095,2147486309,2147486308,
2694,2695,2696,2697,2756,2757,2758,2759,2760,2761,2628,2629,2062,2063,2147486277,2147486276,
2726,2727,2728,2729,2788,2789,2790,2791,2792,2793,2660,2661,2094,2095,2147486309,2147486308,
2758,2759,2760,2761,0,0,0,0,0,0,2628,2629,2062,2063,2147486277,2147486276
</chunk>
   <chunk x="-112" y="464" width="16" height="16">
0,0,0,0,0,0,0,0,0,0,0,0,0,0,0,0,
0,0,0,0,0,0,0,0,0,0,0,0,0,0,0,0,
0,0,0,0,0,0,0,0,0,0,0,0,0,0,0,0,
0,0,0,0,0,0,0,0,0,0,9821,9822,9823,9824,9825,9826,
0,0,0,0,0,0,0,0,0,0,9853,9854,9855,9856,9857,9858,
0,0,0,0,0,0,0,0,0,0,9885,9886,9887,9888,9889,9890,
0,0,0,0,0,0,0,0,0,0,9917,9918,9919,9920,9921,9922,
0,0,0,0,0,0,0,0,0,0,0,0,0,0,0,0,
0,0,0,0,0,0,0,0,0,0,0,0,0,0,0,0,
0,0,0,0,0,0,0,0,0,0,0,0,0,0,0,0,
0,0,0,0,0,0,0,0,0,0,0,0,0,0,0,0,
0,0,0,0,0,0,0,0,0,0,0,0,0,0,0,0,
0,0,0,0,0,0,0,0,0,0,0,0,0,0,0,0,
0,0,0,0,0,0,0,0,0,0,0,0,0,0,0,0,
0,0,0,0,0,0,0,0,0,0,0,0,0,0,0,0,
0,0,0,0,0,0,0,0,0,0,0,0,0,0,0,0
</chunk>
   <chunk x="-96" y="464" width="16" height="16">
0,0,0,0,0,0,0,0,0,0,0,0,0,0,0,0,
0,0,0,0,0,0,0,0,0,0,0,0,0,0,0,0,
0,0,0,0,0,0,0,0,0,0,0,0,0,0,0,0,
0,0,9831,9832,9883,9884,9821,9822,9823,9824,9825,9826,0,0,9831,9832,
0,0,9863,9864,9915,9916,9853,9854,9855,9856,9857,9858,0,0,9863,9864,
9891,9892,9893,9894,9947,9948,9885,9886,9887,9888,9889,9890,9891,9892,9893,9894,
9923,9924,9925,9926,9979,9980,9917,9918,9919,9920,9921,9922,9923,9924,9925,9926,
0,0,9949,9950,9951,9952,0,0,0,0,0,0,0,0,9949,9950,
0,0,9981,9982,9983,9984,0,0,0,0,0,0,0,0,9981,9982,
0,0,0,0,0,0,0,0,0,0,0,0,0,0,0,0,
0,0,0,0,0,0,0,0,0,0,0,0,0,0,0,0,
0,0,0,0,0,0,0,0,0,0,0,0,0,0,0,0,
0,0,0,0,0,0,0,0,0,0,0,0,0,0,0,0,
0,0,0,0,0,0,0,0,0,0,0,0,0,0,0,0,
0,0,0,0,0,0,0,0,0,0,0,0,0,0,0,0,
0,0,0,0,0,0,0,0,0,0,0,0,0,0,0,0
</chunk>
   <chunk x="-80" y="464" width="16" height="16">
0,0,9897,9898,9899,9900,9901,9902,10089,10090,10091,10092,10093,10094,9897,9898,
0,0,9929,9930,9931,9932,9933,9934,10121,10122,10123,10124,10125,10126,9929,9930,
0,0,9961,9962,9963,9964,9965,9966,10153,10154,10155,10156,10157,10158,9961,9962,
0,0,9993,9994,9995,9996,9997,9998,9813,9814,9815,9816,9817,9818,9993,9994,
0,0,10025,10026,10027,10028,10029,10030,9845,9846,9847,9848,9849,9850,10025,10026,
0,0,10057,10058,10059,10060,10061,10062,9877,9878,9879,9880,9881,9882,10057,10058,
0,0,10089,10090,10091,10092,10093,10094,9909,9910,9911,9912,9913,9914,10089,10090,
0,0,10121,10122,10123,10124,10125,10126,9941,9942,9943,9944,9945,9946,10121,10122,
0,0,10153,10154,10155,10156,10157,10158,9973,9974,9975,9976,9977,9978,10153,10154,
0,0,9801,9802,9803,9804,9805,9806,10005,10006,10007,10008,10009,10010,9813,9814,
0,0,9833,9834,9835,9836,9837,9838,10037,10038,10039,10040,10041,10042,9845,9846,
0,0,9865,9866,9867,9868,9869,9870,10069,10070,10071,10072,10073,10074,9877,9878,
0,0,9897,9898,9899,9900,9901,9902,10101,10102,10103,10104,10105,10106,9909,9910,
0,0,9929,9930,9931,9932,9933,9934,10133,10134,10135,10136,10137,10138,9941,9942,
0,0,9961,9962,9963,9964,9965,9966,10165,10166,10167,10168,10169,10170,9973,9974,
0,0,9993,9994,9995,9996,9997,9998,9801,9802,9803,9804,9805,9806,10005,10006
</chunk>
   <chunk x="-64" y="464" width="16" height="16">
9899,9900,9901,9902,10089,10090,10091,10092,10093,10094,9897,9898,9899,9900,9901,9902,
9931,9932,9933,9934,10121,10122,10123,10124,10125,10126,9929,9930,9931,9932,9933,9934,
9963,9964,9965,9966,10153,10154,10155,10156,10157,10158,9961,9962,9963,9964,9965,9966,
9995,9996,9997,9998,9813,9814,9815,9816,9817,9818,9993,9994,9995,9996,9997,9998,
10027,10028,10029,10030,9845,9846,9847,9848,9849,9850,10025,10026,10027,10028,10029,10030,
10059,10060,10061,10062,9877,9878,9879,9880,9881,9882,10057,10058,10059,10060,10061,10062,
10091,10092,10093,10094,9909,9910,9911,9912,9913,9914,10089,10090,10091,10092,10093,10094,
10123,10124,10125,10126,9941,9942,9943,9944,9945,9946,10121,10122,10123,10124,10125,10126,
10155,10156,10157,10158,9973,9974,9975,9976,9977,9978,10153,10154,10155,10156,10157,10158,
9815,9816,9817,9818,10005,10006,10007,10008,10009,10010,9813,9814,9815,9816,9817,9818,
9847,9848,9849,9850,10037,10038,10039,10040,10041,10042,9845,9846,9847,9848,9849,9850,
9879,9880,9881,9882,10069,10070,10071,10072,10073,10074,9877,9878,9879,9880,9881,9882,
9911,9912,9913,9914,10101,10102,10103,10104,10105,10106,9909,9910,9911,9912,9913,9914,
9943,9944,9945,9946,10133,10134,10135,10136,10137,10138,9941,9942,9943,9944,9945,9946,
9975,9976,9977,9978,10165,10166,10167,10168,10169,10170,9973,9974,9975,9976,9977,9978,
10007,10008,10009,10010,9813,9814,9815,9816,9817,9818,10005,10006,10007,10008,10009,10010
</chunk>
   <chunk x="-48" y="464" width="16" height="16">
10101,10102,10103,10104,10105,10106,9909,9910,9911,9912,9913,9914,10089,10090,10091,10092,
10133,10134,10135,10136,10137,10138,9941,9942,9943,9944,9945,9946,10121,10122,10123,10124,
10165,10166,10167,10168,10169,10170,9973,9974,9975,9976,9977,9978,10153,10154,10155,10156,
9813,9814,9815,9816,9817,9818,10005,10006,10007,10008,10009,10010,9801,9802,9803,9804,
9845,9846,9847,9848,9849,9850,10037,10038,10039,10040,10041,10042,9833,9834,9835,9836,
9877,9878,9879,9880,9881,9882,10069,10070,10071,10072,10073,10074,9865,9866,9867,9868,
9909,9910,9911,9912,9913,9914,10101,10102,10103,10104,10105,10106,9897,9898,9899,9900,
9941,9942,9943,9944,9945,9946,10133,10134,10135,10136,10137,10138,9929,9930,9931,9932,
9973,9974,9975,9976,9977,9978,10165,10166,10167,10168,10169,10170,9961,9962,9963,9964,
10005,10006,10007,10008,10009,10010,0,0,0,0,0,0,0,0,0,0,
10037,10038,10039,10040,10041,10042,0,0,0,0,0,0,0,0,0,0,
10069,10070,10071,10072,10073,10074,0,0,0,0,0,0,0,0,0,0,
10101,10102,10103,10104,10105,10106,0,0,0,0,0,0,0,0,0,0,
10133,10134,10135,10136,10137,10138,0,0,0,0,0,0,0,0,0,0,
10165,10166,10167,10168,10169,10170,0,0,0,0,0,0,0,0,0,0,
9813,9814,9815,9816,9817,9818,10005,10006,10007,10008,10009,10010,0,0,0,0
</chunk>
   <chunk x="-32" y="464" width="16" height="16">
10093,10094,9897,9898,9899,9900,9901,9902,0,0,0,0,0,0,9897,9898,
10125,10126,9929,9930,9931,9932,9933,9934,0,0,0,0,0,0,9929,9930,
10157,10158,9961,9962,9963,9964,9965,9966,0,0,0,0,0,0,9961,9962,
9805,9806,0,0,0,0,0,0,2634,2635,2634,2635,2634,2635,0,0,
9837,9838,0,0,0,0,0,0,2666,2667,2666,2667,2666,2667,0,0,
9869,9870,2692,2693,2694,2695,2696,2697,2698,2699,2698,2699,2698,2699,2692,2693,
9901,9902,2724,2725,2726,2727,2728,2729,2730,2731,2730,2731,2730,2731,2724,2725,
9933,9934,2756,2757,2758,2759,2760,2761,2698,2699,2698,2699,2698,2699,2756,2757,
9965,9966,2788,2789,2790,2791,2792,2793,2730,2731,2730,2731,2730,2731,2788,2789,
0,0,0,0,0,0,0,0,0,0,0,0,0,0,0,0,
0,0,0,0,0,0,0,0,0,0,0,0,0,0,0,0,
0,0,0,0,0,0,0,0,0,0,0,0,0,0,0,0,
0,0,0,0,0,0,0,0,0,0,0,0,0,0,0,0,
0,0,0,0,0,0,0,0,0,0,0,0,0,0,0,0,
0,0,0,0,0,0,0,0,0,0,0,0,0,0,0,0,
0,0,0,0,0,0,0,0,0,0,0,0,0,0,0,0
</chunk>
   <chunk x="-16" y="464" width="16" height="16">
9899,9900,9901,9902,10089,10090,10091,10092,10093,10094,9897,9898,9899,9900,9901,9902,
9931,9932,9933,9934,10121,10122,10123,10124,10125,10126,9929,9930,9931,9932,9933,9934,
9963,9964,9965,9966,10153,10154,10155,10156,10157,10158,9961,9962,9963,9964,9965,9966,
0,0,0,0,0,0,0,0,0,0,0,0,0,0,0,0,
0,0,0,0,0,0,0,0,0,0,0,0,0,0,0,0,
2694,2695,2696,2697,0,0,0,0,0,0,2692,2693,2694,2695,2696,2697,
2726,2727,2728,2729,0,0,0,0,0,0,2724,2725,2726,2727,2728,2729,
2758,2759,2760,2761,0,0,0,0,0,0,2756,2757,2758,2759,2760,2761,
2790,2791,2792,2793,0,0,0,0,0,0,2788,2789,2790,2791,2792,2793,
0,0,0,0,0,0,0,0,0,0,0,0,0,0,0,0,
0,0,0,0,0,0,0,0,0,0,0,0,0,0,0,0,
0,0,0,0,0,0,0,0,0,0,0,0,0,0,0,0,
0,0,0,0,0,0,0,0,0,0,0,0,0,0,0,0,
0,0,0,0,0,0,0,0,0,0,0,0,0,0,0,0,
0,0,0,0,0,0,0,0,0,0,0,0,0,0,0,0,
0,0,0,0,0,0,0,0,0,0,0,0,0,0,0,0
</chunk>
   <chunk x="0" y="464" width="16" height="16">
0,0,0,0,0,0,9897,9898,9899,9900,9901,9902,10089,10090,10091,10092,
0,0,0,0,0,0,9929,9930,9931,9932,9933,9934,10121,10122,10123,10124,
0,0,0,0,0,0,9961,9962,9963,9964,9965,9966,10153,10154,10155,10156,
2634,2635,2634,2635,2634,2635,0,0,0,0,0,0,0,0,0,0,
2666,2667,2666,2667,2666,2667,0,0,0,0,0,0,0,0,0,0,
2698,2699,2698,2699,2698,2699,2692,2693,2694,2695,2696,2697,0,0,0,0,
2730,2731,2730,2731,2730,2731,2724,2725,2726,2727,2728,2729,0,0,0,0,
2698,2699,2698,2699,2698,2699,2756,2757,2758,2759,2760,2761,0,0,0,0,
2730,2731,2730,2731,2730,2731,2788,2789,2790,2791,2792,2793,0,0,0,0,
0,0,0,0,0,0,0,0,0,0,0,0,0,0,0,0,
0,0,0,0,0,0,0,0,0,0,0,0,0,0,0,0,
0,0,0,0,0,0,0,0,0,0,0,0,0,0,0,0,
0,0,0,0,0,0,0,0,0,0,0,0,0,0,0,0,
0,0,0,0,0,0,0,0,0,0,0,0,0,0,0,0,
0,0,0,0,0,0,0,0,0,0,0,0,0,0,0,0,
0,0,0,0,0,0,0,0,0,0,0,0,0,0,0,0
</chunk>
   <chunk x="16" y="464" width="16" height="16">
10093,10094,9897,9898,9899,9900,9901,9902,0,0,0,0,0,0,0,0,
10125,10126,9929,9930,9931,9932,9933,9934,0,0,0,0,0,0,0,0,
10157,10158,9961,9962,9963,9964,9965,9966,0,0,0,0,0,0,0,0,
0,0,0,0,0,0,0,0,0,0,0,0,0,0,0,0,
0,0,0,0,0,0,0,0,0,0,0,0,0,0,0,0,
0,0,0,0,0,0,0,0,0,0,0,0,0,0,0,0,
0,0,0,0,0,0,0,0,0,0,0,0,0,0,0,0,
0,0,0,0,0,0,0,0,0,0,0,0,0,0,0,0,
0,0,0,0,0,0,0,0,0,0,0,0,0,0,0,0,
0,0,0,0,0,0,0,0,0,0,0,0,0,0,0,0,
0,0,0,0,0,0,0,0,0,0,0,0,0,0,0,0,
0,0,0,0,0,0,0,0,0,0,0,0,0,0,0,0,
0,0,0,0,0,0,0,0,0,0,0,0,0,0,0,0,
0,0,0,0,0,0,0,0,0,0,0,0,0,0,0,0,
0,0,0,0,0,0,0,0,0,0,0,0,0,0,0,0,
0,0,0,0,0,0,0,0,0,0,0,0,0,0,0,0
</chunk>
   <chunk x="32" y="464" width="16" height="16">
0,0,0,0,0,0,0,0,0,0,2724,2725,2726,2727,2728,2729,
0,0,0,0,0,0,0,0,0,0,2756,2757,2758,2759,2760,2761,
0,0,0,0,0,0,0,0,0,0,2788,2789,2790,2791,2792,2793,
0,0,0,0,0,0,0,0,0,0,0,0,0,0,0,0,
0,0,0,0,0,0,0,0,0,0,0,0,0,0,0,0,
0,0,0,0,0,0,0,0,0,0,0,0,0,0,0,0,
0,0,0,0,0,0,0,0,0,0,0,0,0,0,0,0,
0,0,0,0,0,0,0,0,0,0,0,0,0,0,0,0,
0,0,0,0,0,0,0,0,0,0,0,0,0,0,0,0,
0,0,0,0,0,0,0,0,0,0,0,0,0,0,0,0,
0,0,0,0,0,0,0,0,0,0,0,0,0,0,0,0,
0,0,0,0,0,0,0,0,0,0,0,0,0,0,0,0,
0,0,0,0,0,0,0,0,0,0,0,0,0,0,0,0,
0,0,0,0,0,0,0,0,0,0,0,0,0,0,0,0,
0,0,0,0,0,0,0,0,0,0,0,0,0,0,0,0,
0,0,0,0,0,0,0,0,0,0,0,0,0,0,0,0
</chunk>
   <chunk x="48" y="464" width="16" height="16">
2730,2731,2730,2731,2730,2731,2724,2725,2726,2727,2728,2729,0,0,0,0,
2698,2699,2698,2699,2698,2699,2756,2757,2758,2759,2760,2761,0,0,0,0,
2730,2731,2730,2731,2730,2731,2788,2789,2790,2791,2792,2793,0,0,0,0,
0,0,0,0,0,0,0,0,0,0,0,0,0,0,0,0,
0,0,0,0,0,0,0,0,0,0,0,0,0,0,0,0,
0,0,0,0,0,0,0,0,0,0,0,0,0,0,0,0,
0,0,0,0,0,0,0,0,0,0,0,0,0,0,0,0,
0,0,0,0,0,0,0,0,0,0,0,0,0,0,0,0,
0,0,0,0,0,0,0,0,0,0,0,0,0,0,0,0,
0,0,0,0,0,0,0,0,0,0,0,0,0,0,0,0,
0,0,0,0,0,0,0,0,0,0,0,0,0,0,0,0,
0,0,0,0,0,0,0,0,0,0,0,0,0,0,0,0,
0,0,0,0,0,0,0,0,0,0,0,0,0,0,0,0,
0,0,0,0,0,0,0,0,0,0,0,0,0,0,0,0,
0,0,0,0,0,0,0,0,0,0,0,0,0,0,0,0,
0,0,0,0,0,0,0,0,0,0,0,0,0,0,0,0
</chunk>
   <chunk x="64" y="464" width="16" height="16">
0,0,0,0,0,0,0,0,0,0,0,0,0,0,0,0,
2147485897,2147485896,0,0,0,0,0,0,0,0,0,0,0,0,0,0,
2147485929,2147485928,0,0,0,0,0,0,0,0,0,0,0,0,0,0,
0,0,0,0,0,0,0,0,0,0,0,0,0,0,0,0,
0,0,0,0,0,0,0,0,0,0,0,0,0,0,0,0,
0,0,0,0,0,0,0,0,0,0,0,0,0,0,0,0,
0,0,0,0,0,0,0,0,0,0,0,0,0,0,0,0,
0,0,0,0,0,0,0,0,0,0,0,0,0,0,0,0,
0,0,0,0,0,0,0,0,0,0,0,0,0,0,0,0,
0,0,0,0,0,0,0,0,0,0,0,0,0,0,0,0,
0,0,0,0,0,0,0,0,0,0,0,0,0,0,0,0,
0,0,0,0,0,0,0,0,0,0,0,0,0,0,0,0,
0,0,0,0,0,0,0,0,0,0,0,0,0,0,0,0,
0,0,0,0,0,0,0,0,0,0,0,0,0,0,0,0,
0,0,0,0,0,0,0,0,0,0,0,0,0,0,0,0,
0,0,0,0,0,0,0,0,9813,9814,9815,9816,9817,9818,0,0
</chunk>
   <chunk x="80" y="464" width="16" height="16">
0,0,0,0,0,0,0,0,0,0,9897,9898,9899,9900,9901,9902,
0,0,0,0,0,0,0,0,0,0,9929,9930,9931,9932,9933,9934,
0,0,0,0,0,0,0,0,0,0,9961,9962,9963,9964,9965,9966,
0,0,0,0,9813,9814,9815,9816,9817,9818,9993,9994,9995,9996,9997,9998,
0,0,0,0,9845,9846,9847,9848,9849,9850,10025,10026,10027,10028,10029,10030,
0,0,0,0,9877,9878,9879,9880,9881,9882,10057,10058,10059,10060,10061,10062,
0,0,0,0,9909,9910,9911,9912,9913,9914,10089,10090,10091,10092,10093,10094,
0,0,0,0,9941,9942,9943,9944,9945,9946,10121,10122,10123,10124,10125,10126,
0,0,0,0,9973,9974,9975,9976,9977,9978,10153,10154,10155,10156,10157,10158,
0,0,0,0,10005,10006,10007,10008,10009,10010,9801,9802,9803,9804,9805,9806,
0,0,0,0,10037,10038,10039,10040,10041,10042,9833,9834,9835,9836,9837,9838,
0,0,0,0,10069,10070,10071,10072,10073,10074,9865,9866,9867,9868,9869,9870,
0,0,0,0,10101,10102,10103,10104,10105,10106,9897,9898,9899,9900,9901,9902,
0,0,0,0,10133,10134,10135,10136,10137,10138,9929,9930,9931,9932,9933,9934,
0,0,0,0,10165,10166,10167,10168,10169,10170,9961,9962,9963,9964,9965,9966,
0,0,0,0,9813,9814,9815,9816,9817,9818,9993,9994,9995,9996,9997,9998
</chunk>
   <chunk x="96" y="464" width="16" height="16">
10089,10090,10091,10092,10093,10094,0,0,0,0,0,0,0,0,0,0,
10121,10122,10123,10124,10125,10126,0,0,0,0,0,0,0,0,0,0,
10153,10154,10155,10156,10157,10158,0,0,0,0,0,0,0,0,0,0,
9801,9802,9803,9804,9805,9806,9993,9994,9995,9996,9997,9998,0,0,0,0,
9833,9834,9835,9836,9837,9838,10025,10026,10027,10028,10029,10030,0,0,0,0,
9865,9866,9867,9868,9869,9870,10057,10058,10059,10060,10061,10062,0,0,0,0,
9897,9898,9899,9900,9901,9902,10089,10090,10091,10092,10093,10094,0,0,0,0,
9929,9930,9931,9932,9933,9934,10121,10122,10123,10124,10125,10126,0,0,0,0,
9961,9962,9963,9964,9965,9966,10153,10154,10155,10156,10157,10158,0,0,0,0,
9993,9994,9995,9996,9997,9998,9813,9814,9815,9816,9817,9818,9993,9994,9995,9996,
10025,10026,10027,10028,10029,10030,9845,9846,9847,9848,9849,9850,10025,10026,10027,10028,
10057,10058,10059,10060,10061,10062,9877,9878,9879,9880,9881,9882,10057,10058,10059,10060,
10089,10090,10091,10092,10093,10094,9909,9910,9911,9912,9913,9914,10089,10090,10091,10092,
10121,10122,10123,10124,10125,10126,9941,9942,9943,9944,9945,9946,10121,10122,10123,10124,
10153,10154,10155,10156,10157,10158,9973,9974,9975,9976,9977,9978,10153,10154,10155,10156,
9801,9802,9803,9804,9805,9806,10005,10006,10007,10008,10009,10010,9813,9814,9815,9816
</chunk>
   <chunk x="112" y="464" width="16" height="16">
0,0,0,0,0,0,0,0,0,0,0,0,0,0,9897,9898,
0,0,0,0,0,0,0,0,0,0,0,0,0,0,9929,9930,
0,0,0,0,0,0,0,0,0,0,0,0,0,0,9961,9962,
0,0,0,0,0,0,0,0,0,0,0,0,0,0,9993,9994,
0,0,0,0,0,0,0,0,0,0,0,0,0,0,10025,10026,
0,0,0,0,0,0,0,0,0,0,0,0,0,0,10057,10058,
0,0,0,0,0,0,0,0,0,0,0,0,0,0,10089,10090,
0,0,0,0,0,0,0,0,0,0,0,0,0,0,10121,10122,
0,0,0,0,0,0,0,0,0,0,0,0,0,0,10153,10154,
9997,9998,0,0,0,0,0,0,0,0,0,0,0,0,0,0,
10029,10030,0,0,0,0,0,0,0,0,0,0,0,0,0,0,
10061,10062,0,0,0,0,0,0,0,0,0,0,0,0,0,0,
10093,10094,0,0,0,0,0,0,0,0,0,0,0,0,0,0,
10125,10126,0,0,0,0,0,0,0,0,0,0,0,0,2248,2249,
10157,10158,0,0,0,0,0,0,0,0,0,0,0,0,2280,2281,
9817,9818,0,0,0,0,0,0,0,0,0,0,0,0,0,0
</chunk>
   <chunk x="128" y="464" width="16" height="16">
9899,9900,9901,9902,10089,10090,10091,10092,10093,10094,9897,9898,9899,9900,9901,9902,
9931,9932,9933,9934,10121,10122,10123,10124,10125,10126,9929,9930,9931,9932,9933,9934,
9963,9964,9965,9966,10153,10154,10155,10156,10157,10158,9961,9962,9963,9964,9965,9966,
9995,9996,9997,9998,9801,9802,9803,9804,9805,9806,9993,9994,9995,9996,9997,9998,
10027,10028,10029,10030,9833,9834,9835,9836,9837,9838,10025,10026,10027,10028,10029,10030,
10059,10060,10061,10062,9865,9866,9867,9868,9869,9870,10057,10058,10059,10060,10061,10062,
10091,10092,10093,10094,9897,9898,9899,9900,9901,9902,10089,10090,10091,10092,10093,10094,
10123,10124,10125,10126,9929,9930,9931,9932,9933,9934,10121,10122,10123,10124,10125,10126,
10155,10156,10157,10158,9961,9962,9963,9964,9965,9966,10153,10154,10155,10156,10157,10158,
0,0,0,0,0,0,0,0,0,0,0,0,0,0,0,0,
0,0,0,0,0,0,0,0,0,0,0,0,0,0,0,0,
0,0,0,0,0,0,0,0,0,0,0,0,0,0,0,0,
0,0,0,0,0,0,0,0,0,0,0,0,0,0,0,0,
0,0,0,0,0,0,0,0,0,0,0,0,0,0,0,0,
0,0,0,0,0,0,0,0,0,0,0,0,0,0,0,0,
0,0,0,0,0,0,0,0,0,0,0,0,0,0,0,0
</chunk>
   <chunk x="144" y="464" width="16" height="16">
10089,10090,10091,10092,10093,10094,0,0,0,0,0,0,0,0,0,0,
10121,10122,10123,10124,10125,10126,0,0,0,0,0,0,0,0,0,0,
10153,10154,10155,10156,10157,10158,0,0,0,0,0,0,0,0,0,0,
9801,9802,9803,9804,9805,9806,0,0,0,0,0,0,0,0,0,0,
9833,9834,9835,9836,9837,9838,0,0,0,0,0,0,0,0,0,0,
9865,9866,9867,9868,9869,9870,0,0,0,0,0,0,0,0,0,0,
9897,9898,9899,9900,9901,9902,0,0,0,0,0,0,0,0,0,0,
9929,9930,9931,9932,9933,9934,0,0,0,0,0,0,0,0,0,0,
9961,9962,9963,9964,9965,9966,0,0,0,0,0,0,0,0,0,0,
0,0,0,0,0,0,0,0,0,0,0,0,0,0,0,0,
0,0,0,0,0,0,0,0,0,0,0,0,0,0,0,0,
0,0,0,0,0,0,0,0,0,0,0,0,0,0,0,0,
0,0,0,0,0,0,0,0,0,0,0,0,0,0,0,0,
0,0,0,0,0,0,0,0,0,0,0,0,0,0,0,0,
0,0,0,0,0,0,0,0,0,0,0,0,0,0,0,0,
0,0,0,0,0,0,0,0,0,0,0,0,0,0,0,0
</chunk>
   <chunk x="-368" y="480" width="16" height="16">
0,0,0,0,0,0,0,0,0,0,0,0,0,0,2660,2661,
0,0,0,0,0,0,0,0,0,0,0,0,0,0,2628,2629,
0,0,0,0,0,0,0,0,0,0,0,0,0,0,2660,2661,
0,0,0,0,0,0,0,0,0,0,0,0,0,0,2628,2629,
0,0,0,0,0,0,0,0,0,0,0,0,0,0,2660,2661,
0,0,0,0,0,0,0,0,0,0,0,0,0,0,2628,2629,
0,0,0,0,0,0,0,0,0,0,0,0,0,0,2660,2661,
0,0,0,0,0,0,0,0,0,0,0,0,0,0,2628,2629,
0,0,0,0,0,0,0,0,0,0,0,0,0,0,2660,2661,
0,0,0,0,0,0,0,0,0,0,0,0,0,0,2628,2629,
0,0,0,0,0,0,0,0,0,0,0,0,0,0,2660,2661,
0,0,0,0,0,0,0,0,0,0,0,0,0,0,2628,2629,
0,0,0,0,0,0,0,0,0,0,0,0,0,0,2660,2661,
0,0,0,0,0,0,0,0,0,0,0,0,0,0,2628,2629,
0,0,0,0,0,0,0,0,0,0,0,0,0,0,2660,2661,
0,0,0,0,0,0,0,0,0,0,0,0,0,0,2628,2629
</chunk>
   <chunk x="-352" y="480" width="16" height="16">
2094,2095,2147486309,2147486308,2666,2667,2666,2667,2666,2667,0,0,0,0,0,0,
2062,2063,2147486277,2147486276,2634,2635,2634,2635,2634,2635,0,0,0,0,0,0,
2094,2095,2147486309,2147486308,2666,2667,2666,2667,2666,2667,0,0,0,0,0,0,
2062,2063,2147486277,2147486276,2634,2635,2634,2635,2634,2635,0,0,0,0,0,0,
2094,2095,2147486309,2147486308,2666,2667,2666,2667,2666,2667,0,0,0,0,0,0,
2062,2063,2147486277,2147486276,2634,2635,2634,2635,2698,2699,0,0,0,0,0,0,
2094,2095,2147486309,2147486308,2666,2667,2666,2667,2730,2731,0,0,0,0,0,0,
2062,2063,2147486277,2147486276,2634,2635,2634,2635,2698,2699,0,0,0,0,0,0,
2094,2095,2147486309,2147486308,2666,2667,2666,2667,2730,2731,0,0,0,0,0,0,
2062,2063,2147486277,2147486276,2634,2635,2634,2635,2698,2699,0,0,0,0,0,0,
2094,2095,2147486309,2147486308,2666,2667,2666,2667,2730,2731,0,0,0,0,0,0,
2062,2063,2147486277,2147486276,2634,2635,2634,2635,2634,2635,2634,2635,2634,2635,2634,2635,
2094,2095,2147486309,2147486308,2666,2667,2666,2667,2666,2667,2666,2667,2666,2667,2666,2667,
2062,2063,2147486277,2147486276,2634,2635,2634,2635,2634,2635,2634,2635,2634,2635,2634,2635,
2094,2095,2147486309,2147486308,2666,2667,2666,2667,2666,2667,2666,2667,2666,2667,2666,2667,
2062,2063,2147486277,2147486276,2634,2635,2634,2635,2634,2635,2634,2635,2634,2635,2634,2635
</chunk>
   <chunk x="-336" y="480" width="16" height="16">
2666,2667,2666,2667,2730,2731,2660,2661,2094,2095,2147486309,2147486308,2666,2667,2666,2667,
2634,2635,2634,2635,2698,2699,2628,2629,2062,2063,2147486277,2147486276,2634,2635,2634,2635,
2666,2667,2666,2667,2730,2731,2660,2661,2094,2095,2147486309,2147486308,2666,2667,2666,2667,
2634,2635,2634,2635,2698,2699,2628,2629,2062,2063,2147486277,2147486276,2634,2635,2634,2635,
2666,2667,2666,2667,2730,2731,2660,2661,2094,2095,2147486309,2147486308,2666,2667,2666,2667,
2634,2635,2634,2635,2698,2699,2628,2629,2062,2063,2147486277,2147486276,2634,2635,2634,2635,
2666,2667,2666,2667,2730,2731,2660,2661,2094,2095,2147486309,2147486308,2666,2667,2666,2667,
2634,2635,2634,2635,2698,2699,2628,2629,2062,2063,2147486277,2147486276,2634,2635,2634,2635,
2666,2667,2666,2667,2730,2731,2660,2661,2094,2095,2147486309,2147486308,2666,2667,2666,2667,
2634,2635,2634,2635,2698,2699,2628,2629,2062,2063,2147486277,2147486276,2634,2635,2634,2635,
2666,2667,2666,2667,2730,2731,2660,2661,2094,2095,2147486309,2147486308,2666,2667,2666,2667,
2634,2635,2634,2635,2698,2699,2628,2629,2062,2063,2147486277,2147486276,2634,2635,2634,2635,
2666,2667,2666,2667,2730,2731,2660,2661,2094,2095,2147486309,2147486308,2666,2667,2666,2667,
2634,2635,2634,2635,2698,2699,2628,2629,2062,2063,2147486277,2147486276,2634,2635,2634,2635,
2666,2667,2666,2667,2730,2731,2660,2661,2094,2095,2147486309,2147486308,2666,2667,2666,2667,
2634,2635,2634,2635,2698,2699,2628,2629,2062,2063,2147486277,2147486276,2634,2635,2634,2635
</chunk>
   <chunk x="-320" y="480" width="16" height="16">
2666,2667,0,0,0,0,0,0,2666,2667,2666,2667,2666,2667,0,0,
2634,2635,0,0,0,0,0,0,2634,2635,2634,2635,2634,2635,0,0,
2666,2667,0,0,0,0,0,0,2666,2667,2666,2667,2666,2667,0,0,
2634,2635,2634,2635,2634,2635,2634,2635,0,0,0,0,0,0,0,0,
2666,2667,2666,2667,2666,2667,2666,2667,0,0,0,0,0,0,0,0,
2634,2635,2634,2635,2634,2635,0,0,0,0,0,0,0,0,0,0,
2666,2667,2666,2667,2666,2667,0,0,0,0,0,0,0,0,0,0,
2634,2635,2634,2635,2634,2635,0,0,0,0,0,0,0,0,0,0,
2666,2667,2666,2667,2666,2667,0,0,0,0,0,0,0,0,0,0,
2634,2635,2634,2635,2634,2635,0,0,0,0,0,0,0,0,0,0,
2666,2667,2666,2667,2666,2667,0,0,0,0,0,0,0,0,0,0,
2634,2635,2634,2635,2634,2635,2634,2635,2634,2635,2634,2635,2634,2635,2634,2635,
2666,2667,2666,2667,2666,2667,2666,2667,2666,2667,2666,2667,2666,2667,2666,2667,
2634,2635,2634,2635,2634,2635,2634,2635,2634,2635,2634,2635,2634,2635,2634,2635,
2666,2667,2666,2667,2666,2667,2666,2667,2666,2667,2666,2667,2666,2667,2666,2667,
2634,2635,2634,2635,2634,2635,2634,2635,2634,2635,2634,2635,2634,2635,2634,2635
</chunk>
   <chunk x="-304" y="480" width="16" height="16">
0,0,0,0,2660,2661,2094,2095,2147486309,2147486308,0,0,0,0,0,0,
0,0,0,0,2628,2629,2062,2063,2147486277,2147486276,0,0,0,0,0,0,
0,0,0,0,2660,2661,2094,2095,2147486309,2147486308,0,0,0,0,0,0,
0,0,0,0,2628,2629,2062,2063,2147486277,2147486276,0,0,0,0,0,0,
0,0,0,0,2660,2661,2094,2095,2147486309,2147486308,0,0,0,0,0,0,
0,0,0,0,2628,2629,2062,2063,2147486277,2147486276,0,0,0,0,0,0,
0,0,0,0,2660,2661,2094,2095,2147486309,2147486308,0,0,0,0,0,0,
0,0,0,0,2628,2629,2062,2063,2147486277,2147486276,0,0,0,0,0,0,
0,0,0,0,2660,2661,2094,2095,2147486309,2147486308,0,0,0,0,0,0,
0,0,0,0,2628,2629,2062,2063,2147486277,2147486276,0,0,0,0,0,0,
0,0,0,0,2660,2661,2094,2095,2147486309,2147486308,0,0,0,0,0,0,
2634,2635,2698,2699,2628,2629,2062,2063,2147486277,2147486276,0,0,0,0,0,0,
2666,2667,2730,2731,2660,2661,2094,2095,2147486309,2147486308,0,0,0,0,0,0,
2634,2635,2698,2699,2628,2629,2062,2063,2147486277,2147486276,0,0,0,0,0,0,
2666,2667,2730,2731,2660,2661,2094,2095,2147486309,2147486308,0,0,0,0,0,0,
2634,2635,2698,2699,2628,2629,2062,2063,2147486277,2147486276,0,0,0,0,0,0
</chunk>
   <chunk x="-288" y="480" width="16" height="16">
0,0,0,0,0,0,2660,2661,2094,2095,2147486309,2147486308,0,0,0,0,
0,0,0,0,0,0,2628,2629,2062,2063,2147486277,2147486276,0,0,0,0,
0,0,0,0,0,0,2660,2661,2094,2095,2147486309,2147486308,0,0,0,0,
0,0,0,0,0,0,2628,2629,2062,2063,2147486277,2147486276,0,0,0,0,
0,0,0,0,0,0,2660,2661,2094,2095,2147486309,2147486308,0,0,0,0,
0,0,0,0,0,0,2628,2629,2062,2063,2147486277,2147486276,9439,9440,9443,9444,
0,0,0,0,0,0,2660,2661,2094,2095,2147486309,2147486308,9471,9472,9475,9476,
0,0,0,0,0,0,2628,2629,2062,2063,2147486277,2147486276,9379,9380,9381,9382,
0,0,0,0,0,0,2660,2661,2094,2095,2147486309,2147486308,9411,9412,9413,9414,
0,0,0,0,0,0,2628,2629,2062,2063,2147486277,2147486276,1073751235,1073751236,1073751237,1073751238,
0,0,0,0,0,0,2660,2661,2094,2095,2147486309,2147486308,1073751203,1073751204,1073751205,1073751206,
0,0,0,0,0,0,2628,2629,2062,2063,2147486277,2147486276,2634,2635,2634,2635,
0,0,0,0,0,0,2660,2661,2094,2095,2147486309,2147486308,2666,2667,2666,2667,
0,0,0,0,0,0,2628,2629,2062,2063,2147486277,2147486276,2634,2635,2634,2635,
0,0,0,0,0,0,2660,2661,2094,2095,2147486309,2147486308,2666,2667,2666,2667,
0,0,0,0,0,0,2628,2629,2062,2063,2147486277,2147486276,2634,2635,2634,2635
</chunk>
   <chunk x="-272" y="480" width="16" height="16">
0,0,2788,2789,2790,2791,2792,2793,2666,2667,2666,2667,2666,2667,2788,2789,
0,0,2692,2693,2694,2695,2696,2697,2698,2699,2698,2699,2698,2699,2692,2693,
0,0,2724,2725,2726,2727,2728,2729,2730,2731,2730,2731,2730,2731,2724,2725,
0,0,0,0,0,0,0,0,2698,2699,2698,2699,2698,2699,0,0,
0,0,0,0,0,0,0,0,2730,2731,2730,2731,2730,2731,0,0,
2147493088,2147493087,0,0,0,0,0,0,2634,2635,2634,2635,2698,2699,0,0,
2147493120,2147493119,0,0,0,0,0,0,2666,2667,2666,2667,2730,2731,0,0,
2147493028,2147493027,0,0,0,0,0,0,2634,2635,2634,2635,2698,2699,0,0,
2147493060,2147493059,0,0,0,0,0,0,2666,2667,2666,2667,2730,2731,0,0,
3221234884,3221234883,0,0,0,0,0,0,2634,2635,2634,2635,2698,2699,0,0,
3221234852,3221234851,0,0,0,0,0,0,2666,2667,2666,2667,2730,2731,0,0,
2698,2699,0,0,0,0,0,0,2634,2635,2634,2635,2698,2699,0,0,
2730,2731,0,0,0,0,0,0,2666,2667,2666,2667,2730,2731,0,0,
2698,2699,0,0,0,0,0,0,2634,2635,2634,2635,2698,2699,0,0,
2730,2731,0,0,0,0,0,0,2666,2667,2666,2667,2730,2731,0,0,
2698,2699,0,0,0,0,0,0,2634,2635,2634,2635,2698,2699,0,0
</chunk>
   <chunk x="-256" y="480" width="16" height="16">
2790,2791,2792,2793,0,0,0,0,0,0,2660,2661,2094,2095,2147486309,2147486308,
2694,2695,2696,2697,0,0,0,0,0,0,2628,2629,2062,2063,2147486277,2147486276,
2726,2727,2728,2729,0,0,0,0,0,0,2660,2661,2094,2095,2147486309,2147486308,
0,0,0,0,0,0,0,0,0,0,2628,2629,2062,2063,2147486277,2147486276,
0,0,0,0,0,0,0,0,0,0,2660,2661,2094,2095,2147486309,2147486308,
0,0,0,0,9439,9440,9443,9444,2147493088,2147493087,2628,2629,2062,2063,2147486277,2147486276,
0,0,0,0,9471,9472,9475,9476,2147493120,2147493119,2660,2661,2094,2095,2147486309,2147486308,
0,0,0,0,9379,9380,9381,9382,2147493028,2147493027,2628,2629,2062,2063,2147486277,2147486276,
0,0,0,0,9411,9412,9413,9414,2147493060,2147493059,2660,2661,2094,2095,2147486309,2147486308,
0,0,0,0,1073751235,1073751236,1073751237,1073751238,3221234884,3221234883,2628,2629,2062,2063,2147486277,2147486276,
0,0,0,0,1073751203,1073751204,1073751205,1073751206,3221234852,3221234851,2660,2661,2094,2095,2147486309,2147486308,
0,0,0,0,2634,2635,2634,2635,2698,2699,2628,2629,2062,2063,2147486277,2147486276,
0,0,0,0,2666,2667,2666,2667,2730,2731,2660,2661,2094,2095,2147486309,2147486308,
0,0,0,0,2634,2635,2634,2635,2698,2699,2628,2629,2062,2063,2147486277,2147486276,
0,0,0,0,2666,2667,2666,2667,2730,2731,2660,2661,2094,2095,2147486309,2147486308,
0,0,0,0,2634,2635,2634,2635,2698,2699,2628,2629,2062,2063,2147486277,2147486276
</chunk>
   <chunk x="-80" y="480" width="16" height="16">
0,0,10025,10026,10027,10028,10029,10030,9833,9834,9835,9836,9837,9838,10037,10038,
0,0,10057,10058,10059,10060,10061,10062,9865,9866,9867,9868,9869,9870,10069,10070,
0,0,10089,10090,10091,10092,10093,10094,9897,9898,9899,9900,9901,9902,10101,10102,
0,0,10121,10122,10123,10124,10125,10126,9929,9930,9931,9932,9933,9934,10133,10134,
0,0,10153,10154,10155,10156,10157,10158,9961,9962,9963,9964,9965,9966,10165,10166,
0,0,9801,9802,9803,9804,9805,9806,9993,9994,9995,9996,9997,9998,0,0,
0,0,9833,9834,9835,9836,9837,9838,10025,10026,10027,10028,10029,10030,0,0,
0,0,9865,9866,9867,9868,9869,9870,10057,10058,10059,10060,10061,10062,0,0,
0,0,9897,9898,9899,9900,9901,9902,10089,10090,10091,10092,10093,10094,0,0,
0,0,9929,9930,9931,9932,9933,9934,10121,10122,10123,10124,10125,10126,0,0,
0,0,9961,9962,9963,9964,9965,9966,10153,10154,10155,10156,10157,10158,0,0,
0,0,9993,9994,9995,9996,9997,9998,0,0,0,0,0,0,0,0,
0,0,10025,10026,10027,10028,10029,10030,0,0,0,0,0,0,0,0,
0,0,10057,10058,10059,10060,10061,10062,0,0,0,0,0,0,0,0,
0,0,10089,10090,10091,10092,10093,10094,0,0,0,0,0,0,0,0,
0,0,10121,10122,10123,10124,10125,10126,0,0,0,0,0,0,0,0
</chunk>
   <chunk x="-64" y="480" width="16" height="16">
10039,10040,10041,10042,9845,9846,9847,9848,9849,9850,10037,10038,10039,10040,10041,10042,
10071,10072,10073,10074,9877,9878,9879,9880,9881,9882,10069,10070,10071,10072,10073,10074,
10103,10104,10105,10106,9909,9910,9911,9912,9913,9914,10101,10102,10103,10104,10105,10106,
10135,10136,10137,10138,9941,9942,9943,9944,9945,9946,10133,10134,10135,10136,10137,10138,
10167,10168,10169,10170,9973,9974,9975,9976,9977,9978,10165,10166,10167,10168,10169,10170,
0,0,0,0,10005,10006,10007,10008,10009,10010,9813,9814,9815,9816,9817,9818,
0,0,0,0,10037,10038,10039,10040,10041,10042,9845,9846,9847,9848,9849,9850,
0,0,0,0,10069,10070,10071,10072,10073,10074,9877,9878,9879,9880,9881,9882,
0,0,0,0,10101,10102,10103,10104,10105,10106,9909,9910,9911,9912,9913,9914,
0,0,0,0,10133,10134,10135,10136,10137,10138,9941,9942,9943,9944,9945,9946,
0,0,0,0,10165,10166,10167,10168,10169,10170,9973,9974,9975,9976,9977,9978,
0,0,0,0,0,0,0,0,0,0,10005,10006,10007,10008,10009,10010,
0,0,0,0,0,0,0,0,0,0,10037,10038,10039,10040,10041,10042,
0,0,0,0,0,0,0,0,0,0,10069,10070,10071,10072,10073,10074,
0,0,0,0,0,0,0,0,0,0,10101,10102,10103,10104,10105,10106,
0,0,0,0,2248,2249,0,0,0,0,10133,10134,10135,10136,10137,10138
</chunk>
   <chunk x="-48" y="480" width="16" height="16">
9845,9846,9847,9848,9849,9850,10037,10038,10039,10040,10041,10042,0,0,0,0,
9877,9878,9879,9880,9881,9882,10069,10070,10071,10072,10073,10074,0,0,0,0,
9909,9910,9911,9912,9913,9914,10101,10102,10103,10104,10105,10106,0,0,0,0,
9941,9942,9943,9944,9945,9946,10133,10134,10135,10136,10137,10138,0,0,0,0,
9973,9974,9975,9976,9977,9978,10165,10166,10167,10168,10169,10170,0,0,0,0,
10005,10006,10007,10008,10009,10010,9813,9814,9815,9816,9817,9818,9993,9994,9995,9996,
10037,10038,10039,10040,10041,10042,9845,9846,9847,9848,9849,9850,10025,10026,10027,10028,
10069,10070,10071,10072,10073,10074,9877,9878,9879,9880,9881,9882,10057,10058,10059,10060,
10101,10102,10103,10104,10105,10106,9909,9910,9911,9912,9913,9914,10089,10090,10091,10092,
10133,10134,10135,10136,10137,10138,9941,9942,9943,9944,9945,9946,10121,10122,10123,10124,
10165,10166,10167,10168,10169,10170,9973,9974,9975,9976,9977,9978,10153,10154,10155,10156,
9813,9814,9815,9816,9817,9818,10005,10006,10007,10008,10009,10010,9801,9802,9803,9804,
9845,9846,9847,9848,9849,9850,10037,10038,10039,10040,10041,10042,9833,9834,9835,9836,
9877,9878,9879,9880,9881,9882,10069,10070,10071,10072,10073,10074,9865,9866,9867,9868,
9909,9910,9911,9912,9913,9914,10101,10102,10103,10104,10105,10106,9897,9898,9899,9900,
9941,9942,9943,9944,9945,9946,10133,10134,10135,10136,10137,10138,9929,9930,9931,9932
</chunk>
   <chunk x="-32" y="480" width="16" height="16">
0,0,0,0,0,0,0,0,0,0,0,0,0,0,0,0,
0,0,0,0,0,0,0,0,0,0,0,0,0,0,0,0,
0,0,0,0,0,0,0,0,0,0,0,0,0,0,0,0,
0,0,0,0,0,0,0,0,0,0,0,0,0,0,0,0,
0,0,0,0,0,0,0,0,0,0,0,0,0,0,0,0,
9997,9998,9801,9802,9803,9804,9805,9806,9993,9994,9995,9996,9997,9998,9801,9802,
10029,10030,9833,9834,9835,9836,9837,9838,10025,10026,10027,10028,10029,10030,9833,9834,
10061,10062,9865,9866,9867,9868,9869,9870,10057,10058,10059,10060,10061,10062,9865,9866,
10093,10094,9897,9898,9899,9900,9901,9902,10089,10090,10091,10092,10093,10094,9897,9898,
10125,10126,9929,9930,9931,9932,9933,9934,10121,10122,10123,10124,10125,10126,9929,9930,
10157,10158,9961,9962,9963,9964,9965,9966,10153,10154,10155,10156,10157,10158,9961,9962,
9805,9806,9993,9994,9995,9996,9997,9998,0,0,0,0,0,0,9993,9994,
9837,9838,10025,10026,10027,10028,10029,10030,0,0,0,0,0,0,10025,10026,
9869,9870,10057,10058,10059,10060,10061,10062,0,0,0,0,0,0,10057,10058,
9901,9902,10089,10090,10091,10092,10093,10094,0,0,0,0,0,0,10089,10090,
9933,9934,10121,10122,10123,10124,10125,10126,0,0,0,0,0,0,10121,10122
</chunk>
   <chunk x="-16" y="480" width="16" height="16">
0,0,0,0,0,0,0,0,0,0,0,0,0,0,0,0,
0,0,0,0,0,0,0,0,0,0,0,0,0,0,0,0,
0,0,0,0,0,0,0,0,0,0,0,0,0,0,0,0,
0,0,0,0,0,0,0,0,0,0,0,0,0,0,0,0,
0,0,0,0,0,0,0,0,0,0,0,0,0,0,0,0,
9803,9804,9805,9806,9993,9994,9995,9996,9997,9998,9801,9802,9803,9804,9805,9806,
9835,9836,9837,9838,10025,10026,10027,10028,10029,10030,9833,9834,9835,9836,9837,9838,
9867,9868,9869,9870,10057,10058,10059,10060,10061,10062,9865,9866,9867,9868,9869,9870,
9899,9900,9901,9902,10089,10090,10091,10092,10093,10094,9897,9898,9899,9900,9901,9902,
9931,9932,9933,9934,10121,10122,10123,10124,10125,10126,9929,9930,9931,9932,9933,9934,
9963,9964,9965,9966,10153,10154,10155,10156,10157,10158,9961,9962,9963,9964,9965,9966,
9995,9996,9997,9998,9801,9802,9803,9804,9805,9806,9993,9994,9995,9996,9997,9998,
10027,10028,10029,10030,9833,9834,9835,9836,9837,9838,10025,10026,10027,10028,10029,10030,
10059,10060,10061,10062,9865,9866,9867,9868,9869,9870,10057,10058,10059,10060,10061,10062,
10091,10092,10093,10094,9897,9898,9899,9900,9901,9902,10089,10090,10091,10092,10093,10094,
10123,10124,10125,10126,9929,9930,9931,9932,9933,9934,10121,10122,10123,10124,10125,10126
</chunk>
   <chunk x="0" y="480" width="16" height="16">
0,0,0,0,0,0,0,0,0,0,0,0,0,0,0,0,
0,0,0,0,0,0,0,0,0,0,0,0,0,0,0,0,
0,0,0,0,0,0,0,0,0,0,0,0,0,0,0,0,
0,0,0,0,0,0,0,0,0,0,0,0,0,0,0,0,
0,0,0,0,0,0,0,0,0,0,0,0,0,0,0,0,
9993,9994,9995,9996,9997,9998,9801,9802,9803,9804,9805,9806,9993,9994,9995,9996,
10025,10026,10027,10028,10029,10030,9833,9834,9835,9836,9837,9838,10025,10026,10027,10028,
10057,10058,10059,10060,10061,10062,9865,9866,9867,9868,9869,9870,10057,10058,10059,10060,
10089,10090,10091,10092,10093,10094,9897,9898,9899,9900,9901,9902,10089,10090,10091,10092,
10121,10122,10123,10124,10125,10126,9929,9930,9931,9932,9933,9934,10121,10122,10123,10124,
10153,10154,10155,10156,10157,10158,9961,9962,9963,9964,9965,9966,10153,10154,10155,10156,
9801,9802,9803,9804,9805,9806,9993,9994,9995,9996,9997,9998,9801,9802,9803,9804,
9833,9834,9835,9836,9837,9838,10025,10026,10027,10028,10029,10030,9833,9834,9835,9836,
9865,9866,9867,9868,9869,9870,10057,10058,10059,10060,10061,10062,9865,9866,9867,9868,
9897,9898,9899,9900,9901,9902,10089,10090,10091,10092,10093,10094,9897,9898,9899,9900,
9929,9930,9931,9932,9933,9934,10121,10122,10123,10124,10125,10126,9929,9930,9931,9932
</chunk>
   <chunk x="16" y="480" width="16" height="16">
0,0,0,0,0,0,0,0,0,0,0,0,0,0,0,0,
0,0,0,0,0,0,0,0,0,0,0,0,0,0,0,0,
0,0,0,0,0,0,0,0,0,0,0,0,0,0,0,0,
0,0,0,0,0,0,0,0,0,0,0,0,0,0,0,0,
0,0,0,0,0,0,0,0,0,0,0,0,0,0,0,0,
9997,9998,0,0,0,0,0,0,0,0,0,0,0,0,0,0,
10029,10030,0,0,0,0,0,0,0,0,0,0,0,0,0,0,
10061,10062,0,0,0,0,0,0,0,0,0,0,0,0,0,0,
10093,10094,0,0,0,0,0,0,0,0,0,0,0,0,0,0,
10125,10126,0,0,0,0,0,0,0,0,0,0,0,0,0,0,
10157,10158,0,0,0,0,0,0,0,0,0,0,0,0,0,0,
9805,9806,9993,9994,9995,9996,9997,9998,9801,9802,9803,9804,9805,9806,9993,9994,
9837,9838,10025,10026,10027,10028,10029,10030,9833,9834,9835,9836,9837,9838,10025,10026,
9869,9870,10057,10058,10059,10060,10061,10062,9865,9866,9867,9868,9869,9870,10057,10058,
9901,9902,10089,10090,10091,10092,10093,10094,9897,9898,9899,9900,9901,9902,10089,10090,
9933,9934,10121,10122,10123,10124,10125,10126,9929,9930,9931,9932,9933,9934,10121,10122
</chunk>
   <chunk x="32" y="480" width="16" height="16">
0,0,0,0,0,0,0,0,0,0,0,0,0,0,0,0,
0,0,0,0,0,0,0,0,0,0,0,0,0,0,0,0,
0,0,0,0,0,0,0,0,0,0,0,0,0,0,0,0,
0,0,0,0,0,0,0,0,0,0,0,0,0,0,0,0,
0,0,0,0,0,0,0,0,0,0,0,0,0,0,0,0,
0,0,0,0,0,0,0,0,0,0,0,0,0,0,0,0,
0,0,0,0,0,0,0,0,0,0,0,0,0,0,0,0,
0,0,0,0,0,0,0,0,0,0,0,0,0,0,0,0,
0,0,0,0,0,0,0,0,0,0,0,0,0,0,0,0,
0,0,0,0,0,0,0,0,0,0,0,0,0,0,0,0,
0,0,0,0,0,0,0,0,0,0,0,0,0,0,0,0,
9995,9996,9997,9998,0,0,0,0,0,0,9993,9994,9995,9996,9997,9998,
10027,10028,10029,10030,0,0,0,0,0,0,10025,10026,10027,10028,10029,10030,
10059,10060,10061,10062,0,0,0,0,0,0,10057,10058,10059,10060,10061,10062,
10091,10092,10093,10094,0,0,0,0,0,0,10089,10090,10091,10092,10093,10094,
10123,10124,10125,10126,0,0,0,0,0,0,10121,10122,10123,10124,10125,10126
</chunk>
   <chunk x="48" y="480" width="16" height="16">
0,0,0,0,0,0,0,0,0,0,0,0,0,0,0,0,
0,0,0,0,0,0,0,0,0,0,0,0,0,0,0,0,
0,0,0,0,0,0,0,0,0,0,0,0,0,0,0,0,
0,0,0,0,0,0,0,0,0,0,0,0,0,0,0,0,
0,0,0,0,0,0,0,0,0,0,0,0,0,0,0,0,
0,0,0,0,0,0,0,0,0,0,0,0,0,0,0,0,
0,0,0,0,0,0,0,0,0,0,0,0,0,0,0,0,
0,0,0,0,0,0,0,0,0,0,0,0,0,0,0,0,
0,0,0,0,0,0,0,0,0,0,0,0,0,0,0,0,
0,0,0,0,0,0,0,0,0,0,0,0,0,0,0,0,
0,0,0,0,0,0,0,0,0,0,0,0,0,0,0,0,
0,0,0,0,0,0,9993,9994,9995,9996,9997,9998,0,0,0,0,
0,0,0,0,0,0,10025,10026,10027,10028,10029,10030,0,0,0,0,
0,0,0,0,0,0,10057,10058,10059,10060,10061,10062,0,0,0,0,
0,0,0,0,0,0,10089,10090,10091,10092,10093,10094,0,0,0,0,
0,0,0,0,0,0,10121,10122,10123,10124,10125,10126,0,0,0,0
</chunk>
   <chunk x="64" y="480" width="16" height="16">
0,0,0,0,0,0,0,0,9845,9846,9847,9848,9849,9850,0,0,
0,0,0,0,0,0,0,0,9877,9878,9879,9880,9881,9882,0,0,
0,0,0,0,0,0,0,0,9909,9910,9911,9912,9913,9914,0,0,
0,0,0,0,0,0,0,0,9941,9942,9943,9944,9945,9946,0,0,
0,0,0,0,0,0,0,0,9973,9974,9975,9976,9977,9978,0,0,
0,0,9813,9814,9815,9816,9817,9818,10005,10006,10007,10008,10009,10010,0,0,
0,0,9845,9846,9847,9848,9849,9850,10037,10038,10039,10040,10041,10042,0,0,
0,0,9877,9878,9879,9880,9881,9882,10069,10070,10071,10072,10073,10074,0,0,
0,0,9909,9910,9911,9912,9913,9914,10101,10102,10103,10104,10105,10106,0,0,
0,0,9941,9942,9943,9944,9945,9946,10133,10134,10135,10136,10137,10138,0,0,
0,0,9973,9974,9975,9976,9977,9978,10165,10166,10167,10168,10169,10170,0,0,
0,0,10005,10006,10007,10008,10009,10010,9813,9814,9815,9816,9817,9818,0,0,
0,0,10037,10038,10039,10040,10041,10042,9845,9846,9847,9848,9849,9850,0,0,
0,0,10069,10070,10071,10072,10073,10074,9877,9878,9879,9880,9881,9882,0,0,
0,0,10101,10102,10103,10104,10105,10106,9909,9910,9911,9912,9913,9914,0,0,
0,0,10133,10134,10135,10136,10137,10138,9941,9942,9943,9944,9945,9946,0,0
</chunk>
   <chunk x="80" y="480" width="16" height="16">
0,0,0,0,9845,9846,9847,9848,9849,9850,10025,10026,10027,10028,10029,10030,
0,0,0,0,9877,9878,9879,9880,9881,9882,10057,10058,10059,10060,10061,10062,
0,0,0,0,9909,9910,9911,9912,9913,9914,10089,10090,10091,10092,10093,10094,
0,0,0,0,9941,9942,9943,9944,9945,9946,10121,10122,10123,10124,10125,10126,
0,0,0,0,9973,9974,9975,9976,9977,9978,10153,10154,10155,10156,10157,10158,
0,0,0,0,10005,10006,10007,10008,10009,10010,9813,9814,9815,9816,9817,9818,
0,0,0,0,10037,10038,10039,10040,10041,10042,9845,9846,9847,9848,9849,9850,
0,0,0,0,10069,10070,10071,10072,10073,10074,9877,9878,9879,9880,9881,9882,
0,0,0,0,10101,10102,10103,10104,10105,10106,9909,9910,9911,9912,9913,9914,
0,0,0,0,10133,10134,10135,10136,10137,10138,9941,9942,9943,9944,9945,9946,
0,0,0,0,10165,10166,10167,10168,10169,10170,9973,9974,9975,9976,9977,9978,
0,0,0,0,0,0,0,0,0,0,2634,2635,2634,2635,2634,2635,
0,0,0,0,0,0,0,0,0,0,2666,2667,2666,2667,2666,2667,
0,0,0,0,0,0,0,0,0,0,2698,2699,2698,2699,2698,2699,
0,0,0,0,0,0,0,0,0,0,2730,2731,2730,2731,2730,2731,
0,0,0,0,0,0,0,0,0,0,2698,2699,2698,2699,2698,2699
</chunk>
   <chunk x="96" y="480" width="16" height="16">
9833,9834,9835,9836,9837,9838,10037,10038,10039,10040,10041,10042,9845,9846,9847,9848,
9865,9866,9867,9868,9869,9870,10069,10070,10071,10072,10073,10074,9877,9878,9879,9880,
9897,9898,9899,9900,9901,9902,10101,10102,10103,10104,10105,10106,9909,9910,9911,9912,
9929,9930,9931,9932,9933,9934,10133,10134,10135,10136,10137,10138,9941,9942,9943,9944,
9961,9962,9963,9964,9965,9966,10165,10166,10167,10168,10169,10170,9973,9974,9975,9976,
9993,9994,9995,9996,9997,9998,9813,9814,9815,9816,9817,9818,10005,10006,10007,10008,
10025,10026,10027,10028,10029,10030,9845,9846,9847,9848,9849,9850,10037,10038,10039,10040,
10057,10058,10059,10060,10061,10062,9877,9878,9879,9880,9881,9882,10069,10070,10071,10072,
10089,10090,10091,10092,10093,10094,9909,9910,9911,9912,9913,9914,10101,10102,10103,10104,
10121,10122,10123,10124,10125,10126,9941,9942,9943,9944,9945,9946,10133,10134,10135,10136,
10153,10154,10155,10156,10157,10158,9973,9974,9975,9976,9977,9978,10165,10166,10167,10168,
9813,9814,9815,9816,9817,9818,10005,10006,10007,10008,10009,10010,9813,9814,9815,9816,
9845,9846,9847,9848,9849,9850,10037,10038,10039,10040,10041,10042,9845,9846,9847,9848,
9877,9878,9879,9880,9881,9882,10069,10070,10071,10072,10073,10074,9877,9878,9879,9880,
9909,9910,9911,9912,9913,9914,10101,10102,10103,10104,10105,10106,9909,9910,9911,9912,
9941,9942,9943,9944,9945,9946,10133,10134,10135,10136,10137,10138,9941,9942,9943,9944
</chunk>
   <chunk x="112" y="480" width="16" height="16">
9849,9850,0,0,0,0,0,0,0,0,0,0,0,0,0,0,
9881,9882,0,0,0,0,0,0,0,0,0,0,0,0,0,0,
9913,9914,0,0,0,0,0,0,0,0,0,0,0,0,0,0,
9945,9946,0,0,0,0,0,0,0,0,0,0,0,0,0,0,
9977,9978,0,0,0,0,0,0,0,0,0,0,0,0,0,0,
10009,10010,9813,9814,9815,9816,9817,9818,0,0,0,0,0,0,0,0,
10041,10042,9845,9846,9847,9848,9849,9850,0,0,0,0,0,0,0,0,
10073,10074,9877,9878,9879,9880,9881,9882,0,0,0,0,0,0,0,0,
10105,10106,9909,9910,9911,9912,9913,9914,0,0,0,0,0,0,0,0,
10137,10138,9941,9942,9943,9944,9945,9946,0,0,0,0,0,0,0,0,
10169,10170,9973,9974,9975,9976,9977,9978,0,0,0,0,0,0,0,0,
9817,9818,10005,10006,10007,10008,10009,10010,9801,9802,9803,9804,9805,9806,9993,9994,
9849,9850,10037,10038,10039,10040,10041,10042,9833,9834,9835,9836,9837,9838,10025,10026,
9881,9882,10069,10070,10071,10072,10073,10074,9865,9866,9867,9868,9869,9870,10057,10058,
9913,9914,10101,10102,10103,10104,10105,10106,9897,9898,9899,9900,9901,9902,10089,10090,
9945,9946,10133,10134,10135,10136,10137,10138,9929,9930,9931,9932,9933,9934,10121,10122
</chunk>
   <chunk x="128" y="480" width="16" height="16">
0,0,0,0,0,0,0,0,0,0,0,0,0,0,0,0,
0,0,0,0,0,0,0,0,0,0,0,0,0,0,0,0,
0,0,0,0,0,0,0,0,0,0,0,0,0,0,0,0,
0,0,0,0,0,0,0,0,0,0,0,0,0,0,0,0,
0,0,0,0,0,0,0,0,0,0,0,0,0,0,0,0,
0,0,0,0,0,0,0,0,0,0,0,0,0,0,0,0,
0,0,0,0,0,0,0,0,0,0,0,0,0,0,0,0,
0,0,0,0,0,0,0,0,0,0,0,0,0,0,0,0,
0,0,0,0,0,0,0,0,0,0,0,0,0,0,0,0,
0,0,0,0,0,0,0,0,0,0,0,0,0,0,0,0,
0,0,0,0,0,0,0,0,0,0,0,0,0,0,0,0,
9995,9996,9997,9998,9801,9802,9803,9804,9805,9806,9993,9994,9995,9996,9997,9998,
10027,10028,10029,10030,9833,9834,9835,9836,9837,9838,10025,10026,10027,10028,10029,10030,
10059,10060,10061,10062,9865,9866,9867,9868,9869,9870,10057,10058,10059,10060,10061,10062,
10091,10092,10093,10094,9897,9898,9899,9900,9901,9902,10089,10090,10091,10092,10093,10094,
10123,10124,10125,10126,9929,9930,9931,9932,9933,9934,10121,10122,10123,10124,10125,10126
</chunk>
   <chunk x="144" y="480" width="16" height="16">
0,0,0,0,0,0,0,0,0,0,0,0,0,0,0,0,
0,0,0,0,0,0,0,0,0,0,0,0,0,0,0,0,
0,0,0,0,0,0,0,0,0,0,0,0,0,0,0,0,
0,0,0,0,0,0,0,0,0,0,0,0,0,0,0,0,
0,0,0,0,0,0,0,0,0,0,0,0,0,0,0,0,
0,0,0,0,0,0,0,0,0,0,0,0,0,0,0,0,
0,0,0,0,0,0,0,0,0,0,0,0,0,0,0,0,
0,0,0,0,0,0,0,0,0,0,0,0,0,0,0,0,
0,0,0,0,0,0,0,0,0,0,0,0,0,0,0,0,
0,0,0,0,0,0,0,0,0,0,0,0,0,0,0,0,
0,0,0,0,0,0,0,0,0,0,0,0,0,0,0,0,
9801,9802,9803,9804,9805,9806,0,0,0,0,0,0,0,0,0,0,
9833,9834,9835,9836,9837,9838,0,0,0,0,0,0,0,0,0,0,
9865,9866,9867,9868,9869,9870,0,0,0,0,0,0,0,0,0,0,
9897,9898,9899,9900,9901,9902,0,0,0,0,0,0,0,0,0,0,
9929,9930,9931,9932,9933,9934,0,0,0,0,0,0,0,0,0,0
</chunk>
   <chunk x="-368" y="496" width="16" height="16">
0,0,0,0,0,0,0,0,0,0,0,0,0,0,2660,2661,
0,0,0,0,0,0,0,0,0,0,0,0,0,0,2628,2629,
0,0,0,0,0,0,0,0,0,0,0,0,0,0,2660,2661,
0,0,0,0,0,0,0,0,0,0,0,0,0,0,1073744420,1073744421,
0,0,0,0,0,0,0,0,0,0,0,0,0,0,1073744388,1073744389,
0,0,0,0,0,0,0,0,0,0,0,0,0,0,0,0,
0,0,0,0,0,0,0,0,0,0,0,0,0,0,0,0,
0,0,0,0,0,0,0,0,0,0,0,0,0,0,0,0,
0,0,0,0,0,0,0,0,0,0,0,0,0,0,0,0,
0,0,0,0,0,0,0,0,0,0,0,0,0,0,0,0,
0,0,0,0,0,0,0,0,0,0,0,0,0,0,0,0,
0,0,0,0,0,0,0,0,0,0,0,0,0,0,0,0,
0,0,0,0,0,0,0,0,0,0,0,0,0,0,0,0,
0,0,0,0,0,0,0,0,0,0,0,0,0,0,0,0,
0,0,0,0,0,0,0,0,0,0,0,0,0,0,0,0,
0,0,0,0,0,0,0,0,0,0,0,0,0,0,0,0
</chunk>
   <chunk x="-352" y="496" width="16" height="16">
2094,2095,2147486309,2147486308,2666,2667,2666,2667,2666,2667,2666,2667,2666,2667,2666,2667,
2062,2063,3221228005,3221228004,2566,2567,2566,2567,2147486213,2147486212,2634,2635,2634,2635,2634,2635,
2094,2095,3221227973,3221227972,2598,2599,2598,2599,2147486245,2147486244,2666,2667,2666,2667,2666,2667,
1073744422,1073744423,1073744422,1073744423,1073744422,1073744423,1073744422,1073744423,3221228069,3221228068,2634,2635,2634,2635,2634,2635,
1073744390,1073744391,1073744390,1073744391,1073744390,1073744391,1073744390,1073744391,3221228037,3221228036,2666,2667,2666,2667,2666,2667,
0,0,0,0,0,0,0,0,0,0,2634,2635,2634,2635,2634,2635,
0,0,0,0,0,0,0,0,0,0,2666,2667,2666,2667,2666,2667,
0,0,0,0,0,0,0,0,0,0,2634,2635,2634,2635,2634,2635,
0,0,0,0,0,0,0,0,0,0,2666,2667,2666,2667,2666,2667,
0,0,0,0,0,0,0,0,0,0,2698,2699,2698,2699,2698,2699,
0,0,0,0,0,0,0,0,0,0,2730,2731,2730,2731,2730,2731,
0,0,0,0,0,0,0,0,0,0,2698,2699,2698,2699,2698,2699,
0,0,0,0,0,0,0,0,0,0,2730,2731,2730,2731,2730,2731,
0,0,0,0,0,0,0,0,0,0,0,0,0,0,0,0,
0,0,0,0,0,0,0,0,0,0,0,0,0,0,0,0,
0,0,0,0,0,0,0,0,0,0,0,0,0,0,0,0
</chunk>
   <chunk x="-336" y="496" width="16" height="16">
2666,2667,2666,2667,2730,2731,2660,2661,2094,2095,2147486309,2147486308,2666,2667,2666,2667,
2564,2565,2566,2567,2566,2567,1073744356,1073744357,2062,2063,3221228005,3221228004,2566,2567,2566,2567,
2596,2597,2598,2599,2598,2599,1073744324,1073744325,2094,2095,3221227973,3221227972,2598,2599,2598,2599,
1073744420,1073744421,1073744422,1073744423,1073744422,1073744423,1073744422,1073744423,1073744422,1073744423,1073744422,1073744423,1073744422,1073744423,1073744422,1073744423,
1073744388,1073744389,1073744390,1073744391,1073744390,1073744391,1073744390,1073744391,1073744390,1073744391,1073744390,1073744391,1073744390,1073744391,1073744390,1073744391,
0,0,0,0,0,0,0,0,0,0,0,0,0,0,0,0,
0,0,0,0,0,0,0,0,0,0,0,0,0,0,0,0,
0,0,0,0,0,0,0,0,0,0,0,0,0,0,0,0,
0,0,0,0,0,0,0,0,0,0,0,0,0,0,0,0,
0,0,0,0,0,0,0,0,0,0,0,0,0,0,0,0,
0,0,0,0,0,0,0,0,0,0,0,0,0,0,0,0,
0,0,0,0,0,0,0,0,0,0,0,0,0,0,0,0,
0,0,0,0,0,0,0,0,0,0,0,0,0,0,0,0,
0,0,0,0,0,0,0,0,0,0,0,0,0,0,0,0,
0,0,0,0,0,0,0,0,0,0,0,0,0,0,0,0,
0,0,0,0,0,0,0,0,0,0,0,0,0,0,0,0
</chunk>
   <chunk x="-320" y="496" width="16" height="16">
2666,2667,2666,2667,2666,2667,2666,2667,2666,2667,2666,2667,2666,2667,2666,2667,
2147486213,2147486212,2634,2635,2634,2635,2634,2635,2564,2565,2566,2567,2566,2567,2566,2567,
2147486245,2147486244,2666,2667,2666,2667,2666,2667,2596,2597,2598,2599,2598,2599,2598,2599,
3221228069,3221228068,2634,2635,2634,2635,2634,2635,1073744420,1073744421,1073744422,1073744423,1073744422,1073744423,1073744422,1073744423,
3221228037,3221228036,2666,2667,2666,2667,2666,2667,1073744388,1073744389,1073744390,1073744391,1073744390,1073744391,1073744390,1073744391,
0,0,2634,2635,2634,2635,2634,2635,0,0,0,0,0,0,0,0,
0,0,2666,2667,2666,2667,2666,2667,0,0,0,0,0,0,0,0,
0,0,2634,2635,2634,2635,2634,2635,0,0,0,0,0,0,0,0,
0,0,2666,2667,2666,2667,2666,2667,0,0,0,0,0,0,0,0,
0,0,2698,2699,2698,2699,2698,2699,0,0,0,0,0,0,0,0,
0,0,2730,2731,2730,2731,2730,2731,0,0,0,0,0,0,0,0,
0,0,2698,2699,2698,2699,2698,2699,0,0,0,0,0,0,0,0,
0,0,2730,2731,2730,2731,2730,2731,0,0,0,0,0,0,0,0,
0,0,0,0,0,0,0,0,0,0,0,0,0,0,0,0,
0,0,0,0,0,0,0,0,0,0,0,0,0,0,0,0,
0,0,0,0,0,0,0,0,0,0,0,0,0,0,0,0
</chunk>
   <chunk x="-304" y="496" width="16" height="16">
2666,2667,2730,2731,2660,2661,2094,2095,2147486309,2147486308,0,0,0,0,0,0,
2566,2567,2566,2567,1073744356,1073744357,2062,2063,2147486277,2147486276,0,0,0,0,0,0,
2598,2599,2598,2599,1073744324,1073744325,2094,2095,2147486309,2147486308,0,0,0,0,0,0,
1073744422,1073744423,1073744422,1073744423,1073744422,1073744423,1073744422,1073744423,3221228069,3221228068,0,0,0,0,0,0,
1073744390,1073744391,1073744390,1073744391,1073744390,1073744391,1073744390,1073744391,3221228037,3221228036,0,0,0,0,0,0,
0,0,0,0,0,0,0,0,0,0,0,0,0,0,0,0,
0,0,0,0,0,0,0,0,0,0,0,0,0,0,0,0,
0,0,0,0,0,0,0,0,0,0,0,0,0,0,0,0,
0,0,0,0,0,0,0,0,0,0,0,0,0,0,0,0,
0,0,0,0,0,0,0,0,0,0,0,0,0,0,0,0,
0,0,0,0,0,0,0,0,0,0,0,0,0,0,0,0,
0,0,0,0,0,0,0,0,0,0,0,0,0,0,0,0,
0,0,0,0,0,0,0,0,0,0,0,0,0,0,0,0,
0,0,0,0,0,0,0,0,0,0,0,0,0,0,0,0,
0,0,0,0,0,0,0,0,0,0,0,0,0,0,0,0,
0,0,0,0,0,0,0,0,0,0,0,0,0,0,0,0
</chunk>
   <chunk x="-288" y="496" width="16" height="16">
0,0,0,0,0,0,2660,2661,2094,2095,2147486309,2147486308,2666,2667,2666,2667,
0,0,0,0,0,0,2628,2629,2062,2063,3221228005,3221228004,2566,2567,2566,2567,
0,0,0,0,0,0,2660,2661,2094,2095,3221227973,3221227972,2598,2599,2598,2599,
0,0,0,0,0,0,1073744420,1073744421,1073744422,1073744423,1073744422,1073744423,1073744422,1073744423,1073744422,1073744423,
0,0,0,0,0,0,1073744388,1073744389,1073744390,1073744391,1073744390,1073744391,1073744390,1073744391,1073744390,1073744391,
0,0,0,0,0,0,0,0,0,0,0,0,0,0,0,0,
0,0,0,0,0,0,0,0,0,0,0,0,0,0,0,0,
0,0,0,0,0,0,0,0,0,0,0,0,0,0,0,0,
0,0,0,0,0,0,0,0,0,0,0,0,0,0,0,0,
0,0,0,0,0,0,0,0,0,0,0,0,0,0,0,0,
0,0,0,0,0,0,0,0,0,0,0,0,0,0,0,0,
0,0,0,0,0,0,0,0,0,0,0,0,0,0,0,0,
0,0,0,0,0,0,0,0,0,0,0,0,0,0,0,0,
0,0,0,0,0,0,0,0,0,0,0,0,0,0,0,0,
0,0,0,0,0,0,0,0,0,0,0,0,0,0,0,0,
0,0,0,0,0,0,0,0,0,0,0,0,0,0,0,0
</chunk>
   <chunk x="-272" y="496" width="16" height="16">
2730,2731,0,0,0,0,0,0,2666,2667,2666,2667,2730,2731,0,0,
2566,2567,2566,2567,2566,2567,2147486213,2147486212,2634,2635,2634,2635,2698,2699,2564,2565,
2598,2599,2598,2599,2598,2599,2147486245,2147486244,2666,2667,2666,2667,2730,2731,2596,2597,
1073744422,1073744423,1073744422,1073744423,1073744422,1073744423,3221228069,3221228068,2634,2635,2634,2635,2698,2699,1073744420,1073744421,
1073744390,1073744391,1073744390,1073744391,1073744390,1073744391,3221228037,3221228036,2666,2667,2666,2667,2730,2731,1073744388,1073744389,
0,0,0,0,0,0,0,0,2634,2635,2634,2635,2698,2699,0,0,
0,0,0,0,0,0,0,0,2666,2667,2666,2667,2730,2731,0,0,
0,0,0,0,0,0,0,0,2634,2635,2634,2635,2698,2699,0,0,
0,0,0,0,0,0,0,0,2666,2667,2666,2667,2730,2731,0,0,
0,0,0,0,0,0,0,0,2698,2699,2698,2699,2698,2699,0,0,
0,0,0,0,0,0,0,0,2730,2731,2730,2731,2730,2731,0,0,
0,0,0,0,0,0,0,0,2698,2699,2698,2699,2698,2699,0,0,
0,0,0,0,0,0,0,0,2730,2731,2730,2731,2730,2731,0,0,
0,0,0,0,0,0,0,0,0,0,0,0,0,0,0,0,
0,0,0,0,0,0,0,0,0,0,0,0,0,0,0,0,
0,0,0,0,0,0,0,0,0,0,0,0,0,0,0,0
</chunk>
   <chunk x="-256" y="496" width="16" height="16">
0,0,0,0,2666,2667,2666,2667,2730,2731,2660,2661,2094,2095,2147486309,2147486308,
2566,2567,2566,2567,2566,2567,2566,2567,2566,2567,1073744356,1073744357,2062,2063,2147486277,2147486276,
2598,2599,2598,2599,2598,2599,2598,2599,2598,2599,1073744324,1073744325,2094,2095,2147486309,2147486308,
1073744422,1073744423,1073744422,1073744423,1073744422,1073744423,1073744422,1073744423,1073744422,1073744423,1073744422,1073744423,1073744422,1073744423,3221228069,3221228068,
1073744390,1073744391,1073744390,1073744391,1073744390,1073744391,1073744390,1073744391,1073744390,1073744391,1073744390,1073744391,1073744390,1073744391,3221228037,3221228036,
0,0,0,0,0,0,0,0,0,0,0,0,0,0,0,0,
0,0,0,0,0,0,0,0,0,0,0,0,0,0,0,0,
0,0,0,0,0,0,0,0,0,0,0,0,0,0,0,0,
0,0,0,0,0,0,0,0,0,0,0,0,0,0,0,0,
0,0,0,0,0,0,0,0,0,0,0,0,0,0,0,0,
0,0,0,0,0,0,0,0,0,0,0,0,0,0,0,0,
0,0,0,0,0,0,0,0,0,0,0,0,0,0,0,0,
0,0,0,0,0,0,0,0,0,0,0,0,0,0,0,0,
0,0,0,0,0,0,0,0,0,0,0,0,0,0,0,0,
0,0,0,0,0,0,0,0,0,0,0,0,0,0,0,0,
0,0,0,0,0,0,0,0,0,0,0,0,0,0,0,0
</chunk>
   <chunk x="-240" y="496" width="16" height="16">
0,0,0,0,0,0,0,0,0,0,0,0,0,0,0,0,
0,0,0,0,0,0,0,0,0,0,0,0,0,0,0,0,
0,0,0,0,0,0,0,0,0,0,0,0,0,0,0,0,
0,0,0,0,0,0,0,0,0,0,0,0,0,0,0,0,
0,0,0,0,0,0,0,0,0,0,0,0,0,0,0,0,
0,0,0,0,0,0,0,0,0,0,0,0,0,0,0,0,
0,0,0,0,0,0,0,0,0,0,0,0,0,0,0,0,
0,0,0,0,0,0,0,0,0,0,0,0,0,0,0,0,
0,0,0,0,0,0,0,0,0,0,0,0,0,0,0,0,
0,0,0,0,0,0,0,0,0,0,0,0,0,0,0,0,
0,0,0,0,0,0,0,0,0,0,0,0,0,0,0,0,
0,0,0,0,0,0,0,0,0,0,0,0,0,0,0,0,
0,0,0,0,0,0,0,0,0,0,0,0,0,0,0,0,
0,0,0,0,0,0,0,0,0,0,0,0,2564,2565,2566,2567,
0,0,0,0,0,0,0,0,0,0,0,0,2596,2597,2598,2599,
0,0,0,0,0,0,0,0,0,0,0,0,2628,2629,2062,2063
</chunk>
   <chunk x="-224" y="496" width="16" height="16">
0,0,0,0,0,0,0,0,0,0,0,0,0,0,0,0,
0,0,0,0,0,0,0,0,0,0,0,0,0,0,0,0,
0,0,0,0,0,0,0,0,0,0,0,0,0,0,0,0,
0,0,0,0,0,0,0,0,0,0,0,0,0,0,0,0,
0,0,0,0,0,0,0,0,0,0,0,0,0,0,0,0,
0,0,0,0,0,0,0,0,0,0,0,0,0,0,0,0,
0,0,0,0,0,0,0,0,0,0,0,0,0,0,0,0,
0,0,0,0,0,0,0,0,0,0,0,0,0,0,0,0,
0,0,0,0,0,0,0,0,0,0,0,0,0,0,0,0,
0,0,0,0,0,0,0,0,0,0,0,0,0,0,0,0,
0,0,0,0,0,0,0,0,0,0,0,0,0,0,0,0,
0,0,0,0,0,0,0,0,0,0,0,0,0,0,0,0,
0,0,0,0,0,0,0,0,0,0,0,0,0,0,0,0,
2566,2567,2566,2567,2566,2567,2566,2567,2566,2567,2566,2567,2147486213,2147486212,0,0,
2598,2599,2598,2599,2598,2599,2598,2599,2598,2599,2598,2599,2147486245,2147486244,0,0,
2147486149,2147486148,1073744422,1073744423,1073744422,1073744423,1073744422,1073744423,2500,2501,2062,2063,2147486277,2147486276,0,0
</chunk>
   <chunk x="-80" y="496" width="16" height="16">
0,0,10153,10154,10155,10156,10157,10158,0,0,0,0,0,0,0,0,
0,0,9813,9814,9815,9816,9817,9818,9993,9994,9995,9996,9997,9998,0,0,
0,0,9845,9846,9847,9848,9849,9850,10025,10026,10027,10028,10029,10030,0,0,
0,0,9877,9878,9879,9880,9881,9882,10057,10058,10059,10060,10061,10062,0,0,
0,0,9909,9910,9911,9912,9913,9914,10089,10090,10091,10092,10093,10094,0,0,
0,0,9941,9942,9943,9944,9945,9946,10121,10122,10123,10124,10125,10126,0,0,
0,0,9973,9974,9975,9976,9977,9978,10153,10154,10155,10156,10157,10158,0,0,
0,0,10005,10006,10007,10008,10009,10010,9801,9802,9803,9804,9805,9806,0,0,
0,0,10037,10038,10039,10040,10041,10042,9833,9834,9835,9836,9837,9838,0,0,
0,0,10069,10070,10071,10072,10073,10074,9865,9866,9867,9868,9869,9870,0,0,
0,0,10101,10102,10103,10104,10105,10106,9897,9898,9899,9900,9901,9902,0,0,
0,0,10133,10134,10135,10136,10137,10138,9929,9930,9931,9932,9933,9934,0,0,
0,0,10165,10166,10167,10168,10169,10170,9961,9962,9963,9964,9965,9966,0,0,
0,0,9813,9814,9815,9816,9817,9818,9993,9994,9995,9996,9997,9998,9801,9802,
0,0,9845,9846,9847,9848,9849,9850,10025,10026,10027,10028,10029,10030,9833,9834,
0,0,9877,9878,9879,9880,9881,9882,10057,10058,10059,10060,10061,10062,9865,9866
</chunk>
   <chunk x="-64" y="496" width="16" height="16">
0,0,0,0,2280,2281,0,0,0,0,10165,10166,10167,10168,10169,10170,
0,0,10185,10186,10187,10188,0,0,0,0,0,0,0,0,0,0,
0,0,10217,10218,10219,10220,0,0,0,0,0,0,0,0,0,0,
0,0,0,0,9737,9738,9739,9740,10187,10188,0,0,0,0,0,0,
0,0,0,0,9769,9770,9771,9772,10219,10220,0,0,0,0,0,0,
0,0,0,0,9741,9742,10185,10186,0,0,2248,2249,0,0,0,0,
0,0,0,0,9773,9774,10217,10218,0,0,2280,2281,0,0,0,0,
0,0,0,0,0,0,0,0,0,0,0,0,0,0,0,0,
0,0,0,0,0,0,0,0,0,0,0,0,0,0,0,0,
0,0,0,0,0,0,0,0,0,0,0,0,0,0,0,0,
0,0,0,0,0,0,0,0,0,0,0,0,0,0,0,0,
0,0,0,0,0,0,0,0,0,0,0,0,0,0,0,0,
0,0,0,0,0,0,0,0,0,0,0,0,0,0,0,0,
9803,9804,9805,9806,0,0,0,0,0,0,0,0,0,0,0,0,
9835,9836,9837,9838,0,0,0,0,0,0,0,0,0,0,0,0,
9867,9868,9869,9870,0,0,0,0,0,0,0,0,0,0,0,0
</chunk>
   <chunk x="-48" y="496" width="16" height="16">
9973,9974,9975,9976,9977,9978,10165,10166,10167,10168,10169,10170,9961,9962,9963,9964,
0,0,0,0,0,0,0,0,0,0,0,0,0,0,0,0,
0,0,0,0,0,0,0,0,0,0,0,0,0,0,0,0,
0,0,0,0,0,0,0,0,0,0,0,0,0,0,0,0,
0,0,0,0,0,0,0,0,0,0,0,0,0,0,0,0,
0,0,0,0,0,0,0,0,0,0,0,0,0,0,0,0,
0,0,0,0,0,0,0,0,0,0,0,0,0,0,0,0,
0,0,0,0,0,0,0,0,0,0,0,0,0,0,0,0,
0,0,0,0,0,0,0,0,0,0,0,0,0,0,0,0,
0,0,0,0,0,0,0,0,0,0,0,0,0,0,0,0,
0,0,0,0,0,0,0,0,0,0,0,0,0,0,0,0,
0,0,0,0,0,0,0,0,0,0,0,0,0,0,0,0,
0,0,0,0,0,0,0,0,0,0,0,0,0,0,0,0,
0,0,0,0,0,0,0,0,0,0,0,0,0,0,0,0,
0,0,0,0,0,0,0,0,0,0,0,0,0,0,0,0,
0,0,0,0,0,0,0,0,0,0,0,0,0,0,0,0
</chunk>
   <chunk x="-32" y="496" width="16" height="16">
9965,9966,10153,10154,10155,10156,10157,10158,0,0,0,0,0,0,10153,10154,
0,0,0,0,0,0,0,0,2634,2635,2634,2635,2634,2635,0,0,
0,0,0,0,0,0,0,0,2666,2667,2666,2667,2666,2667,0,0,
0,0,2692,2693,2694,2695,2696,2697,2698,2699,2698,2699,2698,2699,2692,2693,
0,0,2724,2725,2726,2727,2728,2729,2730,2731,2730,2731,2730,2731,2724,2725,
0,0,2756,2757,2758,2759,2760,2761,2698,2699,2698,2699,2698,2699,2756,2757,
0,0,2788,2789,2790,2791,2792,2793,2730,2731,2730,2731,2730,2731,2788,2789,
0,0,0,0,0,0,0,0,0,0,0,0,0,0,0,0,
0,0,0,0,0,0,0,0,0,0,0,0,0,0,0,0,
0,0,0,0,0,0,0,0,0,0,0,0,0,0,0,0,
0,0,0,0,0,0,0,0,0,0,0,0,0,0,0,0,
0,0,0,0,0,0,0,0,0,0,0,0,0,0,0,0,
0,0,0,0,0,0,0,0,0,0,0,0,0,0,0,0,
0,0,0,0,0,0,0,0,0,0,0,0,0,0,0,0,
0,0,0,0,0,0,0,0,0,0,0,0,0,0,0,0,
0,0,0,0,0,0,0,0,0,0,0,0,0,0,0,0
</chunk>
   <chunk x="-16" y="496" width="16" height="16">
10155,10156,10157,10158,9961,9962,9963,9964,9965,9966,10153,10154,10155,10156,10157,10158,
0,0,0,0,9993,9994,9995,9996,9997,9998,9801,9802,9803,9804,9805,9806,
0,0,0,0,10025,10026,10027,10028,10029,10030,9833,9834,9835,9836,9837,9838,
2694,2695,2696,2697,10057,10058,10059,10060,10061,10062,9865,9866,9867,9868,9869,9870,
2726,2727,2728,2729,10089,10090,10091,10092,10093,10094,9897,9898,9899,9900,9901,9902,
2758,2759,2760,2761,10121,10122,10123,10124,10125,10126,9929,9930,9931,9932,9933,9934,
2790,2791,2792,2793,10153,10154,10155,10156,10157,10158,9961,9962,9963,9964,9965,9966,
0,0,0,0,0,0,0,0,0,0,9993,9994,9995,9996,9997,9998,
0,0,0,0,0,0,0,0,0,0,10025,10026,10027,10028,10029,10030,
0,0,0,0,0,0,0,0,0,0,10057,10058,10059,10060,10061,10062,
0,0,0,0,0,0,0,0,0,0,10089,10090,10091,10092,10093,10094,
0,0,0,0,0,0,0,0,0,0,10121,10122,10123,10124,10125,10126,
0,0,0,0,0,0,0,0,0,0,10153,10154,10155,10156,10157,10158,
0,0,0,0,0,0,0,0,0,0,9801,9802,9803,9804,9805,9806,
0,0,0,0,0,0,0,0,0,0,9833,9834,9835,9836,9837,9838,
0,0,0,0,0,0,0,0,0,0,9865,9866,9867,9868,9869,9870
</chunk>
   <chunk x="0" y="496" width="16" height="16">
9961,9962,9963,9964,9965,9966,10153,10154,10155,10156,10157,10158,9961,9962,9963,9964,
9993,9994,9995,9996,9997,9998,9801,9802,9803,9804,9805,9806,9993,9994,9995,9996,
10025,10026,10027,10028,10029,10030,9833,9834,9835,9836,9837,9838,10025,10026,10027,10028,
10057,10058,10059,10060,10061,10062,9865,9866,9867,9868,9869,9870,10057,10058,10059,10060,
10089,10090,10091,10092,10093,10094,9897,9898,9899,9900,9901,9902,10089,10090,10091,10092,
10121,10122,10123,10124,10125,10126,9929,9930,9931,9932,9933,9934,10121,10122,10123,10124,
10153,10154,10155,10156,10157,10158,9961,9962,9963,9964,9965,9966,10153,10154,10155,10156,
9801,9802,9803,9804,9805,9806,9993,9994,9995,9996,9997,9998,9801,9802,9803,9804,
9833,9834,9835,9836,9837,9838,10025,10026,10027,10028,10029,10030,9833,9834,9835,9836,
9865,9866,9867,9868,9869,9870,10057,10058,10059,10060,10061,10062,9865,9866,9867,9868,
9897,9898,9899,9900,9901,9902,10089,10090,10091,10092,10093,10094,9897,9898,9899,9900,
9929,9930,9931,9932,9933,9934,10121,10122,10123,10124,10125,10126,9929,9930,9931,9932,
9961,9962,9963,9964,9965,9966,10153,10154,10155,10156,10157,10158,9961,9962,9963,9964,
9993,9994,9995,9996,9997,9998,9801,9802,9803,9804,9805,9806,9993,9994,9995,9996,
10025,10026,10027,10028,10029,10030,9833,9834,9835,9836,9837,9838,10025,10026,10027,10028,
10057,10058,10059,10060,10061,10062,9865,9866,9867,9868,9869,9870,10057,10058,10059,10060
</chunk>
   <chunk x="16" y="496" width="16" height="16">
9965,9966,10153,10154,10155,10156,10157,10158,9961,9962,9963,9964,9965,9966,10153,10154,
9997,9998,9801,9802,9803,9804,9805,9806,0,0,0,0,0,0,0,0,
10029,10030,9833,9834,9835,9836,9837,9838,0,0,0,0,0,0,0,0,
10061,10062,9865,9866,9867,9868,9869,9870,0,0,0,0,0,0,0,0,
10093,10094,9897,9898,9899,9900,9901,9902,0,0,0,0,0,0,0,0,
10125,10126,9929,9930,9931,9932,9933,9934,0,0,0,0,0,0,0,0,
10157,10158,9961,9962,9963,9964,9965,9966,0,0,0,0,0,0,0,0,
9805,9806,0,0,0,0,0,0,0,0,0,0,0,0,0,0,
9837,9838,0,0,0,0,0,0,0,0,0,0,0,0,0,0,
9869,9870,0,0,0,0,0,0,0,0,0,0,0,0,0,0,
9901,9902,0,0,0,0,0,0,0,0,0,0,0,0,0,0,
9933,9934,0,0,0,0,0,0,0,0,0,0,0,0,0,0,
9965,9966,0,0,0,0,0,0,0,0,0,0,0,0,0,0,
9997,9998,9813,9814,9815,9816,9817,9818,0,0,0,0,0,0,0,0,
10029,10030,9845,9846,9847,9848,9849,9850,0,0,0,0,0,0,0,0,
10061,10062,9877,9878,9879,9880,9881,9882,0,0,0,0,0,0,0,0
</chunk>
   <chunk x="32" y="496" width="16" height="16">
10155,10156,10157,10158,0,0,0,0,0,0,10153,10154,10155,10156,10157,10158,
0,0,0,0,0,0,0,0,0,0,0,0,0,0,0,0,
0,0,0,0,0,0,0,0,0,0,0,0,0,0,0,0,
0,0,0,0,0,0,0,0,0,0,0,0,0,0,0,0,
0,0,0,0,0,0,0,0,0,0,0,0,0,0,0,0,
0,0,0,0,0,0,0,0,0,0,0,0,0,0,0,0,
0,0,0,0,0,0,0,0,0,0,0,0,0,0,0,0,
0,0,0,0,0,0,0,0,0,0,0,0,0,0,0,0,
0,0,0,0,0,0,0,0,0,0,0,0,0,0,0,0,
0,0,0,0,0,0,0,0,0,0,0,0,0,0,0,0,
0,0,0,0,0,0,0,0,0,0,0,0,0,0,0,0,
0,0,0,0,0,0,0,0,0,0,0,0,0,0,0,0,
0,0,0,0,0,0,0,0,0,0,0,0,0,0,0,0,
0,0,0,0,0,0,0,0,0,0,0,0,0,0,0,0,
0,0,0,0,0,0,0,0,0,0,0,0,0,0,0,0,
0,0,0,0,0,0,0,0,0,0,0,0,0,0,0,0
</chunk>
   <chunk x="48" y="496" width="16" height="16">
0,0,0,0,0,0,10153,10154,10155,10156,10157,10158,0,0,0,0,
0,0,0,0,0,0,0,0,0,0,0,0,0,0,0,0,
0,0,0,0,0,0,0,0,0,0,0,0,0,0,0,0,
0,0,0,0,0,0,0,0,0,0,0,0,0,0,0,0,
0,0,0,0,0,0,0,0,0,0,0,0,0,0,0,0,
0,0,0,0,0,0,0,0,0,0,0,0,0,0,0,0,
0,0,0,0,0,0,0,0,0,0,0,0,0,0,0,0,
0,0,0,0,0,0,0,0,0,0,0,0,0,0,0,0,
0,0,0,0,0,0,0,0,0,0,0,0,0,0,0,0,
0,0,0,0,0,0,0,0,0,0,0,0,0,0,0,0,
0,0,0,0,0,0,0,0,0,0,0,0,0,0,0,0,
0,0,0,0,0,0,0,0,0,0,0,0,0,0,0,0,
0,0,0,0,0,0,0,0,0,0,0,0,0,0,0,0,
9571,9572,2147493220,2147493219,0,0,0,0,0,0,0,0,0,0,0,0,
9603,9604,2147493252,2147493251,0,0,0,0,0,0,0,0,0,0,0,0,
9635,9636,2147493284,2147493283,0,0,0,0,0,0,0,0,0,0,0,0
</chunk>
   <chunk x="64" y="496" width="16" height="16">
0,0,10165,10166,10167,10168,10169,10170,9973,9974,9975,9976,9977,9978,0,0,
0,0,9813,9814,9815,9816,9817,9818,0,0,0,0,0,0,0,0,
0,0,9845,9846,9847,9848,9849,9850,0,0,0,0,0,0,0,0,
0,0,9877,9878,9879,9880,9881,9882,0,0,0,0,0,0,0,0,
0,0,9909,9910,9911,9912,9913,9914,0,0,0,0,0,0,0,0,
0,0,9941,9942,9943,9944,9945,9946,0,0,0,0,0,0,0,0,
0,0,9973,9974,9975,9976,9977,9978,0,0,0,0,0,0,0,0,
0,0,10005,10006,10007,10008,10009,10010,9813,9814,9815,9816,9817,9818,0,0,
0,0,10037,10038,10039,10040,10041,10042,9845,9846,9847,9848,9849,9850,0,0,
0,0,10069,10070,10071,10072,10073,10074,9877,9878,9879,9880,9881,9882,0,0,
0,0,10101,10102,10103,10104,10105,10106,9909,9910,9911,9912,9913,9914,0,0,
0,0,10133,10134,10135,10136,10137,10138,9941,9942,9943,9944,9945,9946,0,0,
0,0,10165,10166,10167,10168,10169,10170,9973,9974,9975,9976,9977,9978,0,0,
0,0,9813,9814,9815,9816,9817,9818,10005,10006,10007,10008,10009,10010,9801,9802,
0,0,9845,9846,9847,9848,9849,9850,10037,10038,10039,10040,10041,10042,9833,9834,
0,0,9877,9878,9879,9880,9881,9882,10069,10070,10071,10072,10073,10074,9865,9866
</chunk>
   <chunk x="80" y="496" width="16" height="16">
0,0,0,0,0,0,0,0,0,0,2730,2731,2730,2731,2730,2731,
0,0,0,0,0,0,0,0,0,0,0,0,0,0,0,0,
0,0,0,0,0,0,0,0,0,0,0,0,0,0,0,0,
0,0,0,0,0,0,0,0,0,0,0,0,0,0,0,0,
0,0,0,0,0,0,0,0,0,0,0,0,0,0,0,0,
0,0,0,0,0,0,0,0,0,0,0,0,0,0,0,0,
0,0,0,0,0,0,0,0,0,0,0,0,0,0,0,0,
0,0,0,0,0,0,0,0,0,0,0,0,0,0,0,0,
0,0,0,0,0,0,0,0,0,0,0,0,0,0,0,0,
0,0,0,0,0,0,0,0,0,0,0,0,0,0,0,0,
0,0,0,0,0,0,0,0,0,0,0,0,0,0,0,0,
0,0,0,0,0,0,0,0,0,0,0,0,0,0,0,0,
0,0,0,0,0,0,0,0,0,0,0,0,0,0,0,0,
9803,9804,9805,9806,0,0,0,0,0,0,9801,9802,9803,9804,9805,9806,
9835,9836,9837,9838,0,0,0,0,0,0,9833,9834,9835,9836,9837,9838,
9867,9868,9869,9870,0,0,0,0,0,0,9865,9866,9867,9868,9869,9870
</chunk>
   <chunk x="96" y="496" width="16" height="16">
9973,9974,9975,9976,9977,9978,10165,10166,10167,10168,10169,10170,9973,9974,9975,9976,
10005,10006,10007,10008,10009,10010,9813,9814,9815,9816,9817,9818,10005,10006,10007,10008,
10037,10038,10039,10040,10041,10042,9845,9846,9847,9848,9849,9850,10037,10038,10039,10040,
10069,10070,10071,10072,10073,10074,9877,9878,9879,9880,9881,9882,10069,10070,10071,10072,
10101,10102,10103,10104,10105,10106,9909,9910,9911,9912,9913,9914,10101,10102,10103,10104,
10133,10134,10135,10136,10137,10138,9941,9942,9943,9944,9945,9946,10133,10134,10135,10136,
10165,10166,10167,10168,10169,10170,9973,9974,9975,9976,9977,9978,10165,10166,10167,10168,
9813,9814,9815,9816,9817,9818,10005,10006,10007,10008,10009,10010,9813,9814,9815,9816,
9845,9846,9847,9848,9849,9850,10037,10038,10039,10040,10041,10042,9845,9846,9847,9848,
9877,9878,9879,9880,9881,9882,10069,10070,10071,10072,10073,10074,9877,9878,9879,9880,
9909,9910,9911,9912,9913,9914,10101,10102,10103,10104,10105,10106,9909,9910,9911,9912,
9941,9942,9943,9944,9945,9946,10133,10134,10135,10136,10137,10138,9941,9942,9943,9944,
9973,9974,9975,9976,9977,9978,10165,10166,10167,10168,10169,10170,9973,9974,9975,9976,
10005,10006,10007,10008,10009,10010,9813,9814,9815,9816,9817,9818,10005,10006,10007,10008,
10037,10038,10039,10040,10041,10042,9845,9846,9847,9848,9849,9850,10037,10038,10039,10040,
10069,10070,10071,10072,10073,10074,9877,9878,9879,9880,9881,9882,10069,10070,10071,10072
</chunk>
   <chunk x="112" y="496" width="16" height="16">
9977,9978,10165,10166,10167,10168,10169,10170,9961,9962,9963,9964,9965,9966,10153,10154,
10009,10010,9813,9814,9815,9816,9817,9818,9993,9994,9995,9996,9997,9998,9801,9802,
10041,10042,9845,9846,9847,9848,9849,9850,10025,10026,10027,10028,10029,10030,9833,9834,
10073,10074,9877,9878,9879,9880,9881,9882,10057,10058,10059,10060,10061,10062,9865,9866,
10105,10106,9909,9910,9911,9912,9913,9914,10089,10090,10091,10092,10093,10094,9897,9898,
10137,10138,9941,9942,9943,9944,9945,9946,10121,10122,10123,10124,10125,10126,9929,9930,
10169,10170,9973,9974,9975,9976,9977,9978,10153,10154,10155,10156,10157,10158,9961,9962,
9817,9818,10005,10006,10007,10008,10009,10010,9801,9802,9803,9804,9805,9806,9993,9994,
9849,9850,10037,10038,10039,10040,10041,10042,9833,9834,9835,9836,9837,9838,10025,10026,
9881,9882,10069,10070,10071,10072,10073,10074,9865,9866,9867,9868,9869,9870,10057,10058,
9913,9914,10101,10102,10103,10104,10105,10106,9897,9898,9899,9900,9901,9902,10089,10090,
9945,9946,10133,10134,10135,10136,10137,10138,9929,9930,9931,9932,9933,9934,10121,10122,
9977,9978,10165,10166,10167,10168,10169,10170,9961,9962,9963,9964,9965,9966,10153,10154,
10009,10010,9813,9814,9815,9816,9817,9818,9993,9994,9995,9996,9997,9998,9801,9802,
10041,10042,9845,9846,9847,9848,9849,9850,10025,10026,10027,10028,10029,10030,9833,9834,
10073,10074,9877,9878,9879,9880,9881,9882,10057,10058,10059,10060,10061,10062,9865,9866
</chunk>
   <chunk x="128" y="496" width="16" height="16">
10155,10156,10157,10158,9961,9962,9963,9964,9965,9966,10153,10154,10155,10156,10157,10158,
9803,9804,9805,9806,9993,9994,9995,9996,9997,9998,9801,9802,9803,9804,9805,9806,
9835,9836,9837,9838,10025,10026,10027,10028,10029,10030,9833,9834,9835,9836,9837,9838,
9867,9868,9869,9870,10057,10058,10059,10060,10061,10062,9865,9866,9867,9868,9869,9870,
9899,9900,9901,9902,10089,10090,10091,10092,10093,10094,9897,9898,9899,9900,9901,9902,
9931,9932,9933,9934,10121,10122,10123,10124,10125,10126,9929,9930,9931,9932,9933,9934,
9963,9964,9965,9966,10153,10154,10155,10156,10157,10158,9961,9962,9963,9964,9965,9966,
9995,9996,9997,9998,9801,9802,9803,9804,9805,9806,9993,9994,9995,9996,9997,9998,
10027,10028,10029,10030,9833,9834,9835,9836,9837,9838,10025,10026,10027,10028,10029,10030,
10059,10060,10061,10062,9865,9866,9867,9868,9869,9870,10057,10058,10059,10060,10061,10062,
10091,10092,10093,10094,9897,9898,9899,9900,9901,9902,10089,10090,10091,10092,10093,10094,
10123,10124,10125,10126,9929,9930,9931,9932,9933,9934,10121,10122,10123,10124,10125,10126,
10155,10156,10157,10158,9961,9962,9963,9964,9965,9966,10153,10154,10155,10156,10157,10158,
9803,9804,9805,9806,9993,9994,9995,9996,9997,9998,9801,9802,9803,9804,9805,9806,
9835,9836,9837,9838,10025,10026,10027,10028,10029,10030,9833,9834,9835,9836,9837,9838,
9867,9868,9869,9870,10057,10058,10059,10060,10061,10062,9865,9866,9867,9868,9869,9870
</chunk>
   <chunk x="144" y="496" width="16" height="16">
9961,9962,9963,9964,9965,9966,0,0,0,0,0,0,0,0,0,0,
9993,9994,9995,9996,9997,9998,0,0,0,0,0,0,0,0,0,0,
10025,10026,10027,10028,10029,10030,0,0,0,0,0,0,0,0,0,0,
10057,10058,10059,10060,10061,10062,0,0,0,0,0,0,0,0,0,0,
10089,10090,10091,10092,10093,10094,0,0,0,0,0,0,0,0,0,0,
10121,10122,10123,10124,10125,10126,0,0,0,0,0,0,0,0,0,0,
10153,10154,10155,10156,10157,10158,0,0,0,0,0,0,0,0,0,0,
9801,9802,9803,9804,9805,9806,0,0,0,0,0,0,0,0,0,0,
9833,9834,9835,9836,9837,9838,0,0,0,0,0,0,0,0,0,0,
9865,9866,9867,9868,9869,9870,0,0,0,0,0,0,0,0,0,0,
9897,9898,9899,9900,9901,9902,0,0,0,0,0,0,0,0,0,0,
9929,9930,9931,9932,9933,9934,0,0,0,0,0,0,0,0,0,0,
9961,9962,9963,9964,9965,9966,0,0,0,0,0,0,0,0,0,0,
9993,9994,9995,9996,9997,9998,0,0,0,0,0,0,0,0,0,0,
10025,10026,10027,10028,10029,10030,0,0,0,0,0,0,0,0,0,0,
10057,10058,10059,10060,10061,10062,0,0,0,0,0,0,0,0,0,0
</chunk>
   <chunk x="-352" y="512" width="16" height="16">
0,0,0,0,0,0,0,0,0,0,0,0,0,0,0,0,
0,0,0,0,0,0,0,0,0,0,0,0,0,0,0,0,
0,0,0,0,0,0,0,0,0,0,0,0,0,0,0,0,
0,0,0,0,0,0,0,0,0,0,0,0,0,0,0,0,
0,0,0,0,0,0,0,0,0,0,0,0,0,0,0,0,
0,0,0,0,0,0,0,0,0,0,0,0,0,0,0,0,
0,0,0,0,0,0,0,0,0,0,0,0,0,0,0,0,
0,0,0,0,0,0,0,0,0,0,0,0,0,0,0,0,
0,0,0,0,0,0,0,0,0,0,0,0,0,0,0,0,
0,0,0,0,2884,2885,2886,2887,2888,2889,2634,2635,2634,2635,2634,2635,
0,0,0,0,2916,2917,2918,2919,2920,2921,2666,2667,2666,2667,2666,2667,
0,0,0,0,2948,2949,2950,2951,2952,2953,2634,2635,2634,2635,2634,2635,
0,0,0,0,2980,2981,2982,2983,2984,2985,2666,2667,2666,2667,2666,2667,
0,0,0,0,3012,3013,3014,3015,3016,3017,2634,2635,2634,2635,2634,2635,
0,0,0,0,3044,3045,3046,3047,3048,3049,2666,2667,2666,2667,2666,2667,
0,0,0,0,2634,2635,9695,9696,9697,9698,2634,2635,2634,2635,2634,2635
</chunk>
   <chunk x="-336" y="512" width="16" height="16">
0,0,0,0,0,0,0,0,0,0,0,0,0,0,0,0,
0,0,0,0,0,0,0,0,0,0,0,0,0,0,0,0,
0,0,0,0,0,0,0,0,0,0,0,0,0,0,0,0,
0,0,0,0,0,0,0,0,0,0,0,0,0,0,0,0,
0,0,0,0,0,0,0,0,0,0,0,0,0,0,0,0,
0,0,0,0,0,0,0,0,0,0,0,0,0,0,0,0,
0,0,0,0,0,0,0,0,0,0,0,0,0,0,0,0,
0,0,0,0,0,0,0,0,0,0,0,0,0,0,0,0,
0,0,0,0,0,0,0,0,0,0,0,0,0,0,0,0,
2634,2635,9569,9570,9759,9760,2634,2635,2634,2635,2698,2699,9439,9440,9443,9444,
2666,2667,9601,9602,9791,9792,2666,2667,2666,2667,2730,2731,9471,9472,9475,9476,
9631,9632,9633,9634,2147493280,2147493279,2634,2635,2634,2635,2698,2699,9379,9380,9381,9382,
9663,9664,9665,9666,2147493312,2147493311,2666,2667,2666,2667,2730,2731,9411,9412,9413,9414,
9759,9760,1073751425,1073751426,2634,2635,2634,2635,2634,2635,2698,2699,1073751235,1073751236,1073751237,1073751238,
9791,9792,1073751393,1073751394,2666,2667,2666,2667,2666,2667,2730,2731,1073751203,1073751204,1073751205,1073751206,
2634,2635,9695,9696,9697,9698,2634,2635,9695,9696,9697,9698,2634,2635,2634,2635
</chunk>
   <chunk x="-320" y="512" width="16" height="16">
0,0,0,0,0,0,0,0,0,0,0,0,0,0,0,0,
0,0,0,0,0,0,0,0,0,0,0,0,0,0,0,0,
0,0,0,0,0,0,0,0,0,0,0,0,0,0,0,0,
0,0,0,0,0,0,0,0,0,0,0,0,0,0,0,0,
0,0,0,0,0,0,0,0,0,0,0,0,0,0,0,0,
0,0,0,0,0,0,0,0,0,0,0,0,0,0,0,0,
0,0,0,0,0,0,0,0,0,0,0,0,0,0,0,0,
0,0,0,0,0,0,0,0,0,0,0,0,0,0,0,0,
0,0,0,0,0,0,0,0,0,0,0,0,0,0,0,0,
2147493088,2147493087,0,0,0,0,0,0,0,0,0,0,0,0,0,0,
2147493120,2147493119,0,0,0,0,0,0,0,0,0,0,0,0,0,0,
2147493028,2147493027,0,0,0,0,0,0,0,0,0,0,0,0,0,0,
2147493060,2147493059,0,0,0,0,0,0,0,0,0,0,0,0,0,0,
3221234884,3221234883,0,0,0,0,0,0,0,0,0,0,0,0,0,0,
3221234852,3221234851,0,0,0,0,0,0,0,0,0,0,0,0,0,0,
2698,2699,0,0,0,0,0,0,0,0,0,0,0,0,0,0
</chunk>
   <chunk x="-240" y="512" width="16" height="16">
0,0,0,0,0,0,0,0,0,0,0,0,2660,2661,2094,2095,
0,0,0,0,0,0,0,0,0,0,0,0,2628,2629,2062,2063,
0,0,0,0,0,0,0,0,0,0,0,0,2660,2661,2094,2095,
0,0,0,0,0,0,0,0,0,0,0,0,2628,2629,2062,2063,
0,0,0,0,0,0,0,0,0,0,0,0,2660,2661,2094,2095,
0,0,0,0,0,0,0,0,0,0,0,0,2628,2629,2062,2063,
0,0,0,0,0,0,0,0,0,0,0,0,2660,2661,2094,2095,
0,0,0,0,0,0,0,0,0,0,0,0,2628,2629,2062,2063,
0,0,0,0,0,0,0,0,0,0,0,0,2660,2661,2094,2095,
0,0,0,0,0,0,0,0,0,0,0,0,2628,2629,2062,2063,
0,0,0,0,0,0,0,0,0,0,0,0,2660,2661,2094,2095,
0,0,0,0,0,0,0,0,0,0,0,0,2628,2629,2062,2063,
0,0,0,0,0,0,0,0,0,0,0,0,2660,2661,2094,2095,
0,0,0,0,0,0,0,0,0,0,0,0,2628,2629,2062,2063,
0,0,0,0,0,0,0,0,0,0,0,0,2660,2661,2094,2095,
0,0,0,0,0,0,0,0,0,0,0,0,2628,2629,2062,2063
</chunk>
   <chunk x="-224" y="512" width="16" height="16">
2147486181,2147486180,1073744390,1073744391,1073744390,1073744391,1073744390,1073744391,2532,2533,2094,2095,2147486309,2147486308,0,0,
2147486277,2147486276,2692,2693,2694,2695,2762,2763,2628,2629,2062,2063,2147486277,2147486276,0,0,
2147486309,2147486308,2724,2725,2726,2727,2794,2795,2660,2661,2094,2095,2147486309,2147486308,0,0,
2147486277,2147486276,0,0,0,0,2826,2827,2628,2629,2062,2063,2147486277,2147486276,0,0,
2147486309,2147486308,0,0,0,0,2858,2859,2660,2661,2094,2095,2147486309,2147486308,0,0,
2147486277,2147486276,0,0,0,0,2762,2763,2628,2629,2062,2063,2147486277,2147486276,0,0,
2147486309,2147486308,0,0,0,0,2794,2795,2660,2661,2094,2095,2147486309,2147486308,0,0,
2147486277,2147486276,2756,2757,2758,2759,2826,2827,2628,2629,2062,2063,2147486277,2147486276,0,0,
2147486309,2147486308,2788,2789,2790,2791,2858,2859,2660,2661,2094,2095,2147486309,2147486308,0,0,
2147486277,2147486276,2147486543,2147486542,2147486541,2147486540,2147486539,2147486538,2628,2629,2062,2063,2147486277,2147486276,0,0,
2147486309,2147486308,2147486575,2147486574,2147486573,2147486572,2147486571,2147486570,2660,2661,2094,2095,2147486309,2147486308,0,0,
2147486277,2147486276,2147486607,2147486606,2147486605,2147486604,2147486603,2147486602,2628,2629,2062,2063,2147486277,2147486276,0,0,
2147486309,2147486308,2147486639,2147486638,2147486637,2147486636,2147486635,2147486634,2660,2661,2094,2095,2147486309,2147486308,0,0,
2147486277,2147486276,2147486671,2147486670,2147486669,2147486668,2147486667,2147486666,2628,2629,2062,2063,2147486277,2147486276,0,0,
2147486309,2147486308,2147486703,2147486702,2147486701,2147486700,2147486699,2147486698,2660,2661,2094,2095,2147486309,2147486308,0,0,
2147486277,2147486276,2634,2635,2634,2635,2698,2699,2628,2629,2062,2063,2147486277,2147486276,0,0
</chunk>
   <chunk x="-80" y="512" width="16" height="16">
0,0,9909,9910,9911,9912,9913,9914,10089,10090,10091,10092,10093,10094,9897,9898,
0,0,9941,9942,9943,9944,9945,9946,10121,10122,10123,10124,10125,10126,9929,9930,
0,0,9973,9974,9975,9976,9977,9978,10153,10154,10155,10156,10157,10158,9961,9962,
0,0,10005,10006,10007,10008,10009,10010,9813,9814,9815,9816,9817,9818,9993,9994,
0,0,10037,10038,10039,10040,10041,10042,9845,9846,9847,9848,9849,9850,10025,10026,
0,0,10069,10070,10071,10072,10073,10074,9877,9878,9879,9880,9881,9882,10057,10058,
0,0,10101,10102,10103,10104,10105,10106,9909,9910,9911,9912,9913,9914,10089,10090,
0,0,10133,10134,10135,10136,10137,10138,9941,9942,9943,9944,9945,9946,10121,10122,
0,0,10165,10166,10167,10168,10169,10170,9973,9974,9975,9976,9977,9978,10153,10154,
0,0,9813,9814,9815,9816,9817,9818,10005,10006,10007,10008,10009,10010,9801,9802,
0,0,9845,9846,9847,9848,9849,9850,10037,10038,10039,10040,10041,10042,9833,9834,
0,0,9877,9878,9879,9880,9881,9882,10069,10070,10071,10072,10073,10074,9865,9866,
0,0,9909,9910,9911,9912,9913,9914,10101,10102,10103,10104,10105,10106,9897,9898,
0,0,9941,9942,9943,9944,9945,9946,10133,10134,10135,10136,10137,10138,9929,9930,
0,0,9973,9974,9975,9976,9977,9978,10165,10166,10167,10168,10169,10170,9961,9962,
0,0,10005,10006,10007,10008,10009,10010,9813,9814,9815,9816,9817,9818,9993,9994
</chunk>
   <chunk x="-64" y="512" width="16" height="16">
9899,9900,9901,9902,0,0,0,0,0,0,0,0,0,0,0,0,
9931,9932,9933,9934,0,0,0,0,0,0,0,0,0,0,0,0,
9963,9964,9965,9966,0,0,0,0,0,0,0,0,0,0,0,0,
9995,9996,9997,9998,0,0,0,0,0,0,0,0,0,0,0,0,
10027,10028,10029,10030,0,0,0,0,0,0,0,0,0,0,0,0,
10059,10060,10061,10062,0,0,0,0,0,0,0,0,0,0,0,0,
10091,10092,10093,10094,0,0,0,0,0,0,0,0,0,0,0,0,
10123,10124,10125,10126,0,0,0,0,0,0,0,0,0,0,0,0,
10155,10156,10157,10158,0,0,0,0,0,0,0,0,0,0,0,0,
9803,9804,9805,9806,10005,10006,10007,10008,10009,10010,9801,9802,9803,9804,9805,9806,
9835,9836,9837,9838,10037,10038,10039,10040,10041,10042,9833,9834,9835,9836,9837,9838,
9867,9868,9869,9870,10069,10070,10071,10072,10073,10074,9865,9866,9867,9868,9869,9870,
9899,9900,9901,9902,10101,10102,10103,10104,10105,10106,9897,9898,9899,9900,9901,9902,
9931,9932,9933,9934,10133,10134,10135,10136,10137,10138,9929,9930,9931,9932,9933,9934,
9963,9964,9965,9966,10165,10166,10167,10168,10169,10170,9961,9962,9963,9964,9965,9966,
9995,9996,9997,9998,9813,9814,9815,9816,9817,9818,9993,9994,9995,9996,9997,9998
</chunk>
   <chunk x="-48" y="512" width="16" height="16">
0,0,0,0,0,0,0,0,0,0,0,0,0,0,0,0,
0,0,0,0,0,0,0,0,0,0,0,0,0,0,0,0,
0,0,0,0,0,0,0,0,0,0,0,0,0,0,0,0,
0,0,0,0,0,0,0,0,0,0,0,0,0,0,0,0,
0,0,0,0,0,0,0,0,0,0,0,0,0,0,0,0,
0,0,0,0,0,0,0,0,0,0,0,0,0,0,0,0,
0,0,0,0,0,0,0,0,0,0,0,0,0,0,0,0,
0,0,0,0,0,0,0,0,0,0,0,0,0,0,0,0,
0,0,0,0,0,0,0,0,0,0,0,0,0,0,0,0,
9993,9994,9995,9996,9997,9998,9801,9802,9803,9804,9805,9806,9993,9994,9995,9996,
10025,10026,10027,10028,10029,10030,9833,9834,9835,9836,9837,9838,10025,10026,10027,10028,
10057,10058,10059,10060,10061,10062,9865,9866,9867,9868,9869,9870,10057,10058,10059,10060,
10089,10090,10091,10092,10093,10094,9897,9898,9899,9900,9901,9902,10089,10090,10091,10092,
10121,10122,10123,10124,10125,10126,9929,9930,9931,9932,9933,9934,10121,10122,10123,10124,
10153,10154,10155,10156,10157,10158,9961,9962,9963,9964,9965,9966,10153,10154,10155,10156,
9801,9802,9803,9804,9805,9806,9993,9994,9995,9996,9997,9998,9813,9814,9815,9816
</chunk>
   <chunk x="-32" y="512" width="16" height="16">
0,0,0,0,0,0,0,0,0,0,0,0,0,0,0,0,
0,0,0,0,0,0,0,0,0,0,0,0,0,0,0,0,
0,0,0,0,0,0,0,0,0,0,0,0,0,0,0,0,
0,0,0,0,0,0,0,0,0,0,0,0,0,0,0,0,
0,0,0,0,0,0,0,0,0,0,0,0,0,0,0,0,
0,0,0,0,0,0,0,0,0,0,0,0,0,0,0,0,
0,0,0,0,0,0,0,0,0,0,0,0,0,0,0,0,
0,0,0,0,0,0,0,0,0,0,0,0,0,0,0,0,
0,0,0,0,0,0,0,0,0,0,0,0,0,0,0,0,
9997,9998,9801,9802,9803,9804,9805,9806,0,0,0,0,0,0,9813,9814,
10029,10030,9833,9834,9835,9836,9837,9838,0,0,0,0,0,0,9845,9846,
10061,10062,9865,9866,9867,9868,9869,9870,0,0,0,0,0,0,9877,9878,
10093,10094,9897,9898,9899,9900,9901,9902,0,0,0,0,0,0,9909,9910,
10125,10126,9929,9930,9931,9932,9933,9934,0,0,0,0,0,0,9941,9942,
10157,10158,9961,9962,9963,9964,9965,9966,0,0,0,0,0,0,9973,9974,
9817,9818,9993,9994,9995,9996,9997,9998,9801,9802,9803,9804,9805,9806,10005,10006
</chunk>
   <chunk x="-16" y="512" width="16" height="16">
0,0,0,0,0,0,0,0,0,0,9897,9898,9899,9900,9901,9902,
0,0,0,0,0,0,0,0,0,0,9929,9930,9931,9932,9933,9934,
0,0,0,0,0,0,0,0,0,0,9961,9962,9963,9964,9965,9966,
0,0,0,0,9813,9814,9815,9816,9817,9818,9993,9994,9995,9996,9997,9998,
0,0,0,0,9845,9846,9847,9848,9849,9850,10025,10026,10027,10028,10029,10030,
0,0,0,0,9877,9878,9879,9880,9881,9882,10057,10058,10059,10060,10061,10062,
0,0,0,0,9909,9910,9911,9912,9913,9914,10089,10090,10091,10092,10093,10094,
0,0,0,0,9941,9942,9943,9944,9945,9946,10121,10122,10123,10124,10125,10126,
0,0,0,0,9973,9974,9975,9976,9977,9978,10153,10154,10155,10156,10157,10158,
9815,9816,9817,9818,10005,10006,10007,10008,10009,10010,9813,9814,9815,9816,9817,9818,
9847,9848,9849,9850,10037,10038,10039,10040,10041,10042,9845,9846,9847,9848,9849,9850,
9879,9880,9881,9882,10069,10070,10071,10072,10073,10074,9877,9878,9879,9880,9881,9882,
9911,9912,9913,9914,10101,10102,10103,10104,10105,10106,9909,9910,9911,9912,9913,9914,
9943,9944,9945,9946,10133,10134,10135,10136,10137,10138,9941,9942,9943,9944,9945,9946,
9975,9976,9977,9978,10165,10166,10167,10168,10169,10170,9973,9974,9975,9976,9977,9978,
10007,10008,10009,10010,9813,9814,9815,9816,9817,9818,10005,10006,10007,10008,10009,10010
</chunk>
   <chunk x="0" y="512" width="16" height="16">
10089,10090,10091,10092,10093,10094,9897,9898,9899,9900,9901,9902,10089,10090,10091,10092,
10121,10122,10123,10124,10125,10126,9929,9930,9931,9932,9933,9934,10121,10122,10123,10124,
10153,10154,10155,10156,10157,10158,9961,9962,9963,9964,9965,9966,10153,10154,10155,10156,
9801,9802,9803,9804,9805,9806,9993,9994,9995,9996,9997,9998,9801,9802,9803,9804,
9833,9834,9835,9836,9837,9838,10025,10026,10027,10028,10029,10030,9833,9834,9835,9836,
9865,9866,9867,9868,9869,9870,10057,10058,10059,10060,10061,10062,9865,9866,9867,9868,
9897,9898,9899,9900,9901,9902,10089,10090,10091,10092,10093,10094,9897,9898,9899,9900,
9929,9930,9931,9932,9933,9934,10121,10122,10123,10124,10125,10126,9929,9930,9931,9932,
9961,9962,9963,9964,9965,9966,10153,10154,10155,10156,10157,10158,9961,9962,9963,9964,
9993,9994,9995,9996,9997,9998,9801,9802,9803,9804,9805,9806,9993,9994,9995,9996,
10025,10026,10027,10028,10029,10030,9833,9834,9835,9836,9837,9838,10025,10026,10027,10028,
10057,10058,10059,10060,10061,10062,9865,9866,9867,9868,9869,9870,10057,10058,10059,10060,
10089,10090,10091,10092,10093,10094,9897,9898,9899,9900,9901,9902,10089,10090,10091,10092,
10121,10122,10123,10124,10125,10126,9929,9930,9931,9932,9933,9934,10121,10122,10123,10124,
10153,10154,10155,10156,10157,10158,9961,9962,9963,9964,9965,9966,10153,10154,10155,10156,
9801,9802,9803,9804,9805,9806,9993,9994,9995,9996,9997,9998,9801,9802,9803,9804
</chunk>
   <chunk x="16" y="512" width="16" height="16">
10093,10094,9909,9910,9911,9912,9913,9914,0,0,0,0,0,0,0,0,
10125,10126,9941,9942,9943,9944,9945,9946,0,0,0,0,0,0,0,0,
10157,10158,9973,9974,9975,9976,9977,9978,0,0,0,0,0,0,0,0,
9805,9806,10005,10006,10007,10008,10009,10010,9813,9814,9815,9816,9817,9818,0,0,
9837,9838,10037,10038,10039,10040,10041,10042,9845,9846,9847,9848,9849,9850,0,0,
9869,9870,10069,10070,10071,10072,10073,10074,9877,9878,9879,9880,9881,9882,0,0,
9901,9902,10101,10102,10103,10104,10105,10106,9909,9910,9911,9912,9913,9914,0,0,
9933,9934,10133,10134,10135,10136,10137,10138,9941,9942,9943,9944,9945,9946,0,0,
9965,9966,10165,10166,10167,10168,10169,10170,9973,9974,9975,9976,9977,9978,0,0,
9997,9998,9813,9814,9815,9816,9817,9818,10005,10006,10007,10008,10009,10010,9801,9802,
10029,10030,9845,9846,9847,9848,9849,9850,10037,10038,10039,10040,10041,10042,9833,9834,
10061,10062,9877,9878,9879,9880,9881,9882,10069,10070,10071,10072,10073,10074,9865,9866,
10093,10094,9909,9910,9911,9912,9913,9914,10101,10102,10103,10104,10105,10106,9897,9898,
10125,10126,9941,9942,9943,9944,9945,9946,10133,10134,10135,10136,10137,10138,9929,9930,
10157,10158,9973,9974,9975,9976,9977,9978,10165,10166,10167,10168,10169,10170,9961,9962,
9805,9806,10005,10006,10007,10008,10009,10010,9813,9814,9815,9816,9817,9818,9993,9994
</chunk>
   <chunk x="32" y="512" width="16" height="16">
0,0,0,0,0,0,0,0,0,0,0,0,0,0,0,0,
0,0,0,0,0,0,0,0,0,0,0,0,0,0,0,0,
0,0,0,0,0,0,0,0,0,0,0,0,0,0,0,0,
0,0,0,0,0,0,0,0,0,0,0,0,0,0,0,0,
0,0,0,0,0,0,0,0,0,0,0,0,0,0,0,0,
0,0,0,0,0,0,0,0,0,0,0,0,0,0,0,0,
0,0,0,0,0,0,0,0,0,0,0,0,0,0,0,0,
0,0,0,0,0,0,0,0,0,0,0,0,0,0,0,0,
0,0,0,0,0,0,0,0,0,0,0,0,0,0,0,0,
9803,9804,9805,9806,9993,9994,9995,9996,9997,9998,0,0,0,0,0,0,
9835,9836,9837,9838,10025,10026,10027,10028,10029,10030,0,0,0,0,0,0,
9867,9868,9869,9870,10057,10058,10059,10060,10061,10062,0,0,0,0,0,0,
9899,9900,9901,9902,10089,10090,10091,10092,10093,10094,0,0,0,0,0,0,
9931,9932,9933,9934,10121,10122,10123,10124,10125,10126,0,0,0,0,0,0,
9963,9964,9965,9966,10153,10154,10155,10156,10157,10158,0,0,0,0,0,0,
9995,9996,9997,9998,9801,9802,9803,9804,9805,9806,9993,9994,9995,9996,9997,9998
</chunk>
   <chunk x="48" y="512" width="16" height="16">
9667,9668,2147493316,2147493315,0,0,0,0,0,0,0,0,0,0,0,0,
9699,9700,2147493348,2147493347,0,0,0,0,0,0,0,0,0,0,0,0,
9731,9732,2147493380,2147493379,0,0,0,0,0,0,0,0,0,0,0,0,
0,0,0,0,0,0,9801,9802,9803,9804,9805,9806,9801,9802,9803,9804,
0,0,0,0,0,0,9833,9834,9835,9836,9837,9838,9833,9834,9835,9836,
0,0,0,0,0,0,9865,9866,9867,9868,9869,9870,9865,9866,9867,9868,
0,0,0,0,0,0,9897,9898,9899,9900,9901,9902,9897,9898,9899,9900,
0,0,0,0,0,0,9929,9930,9931,9932,9933,9934,9929,9930,9931,9932,
0,0,0,0,0,0,9961,9962,9963,9964,9965,9966,9961,9962,9963,9964,
0,0,0,0,0,0,0,0,0,0,0,0,0,0,0,0,
0,0,0,0,0,0,0,0,0,0,0,0,0,0,0,0,
0,0,0,0,0,0,0,0,0,0,0,0,0,0,0,0,
0,0,0,0,0,0,0,0,0,0,0,0,0,0,0,0,
0,0,0,0,0,0,0,0,0,0,0,0,0,0,0,0,
0,0,0,0,0,0,0,0,0,0,0,0,0,0,0,0,
0,0,0,0,0,0,0,0,0,0,0,0,0,0,0,0
</chunk>
   <chunk x="64" y="512" width="16" height="16">
0,0,9909,9910,9911,9912,9913,9914,10101,10102,10103,10104,10105,10106,9897,9898,
0,0,9941,9942,9943,9944,9945,9946,10133,10134,10135,10136,10137,10138,9929,9930,
0,0,9973,9974,9975,9976,9977,9978,10165,10166,10167,10168,10169,10170,9961,9962,
9805,9806,10005,10006,10007,10008,10009,10010,9813,9814,9815,9816,9817,9818,0,0,
9837,9838,10037,10038,10039,10040,10041,10042,9845,9846,9847,9848,9849,9850,0,0,
9869,9870,10069,10070,10071,10072,10073,10074,9877,9878,9879,9880,9881,9882,0,0,
9901,9902,10101,10102,10103,10104,10105,10106,9909,9910,9911,9912,9913,9914,0,0,
9933,9934,10133,10134,10135,10136,10137,10138,9941,9942,9943,9944,9945,9946,0,0,
9965,9966,10165,10166,10167,10168,10169,10170,9973,9974,9975,9976,9977,9978,0,0,
0,0,9813,9814,9815,9816,9817,9818,10005,10006,10007,10008,10009,10010,9801,9802,
0,0,9845,9846,9847,9848,9849,9850,10037,10038,10039,10040,10041,10042,9833,9834,
0,0,9877,9878,9879,9880,9881,9882,10069,10070,10071,10072,10073,10074,9865,9866,
0,0,9909,9910,9911,9912,9913,9914,10101,10102,10103,10104,10105,10106,9897,9898,
0,0,9941,9942,9943,9944,9945,9946,10133,10134,10135,10136,10137,10138,9929,9930,
0,0,9973,9974,9975,9976,9977,9978,10165,10166,10167,10168,10169,10170,9961,9962,
0,0,10005,10006,10007,10008,10009,10010,9813,9814,9815,9816,9817,9818,0,0
</chunk>
   <chunk x="80" y="512" width="16" height="16">
9899,9900,9901,9902,0,0,0,0,0,0,9897,9898,9899,9900,9901,9902,
9931,9932,9933,9934,0,0,0,0,0,0,9929,9930,9931,9932,9933,9934,
9963,9964,9965,9966,0,0,0,0,0,0,9961,9962,9963,9964,9965,9966,
0,0,0,0,9801,9802,9803,9804,9805,9806,0,0,0,0,0,0,
0,0,0,0,9833,9834,9835,9836,9837,9838,0,0,0,0,0,0,
0,0,0,0,9865,9866,9867,9868,9869,9870,0,0,0,0,0,0,
0,0,0,0,9897,9898,9899,9900,9901,9902,0,0,0,0,0,0,
0,0,0,0,9929,9930,9931,9932,9933,9934,0,0,0,0,0,0,
0,0,0,0,9961,9962,9963,9964,9965,9966,0,0,0,0,0,0,
9803,9804,9805,9806,0,0,0,0,0,0,9801,9802,9803,9804,9805,9806,
9835,9836,9837,9838,0,0,0,0,0,0,9833,9834,9835,9836,9837,9838,
9867,9868,9869,9870,0,0,0,0,0,0,9865,9866,9867,9868,9869,9870,
9899,9900,9901,9902,0,0,0,0,0,0,9897,9898,9899,9900,9901,9902,
9931,9932,9933,9934,0,0,0,0,0,0,9929,9930,9931,9932,9933,9934,
9963,9964,9965,9966,0,0,0,0,0,0,9961,9962,9963,9964,9965,9966,
0,0,0,0,9801,9802,9803,9804,9805,9806,0,0,0,0,0,0
</chunk>
   <chunk x="96" y="512" width="16" height="16">
10101,10102,10103,10104,10105,10106,9909,9910,9911,9912,9913,9914,10101,10102,10103,10104,
10133,10134,10135,10136,10137,10138,9941,9942,9943,9944,9945,9946,10133,10134,10135,10136,
10165,10166,10167,10168,10169,10170,9973,9974,9975,9976,9977,9978,10165,10166,10167,10168,
9813,9814,9815,9816,9817,9818,10005,10006,10007,10008,10009,10010,9813,9814,9815,9816,
9845,9846,9847,9848,9849,9850,10037,10038,10039,10040,10041,10042,9845,9846,9847,9848,
9877,9878,9879,9880,9881,9882,10069,10070,10071,10072,10073,10074,9877,9878,9879,9880,
9909,9910,9911,9912,9913,9914,10101,10102,10103,10104,10105,10106,9909,9910,9911,9912,
9941,9942,9943,9944,9945,9946,10133,10134,10135,10136,10137,10138,9941,9942,9943,9944,
9973,9974,9975,9976,9977,9978,10165,10166,10167,10168,10169,10170,9973,9974,9975,9976,
10005,10006,10007,10008,10009,10010,9813,9814,9815,9816,9817,9818,10005,10006,10007,10008,
10037,10038,10039,10040,10041,10042,9845,9846,9847,9848,9849,9850,10037,10038,10039,10040,
10069,10070,10071,10072,10073,10074,9877,9878,9879,9880,9881,9882,10069,10070,10071,10072,
10101,10102,10103,10104,10105,10106,9909,9910,9911,9912,9913,9914,10101,10102,10103,10104,
10133,10134,10135,10136,10137,10138,9941,9942,9943,9944,9945,9946,10133,10134,10135,10136,
10165,10166,10167,10168,10169,10170,9973,9974,9975,9976,9977,9978,10165,10166,10167,10168,
9813,9814,9815,9816,9817,9818,10005,10006,10007,10008,10009,10010,9813,9814,9815,9816
</chunk>
   <chunk x="112" y="512" width="16" height="16">
10105,10106,9909,9910,9911,9912,9913,9914,10089,10090,10091,10092,10093,10094,9897,9898,
10137,10138,9941,9942,9943,9944,9945,9946,10121,10122,10123,10124,10125,10126,9929,9930,
10169,10170,9973,9974,9975,9976,9977,9978,10153,10154,10155,10156,10157,10158,9961,9962,
9817,9818,10005,10006,10007,10008,10009,10010,9801,9802,9803,9804,9805,9806,9993,9994,
9849,9850,10037,10038,10039,10040,10041,10042,9833,9834,9835,9836,9837,9838,10025,10026,
9881,9882,10069,10070,10071,10072,10073,10074,9865,9866,9867,9868,9869,9870,10057,10058,
9913,9914,10101,10102,10103,10104,10105,10106,9897,9898,9899,9900,9901,9902,10089,10090,
9945,9946,10133,10134,10135,10136,10137,10138,9929,9930,9931,9932,9933,9934,10121,10122,
9977,9978,10165,10166,10167,10168,10169,10170,9961,9962,9963,9964,9965,9966,10153,10154,
10009,10010,9813,9814,9815,9816,9817,9818,9993,9994,9995,9996,9997,9998,9801,9802,
10041,10042,9845,9846,9847,9848,9849,9850,10025,10026,10027,10028,10029,10030,9833,9834,
10073,10074,9877,9878,9879,9880,9881,9882,10057,10058,10059,10060,10061,10062,9865,9866,
10105,10106,9909,9910,9911,9912,9913,9914,10089,10090,10091,10092,10093,10094,9897,9898,
10137,10138,9941,9942,9943,9944,9945,9946,10121,10122,10123,10124,10125,10126,9929,9930,
10169,10170,9973,9974,9975,9976,9977,9978,10153,10154,10155,10156,10157,10158,9961,9962,
9817,9818,10005,10006,10007,10008,10009,10010,9813,9814,9815,9816,9817,9818,9993,9994
</chunk>
   <chunk x="128" y="512" width="16" height="16">
9899,9900,9901,9902,10089,10090,10091,10092,10093,10094,9897,9898,9899,9900,9901,9902,
9931,9932,9933,9934,10121,10122,10123,10124,10125,10126,9929,9930,9931,9932,9933,9934,
9963,9964,9965,9966,10153,10154,10155,10156,10157,10158,9961,9962,9963,9964,9965,9966,
9995,9996,9997,9998,9801,9802,9803,9804,9805,9806,9993,9994,9995,9996,9997,9998,
10027,10028,10029,10030,9833,9834,9835,9836,9837,9838,10025,10026,10027,10028,10029,10030,
10059,10060,10061,10062,9865,9866,9867,9868,9869,9870,10057,10058,10059,10060,10061,10062,
10091,10092,10093,10094,9897,9898,9899,9900,9901,9902,10089,10090,10091,10092,10093,10094,
10123,10124,10125,10126,9929,9930,9931,9932,9933,9934,10121,10122,10123,10124,10125,10126,
10155,10156,10157,10158,9961,9962,9963,9964,9965,9966,10153,10154,10155,10156,10157,10158,
9803,9804,9805,9806,9993,9994,9995,9996,9997,9998,9801,9802,9803,9804,9805,9806,
9835,9836,9837,9838,10025,10026,10027,10028,10029,10030,9833,9834,9835,9836,9837,9838,
9867,9868,9869,9870,10057,10058,10059,10060,10061,10062,9865,9866,9867,9868,9869,9870,
9899,9900,9901,9902,10089,10090,10091,10092,10093,10094,9897,9898,9899,9900,9901,9902,
9931,9932,9933,9934,10121,10122,10123,10124,10125,10126,9929,9930,9931,9932,9933,9934,
9963,9964,9965,9966,10153,10154,10155,10156,10157,10158,9961,9962,9963,9964,9965,9966,
9995,9996,9997,9998,9801,9802,9803,9804,9805,9806,9993,9994,9995,9996,9997,9998
</chunk>
   <chunk x="144" y="512" width="16" height="16">
10089,10090,10091,10092,10093,10094,0,0,0,0,0,0,0,0,0,0,
10121,10122,10123,10124,10125,10126,0,0,0,0,0,0,0,0,0,0,
10153,10154,10155,10156,10157,10158,0,0,0,0,0,0,0,0,0,0,
9801,9802,9803,9804,9805,9806,0,0,0,0,0,0,0,0,0,0,
9833,9834,9835,9836,9837,9838,0,0,0,0,0,0,0,0,0,0,
9865,9866,9867,9868,9869,9870,0,0,0,0,0,0,0,0,0,0,
9897,9898,9899,9900,9901,9902,0,0,0,0,0,0,0,0,0,0,
9929,9930,9931,9932,9933,9934,0,0,0,0,0,0,0,0,0,0,
9961,9962,9963,9964,9965,9966,0,0,0,0,0,0,0,0,0,0,
9993,9994,9995,9996,9997,9998,0,0,0,0,0,0,0,0,0,0,
10025,10026,10027,10028,10029,10030,0,0,0,0,0,0,0,0,0,0,
10057,10058,10059,10060,10061,10062,0,0,0,0,0,0,0,0,0,0,
10089,10090,10091,10092,10093,10094,0,0,0,0,0,0,0,0,0,0,
10121,10122,10123,10124,10125,10126,0,0,0,0,0,0,0,0,0,0,
10153,10154,10155,10156,10157,10158,0,0,0,0,0,0,0,0,0,0,
9801,9802,9803,9804,9805,9806,0,0,0,0,0,0,0,0,0,0
</chunk>
   <chunk x="-352" y="528" width="16" height="16">
0,0,0,0,2666,2667,9727,9728,9729,9730,2666,2667,2666,2667,2666,2667,
0,0,0,0,9759,9760,2634,2635,2634,2635,2634,2635,2634,2635,2634,2635,
0,0,0,0,9791,9792,2666,2667,2666,2667,2666,2667,2666,2667,2666,2667,
0,0,0,0,2634,2635,2634,2635,2634,2635,2634,2635,2634,2635,2634,2635,
0,0,0,0,2666,2667,2666,2667,2666,2667,2666,2667,2666,2667,2666,2667,
0,0,0,0,2634,2635,9569,9570,9759,9760,2634,2635,2634,2635,2634,2635,
0,0,0,0,2666,2667,9601,9602,9791,9792,2666,2667,2666,2667,2666,2667,
0,0,0,0,9631,9632,9633,9634,2147493280,2147493279,2634,2635,2634,2635,2634,2635,
0,0,0,0,9663,9664,9665,9666,2147493312,2147493311,2666,2667,2666,2667,2666,2667,
0,0,0,0,9759,9760,1073751425,1073751426,2634,2635,2634,2635,2634,2635,2634,2635,
0,0,0,0,9791,9792,1073751393,1073751394,2666,2667,2666,2667,2666,2667,2666,2667,
0,0,0,0,2634,2635,2634,2635,2634,2635,2634,2635,2634,2635,2634,2635,
0,0,0,0,2666,2667,2666,2667,2666,2667,2666,2667,2666,2667,2666,2667,
0,0,0,0,2634,2635,2634,2635,2634,2635,2634,2635,2634,2635,2634,2635,
0,0,0,0,2666,2667,2666,2667,2666,2667,2666,2667,2666,2667,2666,2667,
0,0,0,0,2634,2635,2634,2635,2634,2635,2634,2635,2634,2635,2634,2635
</chunk>
   <chunk x="-336" y="528" width="16" height="16">
2666,2667,9727,9728,9729,9730,2666,2667,9727,9728,9729,9730,2666,2667,2666,2667,
9759,9760,2634,2635,2634,2635,9759,9760,2634,2635,2634,2635,2634,2635,2634,2635,
9791,9792,2666,2667,2666,2667,9791,9792,2666,2667,2666,2667,2666,2667,2666,2667,
2634,2635,2634,2635,2634,2635,2634,2635,2634,2635,2634,2635,2634,2635,2634,2635,
2666,2667,2666,2667,2666,2667,2666,2667,2666,2667,2666,2667,2666,2667,2666,2667,
2634,2635,2634,2635,2634,2635,2634,2635,2634,2635,2634,2635,0,0,0,0,
2666,2667,2666,2667,2666,2667,2666,2667,2666,2667,2666,2667,0,0,0,0,
2634,2635,2634,2635,2634,2635,2634,2635,2634,2635,2634,2635,0,0,0,0,
2666,2667,2666,2667,2666,2667,2666,2667,2666,2667,2666,2667,0,0,0,0,
2634,2635,2634,2635,2634,2635,2634,2635,2634,2635,2634,2635,0,0,0,0,
2666,2667,2666,2667,2666,2667,2666,2667,2666,2667,2666,2667,0,0,0,0,
2634,2635,2634,2635,2634,2635,2634,2635,9695,9696,9697,9698,0,0,0,0,
2666,2667,2666,2667,2666,2667,2666,2667,9727,9728,9729,9730,0,0,0,0,
2634,2635,2634,2635,2634,2635,9759,9760,2634,2635,2634,2635,2634,2635,2634,2635,
2666,2667,2666,2667,2666,2667,9791,9792,2666,2667,2666,2667,2666,2667,2666,2667,
2634,2635,2634,2635,2634,2635,2634,2635,2634,2635,2634,2635,2634,2635,2634,2635
</chunk>
   <chunk x="-320" y="528" width="16" height="16">
2730,2731,0,0,0,0,0,0,0,0,0,0,0,0,0,0,
2698,2699,0,0,0,0,0,0,0,0,0,0,0,0,0,0,
2730,2731,0,0,0,0,0,0,0,0,0,0,0,0,0,0,
2698,2699,0,0,0,0,0,0,0,0,0,0,0,0,0,0,
2730,2731,0,0,0,0,0,0,0,0,0,0,0,0,0,0,
0,0,0,0,0,0,0,0,0,0,0,0,0,0,0,0,
0,0,0,0,0,0,0,0,0,0,0,0,0,0,0,0,
0,0,0,0,0,0,0,0,0,0,0,0,0,0,0,0,
0,0,0,0,0,0,0,0,0,0,0,0,0,0,0,0,
0,0,0,0,0,0,0,0,0,0,0,0,0,0,0,0,
0,0,0,0,0,0,0,0,0,0,0,0,0,0,0,0,
0,0,0,0,0,0,0,0,0,0,0,0,0,0,0,0,
0,0,0,0,0,0,0,0,0,0,0,0,0,0,0,0,
2698,2699,0,0,0,0,0,0,0,0,0,0,0,0,0,0,
2730,2731,0,0,0,0,0,0,0,0,0,0,0,0,0,0,
2698,2699,0,0,0,0,0,0,0,0,0,0,0,0,0,0
</chunk>
   <chunk x="-240" y="528" width="16" height="16">
0,0,0,0,0,0,0,0,0,0,0,0,2660,2661,2094,2095,
0,0,0,0,0,0,0,0,0,0,0,0,2628,2629,2062,2063,
0,0,0,0,0,0,0,0,0,0,0,0,2660,2661,2094,2095,
0,0,0,0,0,0,0,0,0,0,0,0,2628,2629,2062,2063,
0,0,0,0,0,0,0,0,0,0,0,0,2660,2661,2094,2095,
0,0,0,0,0,0,0,0,0,0,0,0,2628,2629,2062,2063,
0,0,0,0,0,0,0,0,0,0,0,0,2660,2661,2094,2095,
0,0,0,0,0,0,0,0,0,0,0,0,2628,2629,2062,2063,
0,0,0,0,0,0,0,0,0,0,0,0,2660,2661,2094,2095,
0,0,0,0,0,0,0,0,0,0,0,0,2628,2629,2062,2063,
0,0,0,0,0,0,0,0,0,0,0,0,2660,2661,2094,2095,
0,0,0,0,0,0,0,0,0,0,0,0,2628,2629,2062,2063,
0,0,0,0,0,0,0,0,0,0,0,0,2660,2661,2094,2095,
0,0,0,0,0,0,0,0,0,0,0,0,1073744420,1073744421,1073744422,1073744423,
0,0,0,0,0,0,0,0,0,0,0,0,1073744388,1073744389,1073744390,1073744391,
0,0,0,0,0,0,0,0,0,0,0,0,0,0,0,0
</chunk>
   <chunk x="-224" y="528" width="16" height="16">
2147486309,2147486308,2666,2667,2666,2667,2730,2731,2660,2661,2094,2095,2147486309,2147486308,0,0,
2147486277,2147486276,2634,2635,2634,2635,2698,2699,2628,2629,2062,2063,2147486277,2147486276,0,0,
2147486309,2147486308,2666,2667,2666,2667,2730,2731,2660,2661,2094,2095,2147486309,2147486308,0,0,
2147486277,2147486276,2634,2635,2634,2635,2698,2699,2628,2629,2062,2063,2147486277,2147486276,0,0,
2147486309,2147486308,2666,2667,2666,2667,2730,2731,2660,2661,2094,2095,2147486309,2147486308,0,0,
2147486277,2147486276,2634,2635,2634,2635,2698,2699,2628,2629,2062,2063,2147486277,2147486276,0,0,
2147486309,2147486308,2666,2667,2666,2667,2730,2731,2660,2661,2094,2095,2147486309,2147486308,0,0,
2147486277,2147486276,2634,2635,2634,2635,2698,2699,2628,2629,2062,2063,2147486277,2147486276,0,0,
2147486309,2147486308,2666,2667,2666,2667,2730,2731,2660,2661,2094,2095,2147486309,2147486308,0,0,
2147486277,2147486276,2634,2635,2634,2635,2698,2699,2628,2629,2062,2063,2147486277,2147486276,0,0,
2147486309,2147486308,2666,2667,2666,2667,2730,2731,2660,2661,2094,2095,2147486309,2147486308,0,0,
2147486277,2147486276,2634,2635,2634,2635,2698,2699,2628,2629,2062,2063,2147486277,2147486276,0,0,
2147486309,2147486308,2666,2667,2666,2667,2730,2731,2660,2661,2094,2095,2147486309,2147486308,0,0,
3221228069,3221228068,2634,2635,2634,2635,2698,2699,1073744420,1073744421,1073744422,1073744423,3221228069,3221228068,0,0,
3221228037,3221228036,2666,2667,2666,2667,2730,2731,1073744388,1073744389,1073744390,1073744391,3221228037,3221228036,0,0,
0,0,2634,2635,2634,2635,2698,2699,0,0,0,0,0,0,0,0
</chunk>
   <chunk x="-192" y="528" width="16" height="16">
0,0,0,0,0,0,0,0,0,0,0,0,0,0,0,0,
0,0,0,0,0,0,0,0,0,0,0,0,0,0,0,0,
0,0,0,0,0,0,0,0,0,0,0,0,0,0,0,0,
0,0,0,0,0,0,0,0,0,0,0,0,0,0,0,0,
0,0,0,0,0,0,0,0,0,0,0,0,0,0,0,0,
0,0,0,0,0,0,0,0,0,0,0,0,0,0,0,0,
0,0,0,0,0,0,0,0,0,0,0,0,0,0,0,0,
0,0,0,0,0,0,0,0,0,0,0,0,0,0,0,0,
0,0,0,0,0,0,0,0,0,0,0,0,0,0,0,0,
0,0,0,0,0,0,0,0,0,0,0,0,0,0,0,0,
0,0,0,0,0,0,0,0,0,0,0,0,0,0,0,0,
2634,2635,2634,2635,2634,2635,0,0,0,0,0,0,0,0,0,0,
2666,2667,2666,2667,2666,2667,0,0,0,0,0,0,0,0,0,0,
2634,2635,2634,2635,2634,2635,0,0,0,0,0,0,0,0,0,0,
2666,2667,2666,2667,2666,2667,0,0,0,0,0,0,0,0,0,0,
2634,2635,2634,2635,2634,2635,2634,2635,2634,2635,2634,2635,0,0,0,0
</chunk>
   <chunk x="-96" y="528" width="16" height="16">
0,0,0,0,0,0,0,0,0,0,0,0,0,0,0,0,
0,0,0,0,0,0,0,0,0,0,0,0,0,0,0,0,
0,0,0,0,0,0,0,0,0,0,0,0,0,0,0,0,
0,0,0,0,0,0,0,0,0,0,0,0,0,0,0,0,
0,0,0,0,0,0,0,0,0,0,0,0,0,0,0,0,
0,0,0,0,0,0,0,0,0,0,0,0,10005,10006,10007,10008,
0,0,0,0,0,0,0,0,0,0,0,0,10037,10038,10039,10040,
0,0,0,0,0,0,0,0,0,0,0,0,10069,10070,10071,10072,
0,0,0,0,0,0,0,0,0,0,0,0,10101,10102,10103,10104,
0,0,0,0,0,0,0,0,0,0,0,0,10133,10134,10135,10136,
0,0,0,0,0,0,0,0,0,0,0,0,10165,10166,10167,10168,
0,0,0,0,0,0,10005,10006,10007,10008,10009,10010,9813,9814,9815,9816,
0,0,0,0,0,0,10037,10038,10039,10040,10041,10042,9845,9846,9847,9848,
0,0,0,0,0,0,10069,10070,10071,10072,10073,10074,9877,9878,9879,9880,
0,0,0,0,0,0,10101,10102,10103,10104,10105,10106,9909,9910,9911,9912,
0,0,0,0,0,0,10133,10134,10135,10136,10137,10138,9941,9942,9943,9944
</chunk>
   <chunk x="-80" y="528" width="16" height="16">
0,0,10037,10038,10039,10040,10041,10042,9845,9846,9847,9848,9849,9850,10025,10026,
0,0,10069,10070,10071,10072,10073,10074,9877,9878,9879,9880,9881,9882,10057,10058,
0,0,10101,10102,10103,10104,10105,10106,9909,9910,9911,9912,9913,9914,10089,10090,
0,0,10133,10134,10135,10136,10137,10138,9941,9942,9943,9944,9945,9946,10121,10122,
0,0,10165,10166,10167,10168,10169,10170,9973,9974,9975,9976,9977,9978,10153,10154,
10009,10010,9813,9814,9815,9816,9817,9818,10005,10006,10007,10008,10009,10010,9813,9814,
10041,10042,9845,9846,9847,9848,9849,9850,10037,10038,10039,10040,10041,10042,9845,9846,
10073,10074,9877,9878,9879,9880,9881,9882,10069,10070,10071,10072,10073,10074,9877,9878,
10105,10106,9909,9910,9911,9912,9913,9914,10101,10102,10103,10104,10105,10106,9909,9910,
10137,10138,9941,9942,9943,9944,9945,9946,10133,10134,10135,10136,10137,10138,9941,9942,
10169,10170,9973,9974,9975,9976,9977,9978,10165,10166,10167,10168,10169,10170,9973,9974,
9817,9818,10005,10006,10007,10008,10009,10010,9813,9814,9815,9816,9817,9818,10005,10006,
9849,9850,10037,10038,10039,10040,10041,10042,9845,9846,9847,9848,9849,9850,10037,10038,
9881,9882,10069,10070,10071,10072,10073,10074,9877,9878,9879,9880,9881,9882,10069,10070,
9913,9914,10101,10102,10103,10104,10105,10106,9909,9910,9911,9912,9913,9914,10101,10102,
9945,9946,10133,10134,10135,10136,10137,10138,9941,9942,9943,9944,9945,9946,10133,10134
</chunk>
   <chunk x="-64" y="528" width="16" height="16">
10027,10028,10029,10030,9845,9846,9847,9848,9849,9850,10025,10026,10027,10028,10029,10030,
10059,10060,10061,10062,9877,9878,9879,9880,9881,9882,10057,10058,10059,10060,10061,10062,
10091,10092,10093,10094,9909,9910,9911,9912,9913,9914,10089,10090,10091,10092,10093,10094,
10123,10124,10125,10126,9941,9942,9943,9944,9945,9946,10121,10122,10123,10124,10125,10126,
10155,10156,10157,10158,9973,9974,9975,9976,9977,9978,10153,10154,10155,10156,10157,10158,
9815,9816,9817,9818,10005,10006,10007,10008,10009,10010,9801,9802,9803,9804,9805,9806,
9847,9848,9849,9850,10037,10038,10039,10040,10041,10042,9833,9834,9835,9836,9837,9838,
9879,9880,9881,9882,10069,10070,10071,10072,10073,10074,9865,9866,9867,9868,9869,9870,
9911,9912,9913,9914,10101,10102,10103,10104,10105,10106,9897,9898,9899,9900,9901,9902,
9943,9944,9945,9946,10133,10134,10135,10136,10137,10138,9929,9930,9931,9932,9933,9934,
9975,9976,9977,9978,10165,10166,10167,10168,10169,10170,9961,9962,9963,9964,9965,9966,
10007,10008,10009,10010,9801,9802,9803,9804,9805,9806,9993,9994,9995,9996,9997,9998,
10039,10040,10041,10042,9833,9834,9835,9836,9837,9838,10025,10026,10027,10028,10029,10030,
10071,10072,10073,10074,9865,9866,9867,9868,9869,9870,10057,10058,10059,10060,10061,10062,
10103,10104,10105,10106,9897,9898,9899,9900,9901,9902,10089,10090,10091,10092,10093,10094,
10135,10136,10137,10138,9929,9930,9931,9932,9933,9934,10121,10122,10123,10124,10125,10126
</chunk>
   <chunk x="-48" y="528" width="16" height="16">
9833,9834,9835,9836,9837,9838,10025,10026,10027,10028,10029,10030,9845,9846,9847,9848,
9865,9866,9867,9868,9869,9870,10057,10058,10059,10060,10061,10062,9877,9878,9879,9880,
9897,9898,9899,9900,9901,9902,10089,10090,10091,10092,10093,10094,9909,9910,9911,9912,
9929,9930,9931,9932,9933,9934,10121,10122,10123,10124,10125,10126,9941,9942,9943,9944,
9961,9962,9963,9964,9965,9966,10153,10154,10155,10156,10157,10158,9973,9974,9975,9976,
9993,9994,9995,9996,9997,9998,9813,9814,9815,9816,9817,9818,10005,10006,10007,10008,
10025,10026,10027,10028,10029,10030,9845,9846,9847,9848,9849,9850,10037,10038,10039,10040,
10057,10058,10059,10060,10061,10062,9877,9878,9879,9880,9881,9882,10069,10070,10071,10072,
10089,10090,10091,10092,10093,10094,9909,9910,9911,9912,9913,9914,10101,10102,10103,10104,
10121,10122,10123,10124,10125,10126,9941,9942,9943,9944,9945,9946,10133,10134,10135,10136,
10153,10154,10155,10156,10157,10158,9973,9974,9975,9976,9977,9978,10165,10166,10167,10168,
9813,9814,9815,9816,9817,9818,10005,10006,10007,10008,10009,10010,9813,9814,9815,9816,
9845,9846,9847,9848,9849,9850,10037,10038,10039,10040,10041,10042,9845,9846,9847,9848,
9877,9878,9879,9880,9881,9882,10069,10070,10071,10072,10073,10074,9877,9878,9879,9880,
9909,9910,9911,9912,9913,9914,10101,10102,10103,10104,10105,10106,9909,9910,9911,9912,
9941,9942,9943,9944,9945,9946,10133,10134,10135,10136,10137,10138,9941,9942,9943,9944
</chunk>
   <chunk x="-32" y="528" width="16" height="16">
9849,9850,10025,10026,10027,10028,10029,10030,9833,9834,9835,9836,9837,9838,10037,10038,
9881,9882,10057,10058,10059,10060,10061,10062,9865,9866,9867,9868,9869,9870,10069,10070,
9913,9914,10089,10090,10091,10092,10093,10094,9897,9898,9899,9900,9901,9902,10101,10102,
9945,9946,10121,10122,10123,10124,10125,10126,9929,9930,9931,9932,9933,9934,10133,10134,
9977,9978,10153,10154,10155,10156,10157,10158,9961,9962,9963,9964,9965,9966,10165,10166,
10009,10010,9801,9802,9803,9804,9805,9806,9993,9994,9995,9996,9997,9998,9801,9802,
10041,10042,9833,9834,9835,9836,9837,9838,10025,10026,10027,10028,10029,10030,9833,9834,
10073,10074,9865,9866,9867,9868,9869,9870,10057,10058,10059,10060,10061,10062,9865,9866,
10105,10106,9897,9898,9899,9900,9901,9902,10089,10090,10091,10092,10093,10094,9897,9898,
10137,10138,9929,9930,9931,9932,9933,9934,10121,10122,10123,10124,10125,10126,9929,9930,
10169,10170,9961,9962,9963,9964,9965,9966,10153,10154,10155,10156,10157,10158,9961,9962,
9817,9818,9993,9994,9995,9996,9997,9998,9801,9802,9803,9804,9805,9806,0,0,
9849,9850,10025,10026,10027,10028,10029,10030,9833,9834,9835,9836,9837,9838,0,0,
9881,9882,10057,10058,10059,10060,10061,10062,9865,9866,9867,9868,9869,9870,0,0,
9913,9914,10089,10090,10091,10092,10093,10094,9897,9898,9899,9900,9901,9902,0,0,
9945,9946,10121,10122,10123,10124,10125,10126,9929,9930,9931,9932,9933,9934,0,0
</chunk>
   <chunk x="-16" y="528" width="16" height="16">
10039,10040,10041,10042,9845,9846,9847,9848,9849,9850,10037,10038,10039,10040,10041,10042,
10071,10072,10073,10074,9877,9878,9879,9880,9881,9882,10069,10070,10071,10072,10073,10074,
10103,10104,10105,10106,9909,9910,9911,9912,9913,9914,10101,10102,10103,10104,10105,10106,
10135,10136,10137,10138,9941,9942,9943,9944,9945,9946,10133,10134,10135,10136,10137,10138,
10167,10168,10169,10170,9973,9974,9975,9976,9977,9978,10165,10166,10167,10168,10169,10170,
9803,9804,9805,9806,10005,10006,10007,10008,10009,10010,9813,9814,9815,9816,9817,9818,
9835,9836,9837,9838,10037,10038,10039,10040,10041,10042,9845,9846,9847,9848,9849,9850,
9867,9868,9869,9870,10069,10070,10071,10072,10073,10074,9877,9878,9879,9880,9881,9882,
9899,9900,9901,9902,10101,10102,10103,10104,10105,10106,9909,9910,9911,9912,9913,9914,
9931,9932,9933,9934,10133,10134,10135,10136,10137,10138,9941,9942,9943,9944,9945,9946,
9963,9964,9965,9966,10165,10166,10167,10168,10169,10170,9973,9974,9975,9976,9977,9978,
0,0,0,0,9813,9814,9815,9816,9817,9818,10005,10006,10007,10008,10009,10010,
0,0,0,0,9845,9846,9847,9848,9849,9850,10037,10038,10039,10040,10041,10042,
0,0,0,0,9877,9878,9879,9880,9881,9882,10069,10070,10071,10072,10073,10074,
0,0,0,0,9909,9910,9911,9912,9913,9914,10101,10102,10103,10104,10105,10106,
0,0,0,0,9941,9942,9943,9944,9945,9946,10133,10134,10135,10136,10137,10138
</chunk>
   <chunk x="0" y="528" width="16" height="16">
9833,9834,9835,9836,9837,9838,10025,10026,10027,10028,10029,10030,9833,9834,9835,9836,
9865,9866,9867,9868,9869,9870,10057,10058,10059,10060,10061,10062,9865,9866,9867,9868,
9897,9898,9899,9900,9901,9902,10089,10090,10091,10092,10093,10094,9897,9898,9899,9900,
9929,9930,9931,9932,9933,9934,10121,10122,10123,10124,10125,10126,9929,9930,9931,9932,
9961,9962,9963,9964,9965,9966,10153,10154,10155,10156,10157,10158,9961,9962,9963,9964,
9993,9994,9995,9996,9997,9998,9801,9802,9803,9804,9805,9806,9993,9994,9995,9996,
10025,10026,10027,10028,10029,10030,9833,9834,9835,9836,9837,9838,10025,10026,10027,10028,
10057,10058,10059,10060,10061,10062,9865,9866,9867,9868,9869,9870,10057,10058,10059,10060,
10089,10090,10091,10092,10093,10094,9897,9898,9899,9900,9901,9902,10089,10090,10091,10092,
10121,10122,10123,10124,10125,10126,9929,9930,9931,9932,9933,9934,10121,10122,10123,10124,
10153,10154,10155,10156,10157,10158,9961,9962,9963,9964,9965,9966,10153,10154,10155,10156,
9813,9814,9815,9816,9817,9818,9993,9994,9995,9996,9997,9998,9801,9802,9803,9804,
9845,9846,9847,9848,9849,9850,10025,10026,10027,10028,10029,10030,9833,9834,9835,9836,
9877,9878,9879,9880,9881,9882,10057,10058,10059,10060,10061,10062,9865,9866,9867,9868,
9909,9910,9911,9912,9913,9914,10089,10090,10091,10092,10093,10094,9897,9898,9899,9900,
9941,9942,9943,9944,9945,9946,10121,10122,10123,10124,10125,10126,9929,9930,9931,9932
</chunk>
   <chunk x="16" y="528" width="16" height="16">
9837,9838,10037,10038,10039,10040,10041,10042,9845,9846,9847,9848,9849,9850,10025,10026,
9869,9870,10069,10070,10071,10072,10073,10074,9877,9878,9879,9880,9881,9882,10057,10058,
9901,9902,10101,10102,10103,10104,10105,10106,9909,9910,9911,9912,9913,9914,10089,10090,
9933,9934,10133,10134,10135,10136,10137,10138,9941,9942,9943,9944,9945,9946,10121,10122,
9965,9966,10165,10166,10167,10168,10169,10170,9973,9974,9975,9976,9977,9978,10153,10154,
9997,9998,9813,9814,9815,9816,9817,9818,10005,10006,10007,10008,10009,10010,9813,9814,
10029,10030,9845,9846,9847,9848,9849,9850,10037,10038,10039,10040,10041,10042,9845,9846,
10061,10062,9877,9878,9879,9880,9881,9882,10069,10070,10071,10072,10073,10074,9877,9878,
10093,10094,9909,9910,9911,9912,9913,9914,10101,10102,10103,10104,10105,10106,9909,9910,
10125,10126,9941,9942,9943,9944,9945,9946,10133,10134,10135,10136,10137,10138,9941,9942,
10157,10158,9973,9974,9975,9976,9977,9978,10165,10166,10167,10168,10169,10170,9973,9974,
9805,9806,10005,10006,10007,10008,10009,10010,9813,9814,9815,9816,9817,9818,10005,10006,
9837,9838,10037,10038,10039,10040,10041,10042,9845,9846,9847,9848,9849,9850,10037,10038,
9869,9870,10069,10070,10071,10072,10073,10074,9877,9878,9879,9880,9881,9882,10069,10070,
9901,9902,10101,10102,10103,10104,10105,10106,9909,9910,9911,9912,9913,9914,10101,10102,
9933,9934,10133,10134,10135,10136,10137,10138,9941,9942,9943,9944,9945,9946,10133,10134
</chunk>
   <chunk x="32" y="528" width="16" height="16">
10027,10028,10029,10030,9833,9834,9835,9836,9837,9838,10025,10026,10027,10028,10029,10030,
10059,10060,10061,10062,9865,9866,9867,9868,9869,9870,10057,10058,10059,10060,10061,10062,
10091,10092,10093,10094,9897,9898,9899,9900,9901,9902,10089,10090,10091,10092,10093,10094,
10123,10124,10125,10126,9929,9930,9931,9932,9933,9934,10121,10122,10123,10124,10125,10126,
10155,10156,10157,10158,9961,9962,9963,9964,9965,9966,10153,10154,10155,10156,10157,10158,
9815,9816,9817,9818,9993,9994,9995,9996,9997,9998,9801,9802,9803,9804,9805,9806,
9847,9848,9849,9850,10025,10026,10027,10028,10029,10030,9833,9834,9835,9836,9837,9838,
9879,9880,9881,9882,10057,10058,10059,10060,10061,10062,9865,9866,9867,9868,9869,9870,
9911,9912,9913,9914,10089,10090,10091,10092,10093,10094,9897,9898,9899,9900,9901,9902,
9943,9944,9945,9946,10121,10122,10123,10124,10125,10126,9929,9930,9931,9932,9933,9934,
9975,9976,9977,9978,10153,10154,10155,10156,10157,10158,9961,9962,9963,9964,9965,9966,
10007,10008,10009,10010,9801,9802,9803,9804,9805,9806,9993,9994,9995,9996,9997,9998,
10039,10040,10041,10042,9833,9834,9835,9836,9837,9838,10025,10026,10027,10028,10029,10030,
10071,10072,10073,10074,9865,9866,9867,9868,9869,9870,10057,10058,10059,10060,10061,10062,
10103,10104,10105,10106,9897,9898,9899,9900,9901,9902,10089,10090,10091,10092,10093,10094,
10135,10136,10137,10138,9929,9930,9931,9932,9933,9934,10121,10122,10123,10124,10125,10126
</chunk>
   <chunk x="48" y="528" width="16" height="16">
0,0,0,0,0,0,0,0,0,0,0,0,0,0,0,0,
0,0,0,0,0,0,0,0,0,0,0,0,0,0,0,0,
0,0,0,0,0,0,0,0,0,0,0,0,0,0,0,0,
0,0,0,0,0,0,0,0,0,0,0,0,0,0,0,0,
0,0,0,0,0,0,0,0,0,0,0,0,0,0,0,0,
9801,9802,9803,9804,9805,9806,0,0,0,0,0,0,0,0,0,0,
9833,9834,9835,9836,9837,9838,0,0,0,0,0,0,0,0,0,0,
9865,9866,9867,9868,9869,9870,0,0,0,0,0,0,0,0,0,0,
9897,9898,9899,9900,9901,9902,0,0,0,0,0,0,0,0,0,0,
9929,9930,9931,9932,9933,9934,0,0,0,0,0,0,0,0,0,0,
9961,9962,9963,9964,9965,9966,0,0,0,0,0,0,0,0,0,0,
9993,9994,9995,9996,9997,9998,9801,9802,9803,9804,9805,9806,0,0,0,0,
10025,10026,10027,10028,10029,10030,9833,9834,9835,9836,9837,9838,0,0,0,0,
10057,10058,10059,10060,10061,10062,9865,9866,9867,9868,9869,9870,0,0,0,0,
10089,10090,10091,10092,10093,10094,9897,9898,9899,9900,9901,9902,0,0,0,0,
10121,10122,10123,10124,10125,10126,9929,9930,9931,9932,9933,9934,0,0,0,0
</chunk>
   <chunk x="64" y="528" width="16" height="16">
0,0,10037,10038,10039,10040,10041,10042,9845,9846,9847,9848,9849,9850,0,0,
0,0,10069,10070,10071,10072,10073,10074,9877,9878,9879,9880,9881,9882,0,0,
0,0,10101,10102,10103,10104,10105,10106,9909,9910,9911,9912,9913,9914,0,0,
0,0,10133,10134,10135,10136,10137,10138,9941,9942,9943,9944,9945,9946,0,0,
0,0,10165,10166,10167,10168,10169,10170,9973,9974,9975,9976,9977,9978,0,0,
0,0,0,0,0,0,0,0,0,0,0,0,0,0,9801,9802,
0,0,0,0,0,0,0,0,0,0,0,0,0,0,9833,9834,
0,0,0,0,0,0,0,0,0,0,0,0,0,0,9865,9866,
0,0,0,0,0,0,0,0,0,0,0,0,0,0,9897,9898,
0,0,0,0,0,0,0,0,0,0,0,0,0,0,9929,9930,
0,0,0,0,0,0,0,0,0,0,0,0,0,0,9961,9962,
0,0,0,0,0,0,0,0,0,0,0,0,0,0,0,0,
0,0,0,0,0,0,0,0,0,0,0,0,0,0,0,0,
0,0,0,0,0,0,0,0,0,0,0,0,0,0,0,0,
0,0,0,0,0,0,0,0,0,0,0,0,0,0,0,0,
0,0,0,0,0,0,0,0,0,0,0,0,0,0,0,0
</chunk>
   <chunk x="80" y="528" width="16" height="16">
0,0,0,0,9833,9834,9835,9836,9837,9838,0,0,0,0,0,0,
0,0,0,0,9865,9866,9867,9868,9869,9870,0,0,0,0,0,0,
0,0,0,0,9897,9898,9899,9900,9901,9902,0,0,0,0,0,0,
0,0,0,0,9929,9930,9931,9932,9933,9934,0,0,0,0,0,0,
0,0,0,0,9961,9962,9963,9964,9965,9966,0,0,0,0,0,0,
9803,9804,9805,9806,0,0,0,0,0,0,9801,9802,9803,9804,9805,9806,
9835,9836,9837,9838,0,0,0,0,0,0,9833,9834,9835,9836,9837,9838,
9867,9868,9869,9870,0,0,0,0,0,0,9865,9866,9867,9868,9869,9870,
9899,9900,9901,9902,0,0,0,0,0,0,9897,9898,9899,9900,9901,9902,
9931,9932,9933,9934,0,0,0,0,0,0,9929,9930,9931,9932,9933,9934,
9963,9964,9965,9966,0,0,0,0,0,0,9961,9962,9963,9964,9965,9966,
0,0,0,0,9801,9802,9803,9804,9805,9806,0,0,0,0,0,0,
0,0,0,0,9833,9834,9835,9836,9837,9838,0,0,0,0,0,0,
0,0,0,0,9865,9866,9867,9868,9869,9870,0,0,0,0,0,0,
0,0,0,0,9897,9898,9899,9900,9901,9902,0,0,0,0,0,0,
0,0,0,0,9929,9930,9931,9932,9933,9934,0,0,0,0,0,0
</chunk>
   <chunk x="96" y="528" width="16" height="16">
9845,9846,9847,9848,9849,9850,10037,10038,10039,10040,10041,10042,9845,9846,9847,9848,
9877,9878,9879,9880,9881,9882,10069,10070,10071,10072,10073,10074,9877,9878,9879,9880,
9909,9910,9911,9912,9913,9914,10101,10102,10103,10104,10105,10106,9909,9910,9911,9912,
9941,9942,9943,9944,9945,9946,10133,10134,10135,10136,10137,10138,9941,9942,9943,9944,
9973,9974,9975,9976,9977,9978,10165,10166,10167,10168,10169,10170,9973,9974,9975,9976,
10005,10006,10007,10008,10009,10010,9813,9814,9815,9816,9817,9818,10005,10006,10007,10008,
10037,10038,10039,10040,10041,10042,9845,9846,9847,9848,9849,9850,10037,10038,10039,10040,
10069,10070,10071,10072,10073,10074,9877,9878,9879,9880,9881,9882,10069,10070,10071,10072,
10101,10102,10103,10104,10105,10106,9909,9910,9911,9912,9913,9914,10101,10102,10103,10104,
10133,10134,10135,10136,10137,10138,9941,9942,9943,9944,9945,9946,10133,10134,10135,10136,
10165,10166,10167,10168,10169,10170,9973,9974,9975,9976,9977,9978,10165,10166,10167,10168,
9813,9814,9815,9816,9817,9818,10005,10006,10007,10008,10009,10010,9813,9814,9815,9816,
9845,9846,9847,9848,9849,9850,10037,10038,10039,10040,10041,10042,9845,9846,9847,9848,
9877,9878,9879,9880,9881,9882,10069,10070,10071,10072,10073,10074,9877,9878,9879,9880,
9909,9910,9911,9912,9913,9914,10101,10102,10103,10104,10105,10106,9909,9910,9911,9912,
9941,9942,9943,9944,9945,9946,10133,10134,10135,10136,10137,10138,9941,9942,9943,9944
</chunk>
   <chunk x="112" y="528" width="16" height="16">
9849,9850,10037,10038,10039,10040,10041,10042,9845,9846,9847,9848,9849,9850,10025,10026,
9881,9882,10069,10070,10071,10072,10073,10074,9877,9878,9879,9880,9881,9882,10057,10058,
9913,9914,10101,10102,10103,10104,10105,10106,9909,9910,9911,9912,9913,9914,10089,10090,
9945,9946,10133,10134,10135,10136,10137,10138,9941,9942,9943,9944,9945,9946,10121,10122,
9977,9978,10165,10166,10167,10168,10169,10170,9973,9974,9975,9976,9977,9978,10153,10154,
10009,10010,9813,9814,9815,9816,9817,9818,10005,10006,10007,10008,10009,10010,9801,9802,
10041,10042,9845,9846,9847,9848,9849,9850,10037,10038,10039,10040,10041,10042,9833,9834,
10073,10074,9877,9878,9879,9880,9881,9882,10069,10070,10071,10072,10073,10074,9865,9866,
10105,10106,9909,9910,9911,9912,9913,9914,10101,10102,10103,10104,10105,10106,9897,9898,
10137,10138,9941,9942,9943,9944,9945,9946,10133,10134,10135,10136,10137,10138,9929,9930,
10169,10170,9973,9974,9975,9976,9977,9978,10165,10166,10167,10168,10169,10170,9961,9962,
9817,9818,10005,10006,10007,10008,10009,10010,9813,9814,9815,9816,9817,9818,9993,9994,
9849,9850,10037,10038,10039,10040,10041,10042,9845,9846,9847,9848,9849,9850,10025,10026,
9881,9882,10069,10070,10071,10072,10073,10074,9877,9878,9879,9880,9881,9882,10057,10058,
9913,9914,10101,10102,10103,10104,10105,10106,9909,9910,9911,9912,9913,9914,10089,10090,
9945,9946,10133,10134,10135,10136,10137,10138,9941,9942,9943,9944,9945,9946,10121,10122
</chunk>
   <chunk x="128" y="528" width="16" height="16">
10027,10028,10029,10030,9833,9834,9835,9836,9837,9838,10025,10026,10027,10028,10029,10030,
10059,10060,10061,10062,9865,9866,9867,9868,9869,9870,10057,10058,10059,10060,10061,10062,
10091,10092,10093,10094,9897,9898,9899,9900,9901,9902,10089,10090,10091,10092,10093,10094,
10123,10124,10125,10126,9929,9930,9931,9932,9933,9934,10121,10122,10123,10124,10125,10126,
10155,10156,10157,10158,9961,9962,9963,9964,9965,9966,10153,10154,10155,10156,10157,10158,
9803,9804,9805,9806,9993,9994,9995,9996,9997,9998,9801,9802,9803,9804,9805,9806,
9835,9836,9837,9838,10025,10026,10027,10028,10029,10030,9833,9834,9835,9836,9837,9838,
9867,9868,9869,9870,10057,10058,10059,10060,10061,10062,9865,9866,9867,9868,9869,9870,
9899,9900,9901,9902,10089,10090,10091,10092,10093,10094,9897,9898,9899,9900,9901,9902,
9931,9932,9933,9934,10121,10122,10123,10124,10125,10126,9929,9930,9931,9932,9933,9934,
9963,9964,9965,9966,10153,10154,10155,10156,10157,10158,9961,9962,9963,9964,9965,9966,
9995,9996,9997,9998,9801,9802,9803,9804,9805,9806,9993,9994,9995,9996,9997,9998,
10027,10028,10029,10030,9833,9834,9835,9836,9837,9838,10025,10026,10027,10028,10029,10030,
10059,10060,10061,10062,9865,9866,9867,9868,9869,9870,10057,10058,10059,10060,10061,10062,
10091,10092,10093,10094,9897,9898,9899,9900,9901,9902,10089,10090,10091,10092,10093,10094,
10123,10124,10125,10126,9929,9930,9931,9932,9933,9934,10121,10122,10123,10124,10125,10126
</chunk>
   <chunk x="144" y="528" width="16" height="16">
9833,9834,9835,9836,9837,9838,0,0,0,0,0,0,0,0,0,0,
9865,9866,9867,9868,9869,9870,0,0,0,0,0,0,0,0,0,0,
9897,9898,9899,9900,9901,9902,0,0,0,0,0,0,0,0,0,0,
9929,9930,9931,9932,9933,9934,0,0,0,0,0,0,0,0,0,0,
9961,9962,9963,9964,9965,9966,0,0,0,0,0,0,0,0,0,0,
9993,9994,9995,9996,9997,9998,0,0,0,0,0,0,0,0,0,0,
10025,10026,10027,10028,10029,10030,0,0,0,0,0,0,0,0,0,0,
10057,10058,10059,10060,10061,10062,0,0,0,0,0,0,0,0,0,0,
10089,10090,10091,10092,10093,10094,0,0,0,0,0,0,0,0,0,0,
10121,10122,10123,10124,10125,10126,0,0,0,0,0,0,0,0,0,0,
10153,10154,10155,10156,10157,10158,0,0,0,0,0,0,0,0,0,0,
9801,9802,9803,9804,9805,9806,0,0,0,0,0,0,0,0,0,0,
9833,9834,9835,9836,9837,9838,0,0,0,0,0,0,0,0,0,0,
9865,9866,9867,9868,9869,9870,0,0,0,0,0,0,0,0,0,0,
9897,9898,9899,9900,9901,9902,0,0,0,0,0,0,0,0,0,0,
9929,9930,9931,9932,9933,9934,0,0,0,0,0,0,0,0,0,0
</chunk>
   <chunk x="-352" y="544" width="16" height="16">
0,0,0,0,2666,2667,2666,2667,2666,2667,2666,2667,2666,2667,2666,2667,
0,0,0,0,0,0,0,0,0,0,2634,2635,2634,2635,2634,2635,
0,0,0,0,0,0,0,0,0,0,2666,2667,2666,2667,2666,2667,
0,0,0,0,0,0,0,0,0,0,2634,2635,2634,2635,2634,2635,
0,0,0,0,0,0,0,0,0,0,2666,2667,2666,2667,2666,2667,
0,0,0,0,0,0,0,0,0,0,2634,2635,2634,2635,2634,2635,
0,0,0,0,0,0,0,0,0,0,2666,2667,2666,2667,2666,2667,
0,0,0,0,0,0,0,0,0,0,2634,2635,2634,2635,2634,2635,
0,0,0,0,0,0,0,0,0,0,2666,2667,2666,2667,2666,2667,
0,0,0,0,0,0,0,0,0,0,2698,2699,2698,2699,2698,2699,
0,0,0,0,0,0,0,0,0,0,2730,2731,2730,2731,2730,2731,
0,0,0,0,0,0,0,0,0,0,2698,2699,2698,2699,2698,2699,
0,0,0,0,0,0,0,0,0,0,2730,2731,2730,2731,2730,2731,
0,0,0,0,0,0,0,0,0,0,0,0,0,0,0,0,
0,0,0,0,0,0,0,0,0,0,0,0,0,0,0,0,
0,0,0,0,0,0,0,0,0,0,0,0,0,0,0,0
</chunk>
   <chunk x="-336" y="544" width="16" height="16">
2666,2667,2666,2667,2666,2667,2666,2667,2666,2667,2666,2667,2666,2667,2666,2667,
0,0,0,0,0,0,0,0,0,0,0,0,0,0,0,0,
0,0,0,0,0,0,0,0,0,0,0,0,0,0,0,0,
0,0,0,0,0,0,0,0,0,0,0,0,0,0,0,0,
0,0,0,0,0,0,0,0,0,0,0,0,0,0,0,0,
0,0,0,0,0,0,0,0,0,0,0,0,0,0,0,0,
0,0,0,0,0,0,0,0,0,0,0,0,0,0,0,0,
0,0,0,0,0,0,0,0,0,0,0,0,0,0,0,0,
0,0,0,0,0,0,0,0,0,0,0,0,0,0,0,0,
0,0,0,0,0,0,0,0,0,0,0,0,0,0,0,0,
0,0,0,0,0,0,0,0,0,0,0,0,0,0,0,0,
0,0,0,0,0,0,0,0,0,0,0,0,0,0,0,0,
0,0,0,0,0,0,0,0,0,0,0,0,0,0,0,0,
0,0,0,0,0,0,0,0,0,0,0,0,0,0,0,0,
0,0,0,0,0,0,0,0,0,0,0,0,0,0,0,0,
0,0,0,0,0,0,0,0,0,0,0,0,0,0,0,0
</chunk>
   <chunk x="-320" y="544" width="16" height="16">
2730,2731,0,0,0,0,0,0,0,0,0,0,0,0,0,0,
0,0,0,0,0,0,0,0,0,0,0,0,0,0,0,0,
0,0,0,0,0,0,0,0,0,0,0,0,0,0,0,0,
0,0,0,0,0,0,0,0,0,0,0,0,0,0,0,0,
0,0,0,0,0,0,0,0,0,0,0,0,0,0,0,0,
0,0,0,0,0,0,0,0,0,0,0,0,0,0,0,0,
0,0,0,0,0,0,0,0,0,0,0,0,0,0,0,0,
0,0,0,0,0,0,0,0,0,0,0,0,0,0,0,0,
0,0,0,0,0,0,0,0,0,0,0,0,0,0,0,0,
0,0,0,0,0,0,0,0,0,0,0,0,0,0,0,0,
0,0,0,0,0,0,0,0,0,0,0,0,0,0,0,0,
0,0,0,0,0,0,0,0,0,0,0,0,0,0,0,0,
0,0,0,0,0,0,0,0,0,0,0,0,0,0,0,0,
0,0,0,0,0,0,0,0,0,0,0,0,0,0,0,0,
0,0,0,0,0,0,0,0,0,0,0,0,0,0,0,0,
0,0,0,0,0,0,0,0,0,0,0,0,0,0,0,0
</chunk>
   <chunk x="-224" y="544" width="16" height="16">
0,0,2666,2667,2666,2667,2730,2731,0,0,0,0,0,0,0,0,
0,0,2634,2635,2634,2635,2698,2699,0,0,0,0,0,0,0,0,
0,0,2666,2667,2666,2667,2730,2731,0,0,0,0,0,0,0,0,
0,0,2698,2699,2698,2699,2698,2699,0,0,0,0,0,0,0,0,
0,0,2730,2731,2730,2731,2730,2731,0,0,0,0,0,0,0,0,
0,0,2698,2699,2698,2699,2698,2699,0,0,0,0,0,0,0,0,
0,0,2730,2731,2730,2731,2730,2731,0,0,0,0,0,0,0,0,
0,0,0,0,0,0,0,0,0,0,0,0,0,0,0,0,
0,0,0,0,0,0,0,0,0,0,0,0,0,0,0,0,
0,0,0,0,0,0,0,0,0,0,0,0,0,0,0,0,
0,0,0,0,0,0,0,0,0,0,0,0,0,0,0,0,
0,0,0,0,0,0,0,0,0,0,0,0,0,0,0,0,
0,0,0,0,0,0,0,0,0,0,0,0,0,0,0,0,
0,0,0,0,0,0,0,0,0,0,0,0,0,0,0,0,
0,0,0,0,0,0,0,0,0,0,0,0,0,0,0,0,
0,0,0,0,0,0,0,0,0,0,0,0,0,0,0,0
</chunk>
   <chunk x="-192" y="544" width="16" height="16">
2666,2667,2666,2667,2666,2667,2666,2667,2666,2667,2666,2667,0,0,0,0,
2634,2635,2634,2635,2634,2635,0,0,0,0,0,0,0,0,0,0,
2666,2667,2666,2667,2666,2667,0,0,0,0,0,0,0,0,0,0,
2634,2635,2634,2635,2634,2635,0,0,0,0,0,0,0,0,0,0,
2666,2667,2666,2667,2666,2667,0,0,0,0,0,0,0,0,0,0,
2634,2635,2634,2635,2634,2635,0,0,0,0,0,0,0,0,0,0,
2666,2667,2666,2667,2666,2667,0,0,0,0,0,0,0,0,0,0,
2634,2635,2634,2635,2634,2635,0,0,0,0,0,0,0,0,0,0,
2666,2667,2666,2667,2666,2667,0,0,0,0,0,0,0,0,0,0,
2698,2699,2698,2699,2698,2699,0,0,0,0,0,0,0,0,0,0,
2730,2731,2730,2731,2730,2731,0,0,0,0,0,0,0,0,0,0,
2698,2699,2698,2699,2698,2699,0,0,0,0,0,0,0,0,0,0,
2730,2731,2730,2731,2730,2731,0,0,0,0,0,0,0,0,0,0,
0,0,0,0,0,0,0,0,0,0,0,0,0,0,0,0,
0,0,0,0,0,0,0,0,0,0,0,0,0,0,0,0,
0,0,0,0,0,0,0,0,0,0,0,0,0,0,0,0
</chunk>
   <chunk x="-112" y="544" width="16" height="16">
0,0,0,0,0,0,0,0,0,0,0,0,0,0,0,0,
0,0,0,0,0,0,0,0,0,0,0,0,0,0,0,0,
0,0,0,0,0,0,0,0,0,0,0,0,0,0,0,0,
0,0,0,0,0,0,0,0,0,0,0,0,0,0,0,0,
0,0,0,0,0,0,0,0,0,0,0,0,0,0,0,0,
0,0,0,0,0,0,0,0,0,0,0,0,0,0,0,0,
0,0,0,0,0,0,0,0,0,0,0,0,0,0,0,0,
0,0,0,0,0,0,0,0,0,0,10005,10006,10007,10008,10009,10010,
0,0,0,0,0,0,0,0,0,0,10037,10038,10039,10040,10041,10042,
0,0,0,0,0,0,0,0,0,0,10069,10070,10071,10072,10073,10074,
0,0,0,0,0,0,0,0,0,0,10101,10102,10103,10104,10105,10106,
0,0,0,0,0,0,0,0,0,0,10133,10134,10135,10136,10137,10138,
0,0,0,0,0,0,0,0,0,0,10165,10166,10167,10168,10169,10170,
0,0,0,0,0,0,0,0,0,0,0,0,0,0,0,0,
0,0,0,0,0,0,0,0,0,0,0,0,0,0,0,0,
0,0,0,0,0,0,0,0,0,0,0,0,0,0,0,0
</chunk>
   <chunk x="-96" y="544" width="16" height="16">
0,0,0,0,0,0,10165,10166,10167,10168,10169,10170,9973,9974,9975,9976,
10005,10006,10007,10008,10009,10010,9813,9814,9815,9816,9817,9818,10005,10006,10007,10008,
10037,10038,10039,10040,10041,10042,9845,9846,9847,9848,9849,9850,10037,10038,10039,10040,
10069,10070,10071,10072,10073,10074,9877,9878,9879,9880,9881,9882,10069,10070,10071,10072,
10101,10102,10103,10104,10105,10106,9909,9910,9911,9912,9913,9914,10101,10102,10103,10104,
10133,10134,10135,10136,10137,10138,9941,9942,9943,9944,9945,9946,10133,10134,10135,10136,
10165,10166,10167,10168,10169,10170,9973,9974,9975,9976,9977,9978,10165,10166,10167,10168,
9813,9814,9815,9816,9817,9818,10005,10006,10007,10008,10009,10010,9801,9802,9803,9804,
9845,9846,9847,9848,9849,9850,10037,10038,10039,10040,10041,10042,9833,9834,9835,9836,
9877,9878,9879,9880,9881,9882,10069,10070,10071,10072,10073,10074,9865,9866,9867,9868,
9909,9910,9911,9912,9913,9914,10101,10102,10103,10104,10105,10106,9897,9898,9899,9900,
9941,9942,9943,9944,9945,9946,10133,10134,10135,10136,10137,10138,9929,9930,9931,9932,
9973,9974,9975,9976,9977,9978,10165,10166,10167,10168,10169,10170,9961,9962,9963,9964,
0,0,0,0,0,0,0,0,0,0,0,0,0,0,0,0,
0,0,0,0,0,0,0,0,0,0,0,0,0,0,0,0,
0,0,0,0,0,0,0,0,0,0,0,0,0,0,0,0
</chunk>
   <chunk x="-80" y="544" width="16" height="16">
9977,9978,10165,10166,10167,10168,10169,10170,9973,9974,9975,9976,9977,9978,10165,10166,
10009,10010,9801,9802,9803,9804,9805,9806,10005,10006,10007,10008,10009,10010,9813,9814,
10041,10042,9833,9834,9835,9836,9837,9838,10037,10038,10039,10040,10041,10042,9845,9846,
10073,10074,9865,9866,9867,9868,9869,9870,10069,10070,10071,10072,10073,10074,9877,9878,
10105,10106,9897,9898,9899,9900,9901,9902,10101,10102,10103,10104,10105,10106,9909,9910,
10137,10138,9929,9930,9931,9932,9933,9934,10133,10134,10135,10136,10137,10138,9941,9942,
10169,10170,9961,9962,9963,9964,9965,9966,10165,10166,10167,10168,10169,10170,9973,9974,
9805,9806,9993,9994,9995,9996,9997,9998,9801,9802,9803,9804,9805,9806,10005,10006,
9837,9838,10025,10026,10027,10028,10029,10030,9833,9834,9835,9836,9837,9838,10037,10038,
9869,9870,10057,10058,10059,10060,10061,10062,9865,9866,9867,9868,9869,9870,10069,10070,
9901,9902,10089,10090,10091,10092,10093,10094,9897,9898,9899,9900,9901,9902,10101,10102,
9933,9934,10121,10122,10123,10124,10125,10126,9929,9930,9931,9932,9933,9934,10133,10134,
9965,9966,10153,10154,10155,10156,10157,10158,9961,9962,9963,9964,9965,9966,10165,10166,
0,0,0,0,0,0,0,0,0,0,0,0,0,0,0,0,
0,0,0,0,0,0,0,0,0,0,0,0,0,0,0,0,
0,0,0,0,0,0,0,0,0,0,0,0,0,0,0,0
</chunk>
   <chunk x="-64" y="544" width="16" height="16">
10167,10168,10169,10170,9961,9962,9963,9964,9965,9966,10153,10154,10155,10156,10157,10158,
9815,9816,9817,9818,9993,9994,9995,9996,9997,9998,9813,9814,9815,9816,9817,9818,
9847,9848,9849,9850,10025,10026,10027,10028,10029,10030,9845,9846,9847,9848,9849,9850,
9879,9880,9881,9882,10057,10058,10059,10060,10061,10062,9877,9878,9879,9880,9881,9882,
9911,9912,9913,9914,10089,10090,10091,10092,10093,10094,9909,9910,9911,9912,9913,9914,
9943,9944,9945,9946,10121,10122,10123,10124,10125,10126,9941,9942,9943,9944,9945,9946,
9975,9976,9977,9978,10153,10154,10155,10156,10157,10158,9973,9974,9975,9976,9977,9978,
10007,10008,10009,10010,9801,9802,9803,9804,9805,9806,10005,10006,10007,10008,10009,10010,
10039,10040,10041,10042,9833,9834,9835,9836,9837,9838,10037,10038,10039,10040,10041,10042,
10071,10072,10073,10074,9865,9866,9867,9868,9869,9870,10069,10070,10071,10072,10073,10074,
10103,10104,10105,10106,9897,9898,9899,9900,9901,9902,10101,10102,10103,10104,10105,10106,
10135,10136,10137,10138,9929,9930,9931,9932,9933,9934,10133,10134,10135,10136,10137,10138,
10167,10168,10169,10170,9961,9962,9963,9964,9965,9966,10165,10166,10167,10168,10169,10170,
0,0,0,0,0,0,0,0,0,0,0,0,0,0,0,0,
0,0,0,0,0,0,0,0,0,0,0,0,0,0,0,0,
0,0,0,0,0,0,0,0,0,0,0,0,0,0,0,0
</chunk>
   <chunk x="-48" y="544" width="16" height="16">
9973,9974,9975,9976,9977,9978,10165,10166,10167,10168,10169,10170,9973,9974,9975,9976,
10005,10006,10007,10008,10009,10010,9813,9814,9815,9816,9817,9818,10005,10006,10007,10008,
10037,10038,10039,10040,10041,10042,9845,9846,9847,9848,9849,9850,10037,10038,10039,10040,
10069,10070,10071,10072,10073,10074,9877,9878,9879,9880,9881,9882,10069,10070,10071,10072,
10101,10102,10103,10104,10105,10106,9909,9910,9911,9912,9913,9914,10101,10102,10103,10104,
10133,10134,10135,10136,10137,10138,9941,9942,9943,9944,9945,9946,10133,10134,10135,10136,
10165,10166,10167,10168,10169,10170,9973,9974,9975,9976,9977,9978,10165,10166,10167,10168,
9813,9814,9815,9816,9817,9818,10005,10006,10007,10008,10009,10010,9801,9802,9803,9804,
9845,9846,9847,9848,9849,9850,10037,10038,10039,10040,10041,10042,9833,9834,9835,9836,
9877,9878,9879,9880,9881,9882,10069,10070,10071,10072,10073,10074,9865,9866,9867,9868,
9909,9910,9911,9912,9913,9914,10101,10102,10103,10104,10105,10106,9897,9898,9899,9900,
9941,9942,9943,9944,9945,9946,10133,10134,10135,10136,10137,10138,9929,9930,9931,9932,
9973,9974,9975,9976,9977,9978,10165,10166,10167,10168,10169,10170,9961,9962,9963,9964,
0,0,0,0,0,0,0,0,0,0,0,0,0,0,0,0,
0,0,0,0,0,0,0,0,0,0,0,0,0,0,0,0,
0,0,0,0,0,0,0,0,0,0,0,0,0,0,0,0
</chunk>
   <chunk x="-32" y="544" width="16" height="16">
9977,9978,10153,10154,10155,10156,10157,10158,9961,9962,9963,9964,9965,9966,0,0,
10009,10010,9801,9802,9803,9804,9805,9806,9993,9994,9995,9996,9997,9998,9801,9802,
10041,10042,9833,9834,9835,9836,9837,9838,10025,10026,10027,10028,10029,10030,9833,9834,
10073,10074,9865,9866,9867,9868,9869,9870,10057,10058,10059,10060,10061,10062,9865,9866,
10105,10106,9897,9898,9899,9900,9901,9902,10089,10090,10091,10092,10093,10094,9897,9898,
10137,10138,9929,9930,9931,9932,9933,9934,10121,10122,10123,10124,10125,10126,9929,9930,
10169,10170,9961,9962,9963,9964,9965,9966,10153,10154,10155,10156,10157,10158,9961,9962,
9805,9806,9993,9994,9995,9996,9997,9998,9801,9802,9803,9804,9805,9806,0,0,
9837,9838,10025,10026,10027,10028,10029,10030,9833,9834,9835,9836,9837,9838,0,0,
9869,9870,10057,10058,10059,10060,10061,10062,9865,9866,9867,9868,9869,9870,0,0,
9901,9902,10089,10090,10091,10092,10093,10094,9897,9898,9899,9900,9901,9902,0,0,
9933,9934,10121,10122,10123,10124,10125,10126,9929,9930,9931,9932,9933,9934,0,0,
9965,9966,10153,10154,10155,10156,10157,10158,9961,9962,9963,9964,9965,9966,0,0,
0,0,0,0,0,0,0,0,0,0,0,0,0,0,0,0,
0,0,0,0,0,0,0,0,0,0,0,0,0,0,0,0,
0,0,0,0,0,0,0,0,0,0,0,0,0,0,0,0
</chunk>
   <chunk x="-16" y="544" width="16" height="16">
0,0,0,0,9973,9974,9975,9976,9977,9978,10165,10166,10167,10168,10169,10170,
9803,9804,9805,9806,9993,9994,9995,9996,9997,9998,9813,9814,9815,9816,9817,9818,
9835,9836,9837,9838,10025,10026,10027,10028,10029,10030,9845,9846,9847,9848,9849,9850,
9867,9868,9869,9870,10057,10058,10059,10060,10061,10062,9877,9878,9879,9880,9881,9882,
9899,9900,9901,9902,10089,10090,10091,10092,10093,10094,9909,9910,9911,9912,9913,9914,
9931,9932,9933,9934,10121,10122,10123,10124,10125,10126,9941,9942,9943,9944,9945,9946,
9963,9964,9965,9966,10153,10154,10155,10156,10157,10158,9973,9974,9975,9976,9977,9978,
0,0,0,0,9801,9802,9803,9804,9805,9806,9993,9994,9995,9996,9997,9998,
0,0,0,0,9833,9834,9835,9836,9837,9838,10025,10026,10027,10028,10029,10030,
0,0,0,0,9865,9866,9867,9868,9869,9870,10057,10058,10059,10060,10061,10062,
0,0,0,0,9897,9898,9899,9900,9901,9902,10089,10090,10091,10092,10093,10094,
0,0,0,0,9929,9930,9931,9932,9933,9934,10121,10122,10123,10124,10125,10126,
0,0,0,0,9961,9962,9963,9964,9965,9966,10153,10154,10155,10156,10157,10158,
0,0,0,0,0,0,0,0,0,0,0,0,0,0,0,0,
0,0,0,0,0,0,0,0,0,0,0,0,0,0,0,0,
0,0,0,0,0,0,0,0,0,0,0,0,0,0,0,0
</chunk>
   <chunk x="0" y="544" width="16" height="16">
9973,9974,9975,9976,9977,9978,10153,10154,10155,10156,10157,10158,9961,9962,9963,9964,
10005,10006,10007,10008,10009,10010,9813,9814,9815,9816,9817,9818,9993,9994,9995,9996,
10037,10038,10039,10040,10041,10042,9845,9846,9847,9848,9849,9850,10025,10026,10027,10028,
10069,10070,10071,10072,10073,10074,9877,9878,9879,9880,9881,9882,10057,10058,10059,10060,
10101,10102,10103,10104,10105,10106,9909,9910,9911,9912,9913,9914,10089,10090,10091,10092,
10133,10134,10135,10136,10137,10138,9941,9942,9943,9944,9945,9946,10121,10122,10123,10124,
10165,10166,10167,10168,10169,10170,9973,9974,9975,9976,9977,9978,10153,10154,10155,10156,
9813,9814,9815,9816,9817,9818,10005,10006,10007,10008,10009,10010,9813,9814,9815,9816,
9845,9846,9847,9848,9849,9850,10037,10038,10039,10040,10041,10042,9845,9846,9847,9848,
9877,9878,9879,9880,9881,9882,10069,10070,10071,10072,10073,10074,9877,9878,9879,9880,
9909,9910,9911,9912,9913,9914,10101,10102,10103,10104,10105,10106,9909,9910,9911,9912,
9941,9942,9943,9944,9945,9946,10133,10134,10135,10136,10137,10138,9941,9942,9943,9944,
9973,9974,9975,9976,9977,9978,10165,10166,10167,10168,10169,10170,9973,9974,9975,9976,
0,0,0,0,0,0,0,0,0,0,0,0,0,0,0,0,
0,0,0,0,0,0,0,0,0,0,0,0,0,0,0,0,
0,0,0,0,0,0,0,0,0,0,0,0,0,0,0,0
</chunk>
   <chunk x="16" y="544" width="16" height="16">
9965,9966,10165,10166,10167,10168,10169,10170,9973,9974,9975,9976,9977,9978,10165,10166,
9997,9998,9813,9814,9815,9816,9817,9818,10005,10006,10007,10008,10009,10010,9813,9814,
10029,10030,9845,9846,9847,9848,9849,9850,10037,10038,10039,10040,10041,10042,9845,9846,
10061,10062,9877,9878,9879,9880,9881,9882,10069,10070,10071,10072,10073,10074,9877,9878,
10093,10094,9909,9910,9911,9912,9913,9914,10101,10102,10103,10104,10105,10106,9909,9910,
10125,10126,9941,9942,9943,9944,9945,9946,10133,10134,10135,10136,10137,10138,9941,9942,
10157,10158,9973,9974,9975,9976,9977,9978,10165,10166,10167,10168,10169,10170,9973,9974,
9817,9818,10005,10006,10007,10008,10009,10010,9813,9814,9815,9816,9817,9818,10005,10006,
9849,9850,10037,10038,10039,10040,10041,10042,9845,9846,9847,9848,9849,9850,10037,10038,
9881,9882,10069,10070,10071,10072,10073,10074,9877,9878,9879,9880,9881,9882,10069,10070,
9913,9914,10101,10102,10103,10104,10105,10106,9909,9910,9911,9912,9913,9914,10101,10102,
9945,9946,10133,10134,10135,10136,10137,10138,9941,9942,9943,9944,9945,9946,10133,10134,
9977,9978,10165,10166,10167,10168,10169,10170,9973,9974,9975,9976,9977,9978,10165,10166,
0,0,0,0,0,0,0,0,0,0,0,0,0,0,0,0,
0,0,0,0,0,0,0,0,0,0,0,0,0,0,0,0,
0,0,0,0,0,0,0,0,0,0,0,0,0,0,0,0
</chunk>
   <chunk x="32" y="544" width="16" height="16">
10167,10168,10169,10170,9961,9962,9963,9964,9965,9966,10153,10154,10155,10156,10157,10158,
9815,9816,9817,9818,9993,9994,9995,9996,9997,9998,0,0,0,0,0,0,
9847,9848,9849,9850,10025,10026,10027,10028,10029,10030,0,0,0,0,0,0,
9879,9880,9881,9882,10057,10058,10059,10060,10061,10062,0,0,0,0,0,0,
9911,9912,9913,9914,10089,10090,10091,10092,10093,10094,0,0,0,0,0,0,
9943,9944,9945,9946,10121,10122,10123,10124,10125,10126,0,0,0,0,0,0,
9975,9976,9977,9978,10153,10154,10155,10156,10157,10158,0,0,0,0,0,0,
10007,10008,10009,10010,9801,9802,9803,9804,9805,9806,9999,10000,10001,10002,10003,10004,
10039,10040,10041,10042,9833,9834,9835,9836,9837,9838,10031,10032,10033,10034,10035,10036,
10071,10072,10073,10074,9865,9866,9867,9868,9869,9870,10063,10064,10065,10066,10067,10068,
10103,10104,10105,10106,9897,9898,9899,9900,9901,9902,10095,10096,10097,10098,10099,10100,
10135,10136,10137,10138,9929,9930,9931,9932,9933,9934,10127,10128,10129,10130,10131,10132,
10167,10168,10169,10170,9961,9962,9963,9964,9965,9966,10159,10160,10161,10162,10163,10164,
0,0,0,0,0,0,0,0,0,0,0,0,0,0,0,0,
0,0,0,0,0,0,0,0,0,0,0,0,0,0,0,0,
0,0,0,0,0,0,0,0,0,0,0,0,0,0,0,0
</chunk>
   <chunk x="48" y="544" width="16" height="16">
10153,10154,10155,10156,10157,10158,9961,9962,9963,9964,9965,9966,0,0,0,0,
9801,9802,9803,9804,9805,9806,9993,9994,9995,9996,9997,9998,9801,9802,9803,9804,
9833,9834,9835,9836,9837,9838,10025,10026,10027,10028,10029,10030,9833,9834,9835,9836,
9865,9866,9867,9868,9869,9870,10057,10058,10059,10060,10061,10062,9865,9866,9867,9868,
9897,9898,9899,9900,9901,9902,10089,10090,10091,10092,10093,10094,9897,9898,9899,9900,
9929,9930,9931,9932,9933,9934,10121,10122,10123,10124,10125,10126,9929,9930,9931,9932,
9961,9962,9963,9964,9965,9966,10153,10154,10155,10156,10157,10158,9961,9962,9963,9964,
9993,9994,9995,9996,9997,9998,9801,9802,9803,9804,9805,9806,9993,9994,9995,9996,
10025,10026,10027,10028,10029,10030,9833,9834,9835,9836,9837,9838,10025,10026,10027,10028,
10057,10058,10059,10060,10061,10062,9865,9866,9867,9868,9869,9870,10057,10058,10059,10060,
10089,10090,10091,10092,10093,10094,9897,9898,9899,9900,9901,9902,10089,10090,10091,10092,
10121,10122,10123,10124,10125,10126,9929,9930,9931,9932,9933,9934,10121,10122,10123,10124,
10153,10154,10155,10156,10157,10158,9961,9962,9963,9964,9965,9966,10153,10154,10155,10156,
0,0,0,0,0,0,0,0,0,0,0,0,0,0,0,0,
0,0,0,0,0,0,0,0,0,0,0,0,0,0,0,0,
0,0,0,0,0,0,0,0,0,0,0,0,0,0,0,0
</chunk>
   <chunk x="64" y="544" width="16" height="16">
0,0,0,0,0,0,0,0,0,0,0,0,0,0,0,0,
9805,9806,0,0,0,0,0,0,0,0,0,0,0,0,0,0,
9837,9838,0,0,0,0,0,0,0,0,0,0,0,0,0,0,
9869,9870,0,0,0,0,0,0,0,0,0,0,0,0,0,0,
9901,9902,0,0,0,0,0,0,0,0,0,0,0,0,0,0,
9933,9934,0,0,0,0,0,0,0,0,0,0,0,0,0,0,
9965,9966,0,0,0,0,0,0,0,0,0,0,0,0,0,0,
9997,9998,9801,9802,9803,9804,9805,9806,0,0,0,0,0,0,0,0,
10029,10030,9833,9834,9835,9836,9837,9838,0,0,0,0,0,0,0,0,
10061,10062,9865,9866,9867,9868,9869,9870,0,0,0,0,0,0,0,0,
10093,10094,9897,9898,9899,9900,9901,9902,0,0,0,0,0,0,0,0,
10125,10126,9929,9930,9931,9932,9933,9934,0,0,0,0,0,0,0,0,
10157,10158,9961,9962,9963,9964,9965,9966,0,0,0,0,0,0,0,0,
0,0,0,0,0,0,0,0,0,0,0,0,0,0,0,0,
0,0,0,0,0,0,0,0,0,0,0,0,0,0,0,0,
0,0,0,0,0,0,0,0,0,0,0,0,0,0,0,0
</chunk>
   <chunk x="80" y="544" width="16" height="16">
0,0,0,0,9961,9962,9963,9964,9965,9966,0,0,0,0,0,0,
0,0,0,0,0,0,0,0,0,0,9801,9802,9803,9804,9805,9806,
0,0,0,0,0,0,0,0,0,0,9833,9834,9835,9836,9837,9838,
0,0,0,0,0,0,0,0,0,0,9865,9866,9867,9868,9869,9870,
0,0,0,0,0,0,0,0,0,0,9897,9898,9899,9900,9901,9902,
0,0,0,0,0,0,0,0,0,0,9929,9930,9931,9932,9933,9934,
0,0,0,0,0,0,0,0,0,0,9961,9962,9963,9964,9965,9966,
0,0,0,0,0,0,0,0,0,0,0,0,0,0,0,0,
0,0,0,0,0,0,0,0,0,0,0,0,0,0,0,0,
0,0,0,0,0,0,0,0,0,0,0,0,0,0,0,0,
0,0,0,0,0,0,0,0,0,0,0,0,0,0,0,0,
0,0,0,0,0,0,0,0,0,0,0,0,0,0,0,0,
0,0,0,0,0,0,0,0,0,0,0,0,0,0,0,0,
0,0,0,0,0,0,0,0,0,0,0,0,0,0,0,0,
0,0,0,0,0,0,0,0,0,0,0,0,0,0,0,0,
0,0,0,0,0,0,0,0,0,0,0,0,0,0,0,0
</chunk>
   <chunk x="96" y="544" width="16" height="16">
9973,9974,9975,9976,9977,9978,10165,10166,10167,10168,10169,10170,9973,9974,9975,9976,
10005,10006,10007,10008,10009,10010,9813,9814,9815,9816,9817,9818,10005,10006,10007,10008,
10037,10038,10039,10040,10041,10042,9845,9846,9847,9848,9849,9850,10037,10038,10039,10040,
10069,10070,10071,10072,10073,10074,9877,9878,9879,9880,9881,9882,10069,10070,10071,10072,
10101,10102,10103,10104,10105,10106,9909,9910,9911,9912,9913,9914,10101,10102,10103,10104,
10133,10134,10135,10136,10137,10138,9941,9942,9943,9944,9945,9946,10133,10134,10135,10136,
10165,10166,10167,10168,10169,10170,9973,9974,9975,9976,9977,9978,10165,10166,10167,10168,
9813,9814,9815,9816,9817,9818,10005,10006,10007,10008,10009,10010,9813,9814,9815,9816,
9845,9846,9847,9848,9849,9850,10037,10038,10039,10040,10041,10042,9845,9846,9847,9848,
9877,9878,9879,9880,9881,9882,10069,10070,10071,10072,10073,10074,9877,9878,9879,9880,
9909,9910,9911,9912,9913,9914,10101,10102,10103,10104,10105,10106,9909,9910,9911,9912,
9941,9942,9943,9944,9945,9946,10133,10134,10135,10136,10137,10138,9941,9942,9943,9944,
9973,9974,9975,9976,9977,9978,10165,10166,10167,10168,10169,10170,9973,9974,9975,9976,
0,0,0,0,0,0,0,0,0,0,0,0,0,0,0,0,
0,0,0,0,0,0,0,0,0,0,0,0,0,0,0,0,
0,0,0,0,0,0,0,0,0,0,0,0,0,0,0,0
</chunk>
   <chunk x="112" y="544" width="16" height="16">
9977,9978,10165,10166,10167,10168,10169,10170,9973,9974,9975,9976,9977,9978,10153,10154,
10009,10010,9813,9814,9815,9816,9817,9818,10005,10006,10007,10008,10009,10010,9801,9802,
10041,10042,9845,9846,9847,9848,9849,9850,10037,10038,10039,10040,10041,10042,9833,9834,
10073,10074,9877,9878,9879,9880,9881,9882,10069,10070,10071,10072,10073,10074,9865,9866,
10105,10106,9909,9910,9911,9912,9913,9914,10101,10102,10103,10104,10105,10106,9897,9898,
10137,10138,9941,9942,9943,9944,9945,9946,10133,10134,10135,10136,10137,10138,9929,9930,
10169,10170,9973,9974,9975,9976,9977,9978,10165,10166,10167,10168,10169,10170,9961,9962,
9817,9818,10005,10006,10007,10008,10009,10010,9813,9814,9815,9816,9817,9818,9993,9994,
9849,9850,10037,10038,10039,10040,10041,10042,9845,9846,9847,9848,9849,9850,10025,10026,
9881,9882,10069,10070,10071,10072,10073,10074,9877,9878,9879,9880,9881,9882,10057,10058,
9913,9914,10101,10102,10103,10104,10105,10106,9909,9910,9911,9912,9913,9914,10089,10090,
9945,9946,10133,10134,10135,10136,10137,10138,9941,9942,9943,9944,9945,9946,10121,10122,
9977,9978,10165,10166,10167,10168,10169,10170,9973,9974,9975,9976,9977,9978,10153,10154,
0,0,0,0,0,0,0,0,0,0,0,0,0,0,0,0,
0,0,0,0,0,0,0,0,0,0,0,0,0,0,0,0,
0,0,0,0,0,0,0,0,0,0,0,0,0,0,0,0
</chunk>
   <chunk x="128" y="544" width="16" height="16">
10155,10156,10157,10158,9961,9962,9963,9964,9965,9966,10153,10154,10155,10156,10157,10158,
9803,9804,9805,9806,9993,9994,9995,9996,9997,9998,9801,9802,9803,9804,9805,9806,
9835,9836,9837,9838,10025,10026,10027,10028,10029,10030,9833,9834,9835,9836,9837,9838,
9867,9868,9869,9870,10057,10058,10059,10060,10061,10062,9865,9866,9867,9868,9869,9870,
9899,9900,9901,9902,10089,10090,10091,10092,10093,10094,9897,9898,9899,9900,9901,9902,
9931,9932,9933,9934,10121,10122,10123,10124,10125,10126,9929,9930,9931,9932,9933,9934,
9963,9964,9965,9966,10153,10154,10155,10156,10157,10158,9961,9962,9963,9964,9965,9966,
9995,9996,9997,9998,9801,9802,9803,9804,9805,9806,9993,9994,9995,9996,9997,9998,
10027,10028,10029,10030,9833,9834,9835,9836,9837,9838,10025,10026,10027,10028,10029,10030,
10059,10060,10061,10062,9865,9866,9867,9868,9869,9870,10057,10058,10059,10060,10061,10062,
10091,10092,10093,10094,9897,9898,9899,9900,9901,9902,10089,10090,10091,10092,10093,10094,
10123,10124,10125,10126,9929,9930,9931,9932,9933,9934,10121,10122,10123,10124,10125,10126,
10155,10156,10157,10158,9961,9962,9963,9964,9965,9966,10153,10154,10155,10156,10157,10158,
0,0,0,0,0,0,0,0,0,0,0,0,0,0,0,0,
0,0,0,0,0,0,0,0,0,0,0,0,0,0,0,0,
0,0,0,0,0,0,0,0,0,0,0,0,0,0,0,0
</chunk>
   <chunk x="144" y="544" width="16" height="16">
9961,9962,9963,9964,9965,9966,0,0,0,0,0,0,0,0,0,0,
9993,9994,9995,9996,9997,9998,0,0,0,0,0,0,0,0,0,0,
10025,10026,10027,10028,10029,10030,0,0,0,0,0,0,0,0,0,0,
10057,10058,10059,10060,10061,10062,0,0,0,0,0,0,0,0,0,0,
10089,10090,10091,10092,10093,10094,0,0,0,0,0,0,0,0,0,0,
10121,10122,10123,10124,10125,10126,0,0,0,0,0,0,0,0,0,0,
10153,10154,10155,10156,10157,10158,0,0,0,0,0,0,0,0,0,0,
9801,9802,9803,9804,9805,9806,0,0,0,0,0,0,0,0,0,0,
9833,9834,9835,9836,9837,9838,0,0,0,0,0,0,0,0,0,0,
9865,9866,9867,9868,9869,9870,0,0,0,0,0,0,0,0,0,0,
9897,9898,9899,9900,9901,9902,0,0,0,0,0,0,0,0,0,0,
9929,9930,9931,9932,9933,9934,0,0,0,0,0,0,0,0,0,0,
9961,9962,9963,9964,9965,9966,0,0,0,0,0,0,0,0,0,0,
0,0,0,0,0,0,0,0,0,0,0,0,0,0,0,0,
0,0,0,0,0,0,0,0,0,0,0,0,0,0,0,0,
0,0,0,0,0,0,0,0,0,0,0,0,0,0,0,0
</chunk>
  </data>
 </layer>
</map>
