<?xml version="1.0" encoding="UTF-8"?>
<map version="1.10" tiledversion="1.11.2" orientation="orthogonal" renderorder="right-down" width="100" height="100" tilewidth="4" tileheight="4" infinite="1" nextlayerid="4" nextobjectid="3">
 <tileset firstgid="1" source="C2-Overworld-Ref.tsx"/>
 <tileset firstgid="6" source="../../_Tilesets/Original/1.tsx"/>
 <tileset firstgid="1030" source="../../_Tilesets/Original/16.tsx"/>
 <layer id="1" name="Ref" width="100" height="100" opacity="0.4">
  <data encoding="csv">
   <chunk x="-96" y="96" width="16" height="16">
0,0,0,0,0,0,0,0,0,0,0,0,0,0,0,0,
0,0,0,0,0,0,0,0,0,0,0,0,0,0,0,0,
0,0,0,0,0,0,0,0,0,0,0,0,0,0,0,0,
0,0,0,0,0,0,0,0,0,0,0,0,0,0,0,0,
0,0,0,0,0,0,0,0,0,0,0,0,0,0,0,0,
0,0,0,0,0,0,0,0,0,0,0,0,0,0,0,0,
0,0,0,0,0,0,0,0,0,0,0,0,0,0,0,0,
0,0,0,0,0,0,0,0,0,0,0,0,0,0,0,0,
0,0,0,0,0,0,0,0,0,0,0,0,0,0,0,0,
0,0,0,0,0,0,0,0,0,0,0,0,0,0,0,0,
0,0,0,0,0,0,0,0,0,0,0,0,0,0,0,0,
0,0,0,0,0,0,0,0,0,0,0,0,3,0,0,0,
0,0,0,0,0,0,0,0,0,0,0,0,0,0,0,0,
0,0,0,0,0,0,0,0,0,0,0,0,0,0,0,0,
0,0,0,0,0,0,0,0,0,0,0,0,0,0,0,0,
0,0,0,0,0,0,0,0,0,0,0,0,0,0,0,0
</chunk>
  </data>
 </layer>
 <layer id="3" name="Base" width="100" height="100">
  <data encoding="csv">
   <chunk x="-64" y="-128" width="16" height="16">
0,0,0,0,0,0,0,0,0,0,0,0,0,0,0,0,
0,0,0,0,0,0,0,0,0,0,0,0,0,0,0,0,
0,0,0,0,0,0,0,0,0,0,0,0,0,0,0,0,
0,0,0,0,0,0,0,0,0,0,0,0,0,0,0,0,
0,0,0,0,0,0,0,0,0,0,0,0,0,0,0,0,
0,0,0,0,0,0,0,0,0,0,0,0,0,0,0,0,
0,0,0,0,0,0,0,0,0,0,0,0,0,0,0,0,
0,0,0,0,0,0,0,0,0,0,0,0,0,0,0,0,
0,0,0,0,0,0,0,0,0,0,0,0,0,0,0,0,
0,0,0,0,0,0,0,0,0,0,0,0,0,0,0,0,
0,0,0,0,0,0,0,0,0,0,0,0,0,0,0,0,
0,0,0,0,0,0,0,0,0,0,0,0,0,0,0,0,
0,0,0,0,0,0,0,0,0,0,0,0,0,0,0,0,
0,0,0,0,0,0,0,0,0,0,0,0,0,0,0,0,
0,0,0,0,0,0,0,0,16,17,12,13,14,15,16,17,
0,0,0,0,0,0,0,0,48,49,44,45,46,47,48,49
</chunk>
   <chunk x="-48" y="-128" width="16" height="16">
0,0,0,0,0,0,0,0,0,0,0,0,0,0,0,0,
0,0,0,0,0,0,0,0,0,0,0,0,0,0,0,0,
0,0,0,0,0,0,0,0,0,0,0,0,0,0,0,0,
0,0,0,0,0,0,0,0,0,0,0,0,0,0,0,0,
0,0,0,0,0,0,0,0,0,0,0,0,0,0,0,0,
0,0,0,0,0,0,0,0,0,0,0,0,0,0,0,0,
0,0,0,0,0,0,0,0,0,0,0,0,0,0,0,0,
0,0,0,0,0,0,0,0,0,0,0,0,0,0,0,0,
0,0,0,0,0,0,0,0,0,0,0,0,0,0,0,0,
0,0,0,0,0,0,0,0,0,0,0,0,0,0,0,0,
0,0,0,0,0,0,0,0,0,0,0,0,0,0,0,0,
0,0,0,0,0,0,0,0,0,0,0,0,0,0,0,0,
0,0,0,0,0,0,0,0,0,0,0,0,0,0,0,0,
0,0,0,0,0,0,0,0,0,0,0,0,0,0,0,0,
12,13,14,15,16,17,12,13,14,15,0,0,774,775,776,777,
44,45,46,47,48,49,44,45,46,47,0,0,806,807,808,809
</chunk>
   <chunk x="-32" y="-128" width="16" height="16">
0,0,0,0,0,0,0,0,0,0,0,0,0,0,0,0,
0,0,0,0,0,0,0,0,0,0,0,0,0,0,0,0,
0,0,0,0,0,0,0,0,0,0,0,0,0,0,0,0,
0,0,0,0,0,0,0,0,0,0,0,0,0,0,0,0,
0,0,0,0,0,0,0,0,0,0,0,0,0,0,0,0,
0,0,0,0,0,0,0,0,0,0,0,0,0,0,0,0,
0,0,0,0,0,0,0,0,0,0,0,0,0,0,0,0,
0,0,0,0,0,0,0,0,0,0,0,0,0,0,0,0,
0,0,0,0,0,0,0,0,0,0,0,0,0,0,0,0,
0,0,0,0,0,0,0,0,0,0,0,0,0,0,0,0,
0,0,0,0,0,0,0,0,0,0,0,0,0,0,0,0,
0,0,0,0,0,0,0,0,0,0,0,0,0,0,0,0,
0,0,0,0,0,0,0,0,0,0,0,0,0,0,0,0,
0,0,0,0,0,0,0,0,0,0,0,0,0,0,0,0,
0,0,774,775,776,777,0,0,0,0,0,0,0,0,0,0,
0,0,806,807,808,809,0,0,0,0,0,0,0,0,0,0
</chunk>
   <chunk x="-16" y="-128" width="16" height="16">
0,0,0,0,0,0,0,0,0,0,0,0,0,0,0,0,
0,0,0,0,0,0,0,0,0,0,0,0,0,0,0,0,
0,0,0,0,0,0,0,0,0,0,0,0,0,0,0,0,
0,0,0,0,0,0,0,0,0,0,0,0,0,0,0,0,
0,0,0,0,0,0,0,0,0,0,0,0,0,0,0,0,
0,0,0,0,0,0,0,0,0,0,0,0,0,0,0,0,
0,0,0,0,0,0,0,0,0,0,0,0,0,0,0,0,
0,0,0,0,0,0,0,0,0,0,0,0,0,0,0,0,
0,0,0,0,0,0,0,0,0,0,0,0,0,0,0,0,
0,0,0,0,0,0,0,0,0,0,0,0,0,0,0,0,
0,0,0,0,0,0,0,0,0,0,0,0,0,0,0,0,
0,0,0,0,0,0,0,0,0,0,0,0,0,0,0,0,
0,0,0,0,0,0,0,0,0,0,0,0,0,0,0,0,
0,0,0,0,0,0,0,0,0,0,0,0,0,0,0,0,
0,0,0,0,778,779,780,781,0,0,778,779,780,781,0,0,
0,0,0,0,810,811,812,813,0,0,810,811,812,813,0,0
</chunk>
   <chunk x="0" y="-128" width="16" height="16">
0,0,0,0,0,0,0,0,0,0,0,0,0,0,0,0,
0,0,0,0,0,0,0,0,0,0,0,0,0,0,0,0,
0,0,0,0,0,0,0,0,0,0,0,0,0,0,0,0,
0,0,0,0,0,0,0,0,0,0,0,0,0,0,0,0,
0,0,0,0,0,0,0,0,0,0,0,0,0,0,0,0,
0,0,0,0,0,0,0,0,0,0,0,0,0,0,0,0,
0,0,0,0,0,0,0,0,0,0,0,0,0,0,0,0,
0,0,0,0,0,0,0,0,0,0,0,0,0,0,0,0,
0,0,0,0,0,0,0,0,0,0,0,0,0,0,0,0,
0,0,0,0,0,0,0,0,0,0,0,0,0,0,0,0,
0,0,0,0,0,0,0,0,0,0,0,0,0,0,0,0,
0,0,0,0,0,0,0,0,0,0,0,0,0,0,0,0,
0,0,0,0,0,0,0,0,0,0,0,0,0,0,0,0,
0,0,0,0,0,0,0,0,0,0,0,0,0,0,0,0,
0,0,0,0,0,0,6,7,8,9,10,11,6,7,8,9,
0,0,0,0,0,0,38,39,40,41,42,43,38,39,40,41
</chunk>
   <chunk x="16" y="-128" width="16" height="16">
0,0,0,0,0,0,0,0,0,0,0,0,0,0,0,0,
0,0,0,0,0,0,0,0,0,0,0,0,0,0,0,0,
0,0,0,0,0,0,0,0,0,0,0,0,0,0,0,0,
0,0,0,0,0,0,0,0,0,0,0,0,0,0,0,0,
0,0,0,0,0,0,0,0,0,0,0,0,0,0,0,0,
0,0,0,0,0,0,0,0,0,0,0,0,0,0,0,0,
0,0,0,0,0,0,0,0,0,0,0,0,0,0,0,0,
0,0,0,0,0,0,0,0,0,0,0,0,0,0,0,0,
0,0,0,0,0,0,0,0,0,0,0,0,0,0,0,0,
0,0,0,0,0,0,0,0,0,0,0,0,0,0,0,0,
0,0,0,0,0,0,0,0,0,0,0,0,0,0,0,0,
0,0,0,0,0,0,0,0,0,0,0,0,0,0,0,0,
0,0,0,0,0,0,0,0,0,0,0,0,0,0,0,0,
0,0,0,0,0,0,0,0,0,0,0,0,0,0,0,0,
10,11,6,7,8,9,10,11,6,7,8,9,10,11,6,7,
42,43,38,39,40,41,42,43,38,39,40,41,42,43,38,39
</chunk>
   <chunk x="32" y="-128" width="16" height="16">
0,0,0,0,0,0,0,0,0,0,0,0,0,0,0,0,
0,0,0,0,0,0,0,0,0,0,0,0,0,0,0,0,
0,0,0,0,0,0,0,0,0,0,0,0,0,0,0,0,
0,0,0,0,0,0,0,0,0,0,0,0,0,0,0,0,
0,0,0,0,0,0,0,0,0,0,0,0,0,0,0,0,
0,0,0,0,0,0,0,0,0,0,0,0,0,0,0,0,
0,0,0,0,0,0,0,0,0,0,0,0,0,0,0,0,
0,0,0,0,0,0,0,0,0,0,0,0,0,0,0,0,
0,0,0,0,0,0,0,0,0,0,0,0,0,0,0,0,
0,0,0,0,0,0,0,0,0,0,0,0,0,0,0,0,
0,0,0,0,0,0,0,0,0,0,0,0,0,0,0,0,
0,0,0,0,0,0,0,0,0,0,0,0,0,0,0,0,
0,0,0,0,0,0,0,0,0,0,0,0,0,0,0,0,
0,0,0,0,0,0,0,0,0,0,0,0,0,0,0,0,
8,9,10,11,6,7,8,9,10,11,606,607,774,775,776,777,
40,41,42,43,38,39,40,41,42,43,638,639,806,807,808,809
</chunk>
   <chunk x="48" y="-128" width="16" height="16">
0,0,0,0,0,0,0,0,0,0,0,0,0,0,0,0,
0,0,0,0,0,0,0,0,0,0,0,0,0,0,0,0,
0,0,0,0,0,0,0,0,0,0,0,0,0,0,0,0,
0,0,0,0,0,0,0,0,0,0,0,0,0,0,0,0,
0,0,0,0,0,0,0,0,0,0,0,0,0,0,0,0,
0,0,0,0,0,0,0,0,0,0,0,0,0,0,0,0,
0,0,0,0,0,0,0,0,0,0,0,0,0,0,0,0,
0,0,0,0,0,0,0,0,0,0,0,0,0,0,0,0,
0,0,0,0,0,0,0,0,0,0,0,0,0,0,0,0,
0,0,0,0,0,0,0,0,0,0,0,0,0,0,0,0,
0,0,0,0,0,0,0,0,0,0,0,0,0,0,0,0,
0,0,0,0,0,0,0,0,0,0,0,0,0,0,0,0,
0,0,0,0,0,0,0,0,0,0,0,0,0,0,0,0,
0,0,0,0,0,0,0,0,0,0,0,0,0,0,0,0,
774,775,776,777,0,0,0,0,0,0,0,0,0,0,0,0,
806,807,808,809,0,0,0,0,0,0,0,0,0,0,0,0
</chunk>
   <chunk x="64" y="-128" width="16" height="16">
0,0,0,0,0,0,0,0,0,0,0,0,0,0,0,0,
0,0,0,0,0,0,0,0,0,0,0,0,0,0,0,0,
0,0,0,0,0,0,0,0,0,0,0,0,0,0,0,0,
0,0,0,0,0,0,0,0,0,0,0,0,0,0,0,0,
0,0,0,0,0,0,0,0,0,0,0,0,0,0,0,0,
0,0,0,0,0,0,0,0,0,0,0,0,0,0,0,0,
0,0,0,0,0,0,0,0,0,0,0,0,0,0,0,0,
0,0,0,0,0,0,0,0,0,0,0,0,0,0,0,0,
0,0,0,0,0,0,0,0,0,0,0,0,0,0,0,0,
0,0,0,0,0,0,0,0,0,0,0,0,0,0,0,0,
0,0,0,0,0,0,0,0,0,0,0,0,0,0,0,0,
0,0,0,0,0,0,0,0,0,0,0,0,0,0,0,0,
0,0,0,0,0,0,0,0,0,0,0,0,0,0,0,0,
0,0,0,0,0,0,0,0,0,0,0,0,0,0,0,0,
0,0,0,0,0,0,0,0,0,0,774,775,776,777,0,0,
0,0,0,0,0,0,0,0,0,0,806,807,808,809,0,0
</chunk>
   <chunk x="-96" y="-112" width="16" height="16">
0,0,0,0,0,0,0,0,0,0,0,0,774,775,776,777,
0,0,0,0,0,0,0,0,0,0,0,0,806,807,808,809,
0,0,0,0,0,0,0,0,0,0,0,0,838,839,840,841,
0,0,0,0,0,0,0,0,0,0,0,0,870,871,872,873,
0,0,0,0,0,0,0,0,0,0,0,0,774,775,534,535,
0,0,0,0,0,0,0,0,0,0,0,0,806,807,566,567,
0,0,0,0,0,0,0,0,0,0,0,0,534,535,774,775,
0,0,0,0,0,0,0,0,0,0,0,0,566,567,806,807,
0,0,0,0,0,0,0,0,0,0,0,0,536,537,534,535,
0,0,0,0,0,0,0,0,0,0,0,0,568,569,566,567,
0,0,0,0,0,0,0,0,0,0,0,0,774,775,776,777,
0,0,0,0,0,0,0,0,0,0,0,0,806,807,808,809,
0,0,0,0,0,0,0,0,0,0,0,0,838,839,840,841,
0,0,0,0,0,0,0,0,0,0,0,0,870,871,872,873,
0,0,0,0,0,0,0,0,0,0,0,0,536,537,534,535,
0,0,0,0,0,0,0,0,0,0,0,0,568,569,566,567
</chunk>
   <chunk x="-80" y="-112" width="16" height="16">
534,535,536,537,472,473,600,601,540,541,538,539,540,541,410,411,
566,567,568,569,504,505,632,633,572,573,570,571,572,573,442,443,
536,537,472,473,536,537,408,409,410,411,540,541,538,539,474,475,
568,569,504,505,568,569,440,441,442,443,572,573,570,571,506,507,
536,537,534,535,536,537,408,409,600,601,538,539,540,541,778,779,
568,569,566,567,568,569,440,441,632,633,570,571,572,573,810,811,
534,535,776,777,534,535,472,473,598,599,540,541,538,539,842,843,
566,567,808,809,566,567,504,505,630,631,572,573,570,571,874,875,
536,537,534,535,536,537,598,599,474,475,538,539,540,541,540,541,
568,569,566,567,568,569,630,631,506,507,570,571,572,573,572,573,
472,473,536,537,598,599,778,779,782,783,538,539,540,541,0,0,
504,505,568,569,630,631,810,811,814,815,570,571,572,573,0,0,
408,409,534,535,600,601,842,843,410,411,540,541,538,539,0,0,
440,441,566,567,632,633,874,875,442,443,572,573,570,571,0,0,
472,473,536,537,408,409,410,411,474,475,538,539,540,541,0,0,
504,505,568,569,440,441,442,443,506,507,570,571,572,573,0,0
</chunk>
   <chunk x="-64" y="-112" width="16" height="16">
540,541,540,541,0,0,0,0,80,81,76,77,78,79,80,81,
572,573,572,573,0,0,0,0,112,113,108,109,110,111,112,113,
538,539,538,539,0,0,0,0,144,145,140,141,142,143,144,145,
570,571,570,571,0,0,0,0,176,177,172,173,174,175,176,177,
780,781,540,541,0,0,0,0,16,17,12,13,14,15,16,17,
812,813,572,573,0,0,0,0,48,49,44,45,46,47,48,49,
778,779,780,781,0,0,0,0,80,81,76,77,78,79,80,81,
810,811,812,813,0,0,0,0,112,113,108,109,110,111,112,113,
842,843,844,845,0,0,0,0,144,145,140,141,142,143,144,145,
874,875,876,877,0,0,0,0,176,177,172,173,174,175,176,177,
0,0,0,0,0,0,0,0,16,17,12,13,14,15,16,17,
0,0,0,0,0,0,0,0,48,49,44,45,46,47,48,49,
0,0,0,0,0,0,0,0,80,81,76,77,78,79,80,81,
0,0,0,0,0,0,0,0,112,113,108,109,110,111,112,113,
0,0,0,0,0,0,0,0,144,145,140,141,142,143,144,145,
0,0,0,0,0,0,0,0,176,177,172,173,174,175,176,177
</chunk>
   <chunk x="-48" y="-112" width="16" height="16">
76,77,78,79,80,81,76,77,78,79,0,0,838,839,840,841,
108,109,110,111,112,113,108,109,110,111,0,0,870,871,872,873,
140,141,142,143,144,145,140,141,142,143,0,0,536,537,534,535,
172,173,174,175,176,177,172,173,174,175,0,0,568,569,566,567,
12,13,14,15,16,17,12,13,14,15,0,0,774,775,534,535,
44,45,46,47,48,49,44,45,46,47,0,0,806,807,566,567,
76,77,78,79,80,81,76,77,78,79,0,0,534,535,774,775,
108,109,110,111,112,113,108,109,110,111,0,0,566,567,806,807,
140,141,142,143,144,145,140,141,142,143,0,0,536,537,534,535,
172,173,174,175,176,177,172,173,174,175,0,0,568,569,566,567,
12,13,14,15,16,17,12,13,14,15,0,0,774,775,776,777,
44,45,46,47,48,49,44,45,46,47,0,0,806,807,808,809,
76,77,78,79,80,81,76,77,78,79,0,0,838,839,840,841,
108,109,110,111,112,113,108,109,110,111,0,0,870,871,872,873,
140,141,142,143,144,145,140,141,142,143,0,0,536,537,534,535,
172,173,174,175,176,177,172,173,174,175,0,0,568,569,566,567
</chunk>
   <chunk x="-32" y="-112" width="16" height="16">
408,409,838,839,840,841,408,409,536,537,534,535,600,601,410,411,
440,441,870,871,872,873,440,441,568,569,566,567,632,633,442,443,
472,473,536,537,534,535,472,473,534,535,534,535,534,535,0,0,
504,505,568,569,566,567,504,505,566,567,566,567,566,567,0,0,
536,537,472,473,838,839,840,841,774,775,776,777,472,473,472,473,
568,569,504,505,870,871,872,873,806,807,808,809,504,505,504,505,
534,535,774,775,776,777,534,535,838,839,840,841,408,409,408,409,
566,567,806,807,808,809,566,567,870,871,872,873,440,441,440,441,
536,537,838,839,840,841,536,537,536,537,534,535,472,473,472,473,
568,569,870,871,872,873,568,569,568,569,566,567,504,505,504,505,
472,473,774,775,534,535,536,537,472,473,472,473,408,409,598,599,
504,505,806,807,566,567,568,569,504,505,504,505,440,441,630,631,
408,409,534,535,774,775,534,535,536,537,536,537,598,599,410,411,
440,441,566,567,806,807,566,567,568,569,568,569,630,631,442,443,
472,473,536,537,534,535,536,537,408,409,598,599,538,539,474,475,
504,505,568,569,566,567,568,569,440,441,630,631,570,571,506,507
</chunk>
   <chunk x="-16" y="-112" width="16" height="16">
540,541,538,539,842,843,844,845,538,539,842,843,844,845,0,0,
572,573,570,571,874,875,876,877,570,571,874,875,876,877,0,0,
0,0,540,541,474,475,538,539,540,541,540,541,538,539,0,0,
0,0,572,573,506,507,570,571,572,573,572,573,570,571,0,0,
474,475,538,539,540,541,538,539,540,541,538,539,540,541,0,0,
506,507,570,571,572,573,570,571,572,573,570,571,572,573,0,0,
410,411,474,475,538,539,538,539,0,0,540,541,538,539,0,0,
442,443,506,507,570,571,570,571,0,0,572,573,570,571,0,0,
474,475,538,539,0,0,0,0,538,539,538,539,540,541,0,0,
506,507,570,571,0,0,0,0,570,571,570,571,572,573,0,0,
538,539,540,541,538,539,540,541,538,539,778,779,780,781,0,0,
570,571,572,573,570,571,572,573,570,571,810,811,812,813,0,0,
540,541,538,539,410,411,540,541,540,541,842,843,844,845,0,0,
572,573,570,571,442,443,572,573,572,573,874,875,876,877,0,0,
538,539,540,541,540,541,538,539,538,539,540,541,538,539,0,0,
570,571,572,573,572,573,570,571,570,571,572,573,570,571,0,0
</chunk>
   <chunk x="0" y="-112" width="16" height="16">
0,0,0,0,0,0,70,71,72,73,74,75,70,71,72,73,
0,0,0,0,0,0,102,103,104,105,106,107,102,103,104,105,
0,0,0,0,0,0,134,135,136,137,138,139,134,135,136,137,
0,0,0,0,0,0,166,167,168,169,170,171,166,167,168,169,
0,0,0,0,0,0,6,7,8,9,10,11,6,7,8,9,
0,0,0,0,0,0,38,39,40,41,42,43,38,39,40,41,
0,0,0,0,0,0,70,71,72,73,74,75,70,71,72,73,
0,0,0,0,0,0,102,103,104,105,106,107,102,103,104,105,
0,0,0,0,0,0,134,135,136,137,138,139,134,135,136,137,
0,0,0,0,0,0,166,167,168,169,170,171,166,167,168,169,
0,0,0,0,0,0,6,7,8,9,10,11,0,0,0,0,
0,0,0,0,0,0,38,39,40,41,42,43,0,0,0,0,
0,0,0,0,0,0,70,71,72,73,74,75,0,0,0,0,
0,0,0,0,0,0,102,103,104,105,106,107,0,0,0,0,
0,0,0,0,0,0,134,135,136,137,138,139,0,0,0,0,
0,0,0,0,0,0,166,167,168,169,170,171,0,0,0,0
</chunk>
   <chunk x="16" y="-112" width="16" height="16">
74,75,70,71,72,73,74,75,70,71,72,73,74,75,70,71,
106,107,102,103,104,105,106,107,102,103,104,105,106,107,102,103,
138,139,134,135,136,137,138,139,134,135,136,137,138,139,134,135,
170,171,166,167,168,169,170,171,166,167,168,169,170,171,166,167,
10,11,6,7,8,9,10,11,0,0,0,0,0,0,0,0,
42,43,38,39,40,41,42,43,0,0,0,0,0,0,0,0,
74,75,70,71,72,73,74,75,0,0,0,0,0,0,0,0,
106,107,102,103,104,105,106,107,0,0,0,0,0,0,0,0,
138,139,134,135,136,137,138,139,0,0,0,0,0,0,0,0,
170,171,166,167,168,169,170,171,0,0,0,0,0,0,0,0,
0,0,0,0,0,0,0,0,12,13,14,15,0,0,6,7,
0,0,0,0,0,0,0,0,44,45,46,47,0,0,38,39,
0,0,0,0,0,0,80,81,76,77,78,79,0,0,70,71,
0,0,0,0,0,0,112,113,108,109,110,111,0,0,102,103,
0,0,0,0,0,0,144,145,140,141,142,143,0,0,134,135,
0,0,0,0,0,0,176,177,172,173,174,175,0,0,166,167
</chunk>
   <chunk x="32" y="-112" width="16" height="16">
72,73,74,75,70,71,72,73,74,75,670,671,838,839,840,841,
104,105,106,107,102,103,104,105,106,107,702,703,870,871,872,873,
136,137,138,139,134,135,136,137,138,139,734,735,534,535,536,537,
168,169,170,171,166,167,168,169,170,171,766,767,566,567,568,569,
0,0,0,0,6,7,8,9,10,11,606,607,534,535,472,473,
0,0,0,0,38,39,40,41,42,43,638,639,566,567,504,505,
0,0,0,0,70,71,72,73,74,75,670,671,536,537,584,585,
0,0,0,0,102,103,104,105,106,107,702,703,568,569,616,617,
0,0,0,0,134,135,136,137,138,139,734,735,646,647,648,649,
0,0,0,0,166,167,168,169,170,171,766,767,678,679,680,681,
8,9,10,11,6,7,8,9,10,11,606,607,534,535,472,473,
40,41,42,43,38,39,40,41,42,43,638,639,566,567,504,505,
72,73,74,75,70,71,72,73,74,75,670,671,536,537,584,585,
104,105,106,107,102,103,104,105,106,107,702,703,568,569,616,617,
136,137,138,139,134,135,136,137,138,139,734,735,646,647,648,649,
168,169,170,171,166,167,168,169,170,171,766,767,678,679,680,681
</chunk>
   <chunk x="48" y="-112" width="16" height="16">
838,839,840,841,0,0,1368,1369,1368,1369,1368,1369,538,539,540,541,
870,871,872,873,0,0,1400,1401,1400,1401,1400,1401,570,571,572,573,
534,535,408,409,410,411,538,539,540,541,778,779,780,781,0,0,
566,567,440,441,442,443,570,571,572,573,810,811,812,813,0,0,
408,409,472,473,474,475,540,541,0,0,842,843,844,845,0,0,
440,441,504,505,506,507,572,573,0,0,874,875,876,877,0,0,
534,535,598,599,540,541,538,539,0,0,0,0,0,0,0,0,
566,567,630,631,572,573,570,571,0,0,0,0,0,0,0,0,
598,599,540,541,538,539,1246,1247,1248,1249,1246,1247,1248,1249,1250,1251,
630,631,572,573,570,571,1278,1279,1280,1281,1278,1279,1280,1281,1282,1283,
410,411,540,541,1188,1189,156,157,156,157,156,157,156,157,156,157,
442,443,572,573,1220,1221,188,189,188,189,188,189,188,189,188,189,
0,0,540,541,920,921,156,157,156,157,156,157,156,157,156,157,
0,0,572,573,952,953,188,189,188,189,188,189,188,189,188,189,
0,0,0,0,1073743230,1073743231,156,157,156,157,156,157,156,157,156,157,
0,0,0,0,1073743198,1073743199,188,189,188,189,188,189,188,189,188,189
</chunk>
   <chunk x="64" y="-112" width="16" height="16">
0,0,792,793,290,291,2147484439,2147484438,666,667,838,839,840,841,472,473,
0,0,824,825,322,323,2147484471,2147484470,698,699,870,871,872,873,504,505,
0,0,790,791,290,291,2147484441,2147484440,0,0,534,535,536,537,598,599,
0,0,822,823,322,323,2147484473,2147484472,0,0,566,567,568,569,630,631,
0,0,792,793,290,291,2147484439,2147484438,0,0,534,535,584,585,0,0,
0,0,824,825,322,323,2147484471,2147484470,0,0,566,567,616,617,0,0,
0,0,790,791,290,291,2147484441,2147484440,156,157,0,0,0,0,0,0,
0,0,822,823,322,323,2147484473,2147484472,188,189,0,0,0,0,0,0,
1252,1253,792,793,290,291,2147484439,2147484438,156,157,156,157,0,0,0,0,
1284,1285,824,825,322,323,2147484471,2147484470,188,189,188,189,0,0,0,0,
156,157,850,851,852,853,854,855,156,157,156,157,156,157,156,157,
188,189,882,883,884,885,886,887,188,189,188,189,188,189,188,189,
156,157,914,915,916,917,918,919,156,157,156,157,156,157,156,157,
188,189,946,947,948,949,950,951,188,189,188,189,188,189,188,189,
156,157,978,979,980,981,982,983,156,157,156,157,156,157,156,157,
188,189,1010,1011,1012,1013,1014,1015,188,189,188,189,188,189,188,189
</chunk>
   <chunk x="80" y="-112" width="16" height="16">
474,475,538,539,474,475,538,539,0,0,994,995,534,535,472,473,
506,507,570,571,506,507,570,571,0,0,1026,1027,566,567,504,505,
538,539,540,541,0,0,0,0,156,157,156,157,996,997,0,0,
570,571,572,573,0,0,0,0,188,189,188,189,1028,1029,0,0,
540,541,0,0,156,157,156,157,156,157,156,157,156,157,156,157,
572,573,0,0,188,189,188,189,188,189,188,189,188,189,188,189,
0,0,0,0,156,157,156,157,156,157,156,157,156,157,156,157,
0,0,0,0,188,189,188,189,188,189,188,189,188,189,188,189,
0,0,0,0,156,157,156,157,156,157,156,157,156,157,156,157,
0,0,0,0,188,189,188,189,188,189,188,189,188,189,188,189,
156,157,156,157,156,157,156,157,156,157,156,157,0,0,0,0,
188,189,188,189,188,189,188,189,188,189,188,189,0,0,0,0,
156,157,156,157,156,157,156,157,156,157,666,667,536,537,472,473,
188,189,188,189,188,189,188,189,188,189,698,699,568,569,504,505,
156,157,156,157,156,157,156,157,156,157,602,603,534,535,408,409,
188,189,188,189,188,189,188,189,188,189,634,635,566,567,440,441
</chunk>
   <chunk x="96" y="-112" width="16" height="16">
474,475,538,539,0,0,994,995,534,535,472,473,0,0,0,0,
506,507,570,571,0,0,1026,1027,566,567,504,505,0,0,0,0,
0,0,0,0,156,157,156,157,996,997,0,0,0,0,0,0,
0,0,0,0,188,189,188,189,1028,1029,0,0,0,0,0,0,
156,157,156,157,156,157,156,157,156,157,156,157,0,0,0,0,
188,189,188,189,188,189,188,189,188,189,188,189,0,0,0,0,
156,157,156,157,156,157,156,157,156,157,156,157,0,0,0,0,
188,189,188,189,188,189,188,189,188,189,188,189,0,0,0,0,
156,157,156,157,156,157,156,157,156,157,156,157,0,0,0,0,
188,189,188,189,188,189,188,189,188,189,188,189,0,0,0,0,
0,0,0,0,0,0,0,0,0,0,0,0,0,0,0,0,
0,0,0,0,0,0,0,0,0,0,0,0,0,0,0,0,
410,411,542,543,0,0,536,537,600,601,410,411,0,0,0,0,
442,443,574,575,0,0,568,569,632,633,442,443,0,0,0,0,
0,0,542,543,542,543,534,535,472,473,474,475,0,0,0,0,
0,0,574,575,574,575,566,567,504,505,506,507,0,0,0,0
</chunk>
   <chunk x="-96" y="-96" width="16" height="16">
0,0,0,0,0,0,0,0,0,0,0,0,472,473,838,839,
0,0,0,0,0,0,0,0,0,0,0,0,504,505,870,871,
0,0,0,0,0,0,0,0,0,0,0,0,774,775,776,777,
0,0,0,0,0,0,0,0,0,0,0,0,806,807,808,809,
0,0,0,0,0,0,0,0,0,0,0,0,838,839,840,841,
0,0,0,0,0,0,0,0,0,0,0,0,870,871,872,873,
0,0,0,0,0,0,0,0,0,0,0,0,774,775,534,535,
0,0,0,0,0,0,0,0,0,0,0,0,806,807,566,567,
0,0,0,0,0,0,0,0,0,0,0,0,534,535,774,775,
0,0,0,0,0,0,0,0,0,0,0,0,566,567,806,807,
0,0,0,0,0,0,0,0,0,0,0,0,536,537,534,535,
0,0,0,0,0,0,0,0,0,0,0,0,568,569,566,567,
0,0,0,0,0,0,0,0,0,0,0,0,774,775,534,535,
0,0,0,0,0,0,0,0,0,0,0,0,806,807,566,567,
0,0,0,0,0,0,0,0,0,0,0,0,534,535,774,775,
0,0,0,0,0,0,0,0,0,0,0,0,566,567,806,807
</chunk>
   <chunk x="-80" y="-96" width="16" height="16">
840,841,534,535,472,473,782,783,538,539,538,539,538,539,0,0,
872,873,566,567,504,505,814,815,570,571,570,571,570,571,0,0,
534,535,536,537,534,535,600,601,540,541,778,779,780,781,0,0,
566,567,568,569,566,567,632,633,572,573,810,811,812,813,0,0,
536,537,534,535,534,535,534,535,538,539,842,843,844,845,538,539,
568,569,566,567,566,567,566,567,570,571,874,875,876,877,570,571,
536,537,774,775,776,777,534,535,600,601,538,539,540,541,538,539,
568,569,806,807,808,809,566,567,632,633,570,571,572,573,570,571,
534,535,838,839,840,841,408,409,0,0,540,541,538,539,410,411,
566,567,870,871,872,873,440,441,0,0,572,573,570,571,442,443,
536,537,536,537,534,535,472,473,474,475,538,539,540,541,474,475,
568,569,568,569,566,567,504,505,506,507,570,571,572,573,506,507,
536,537,774,775,776,777,472,473,778,779,780,781,540,541,844,845,
568,569,806,807,808,809,504,505,810,811,812,813,572,573,876,877,
534,535,838,839,840,841,408,409,842,843,844,845,538,539,0,0,
566,567,870,871,872,873,440,441,874,875,876,877,570,571,0,0
</chunk>
   <chunk x="-64" y="-96" width="16" height="16">
0,0,0,0,0,0,0,0,16,17,12,13,14,15,16,17,
0,0,0,0,0,0,0,0,48,49,44,45,46,47,48,49,
0,0,0,0,0,0,0,0,80,81,76,77,78,79,80,81,
0,0,0,0,0,0,0,0,112,113,108,109,110,111,112,113,
0,0,0,0,0,0,0,0,144,145,140,141,142,143,144,145,
0,0,0,0,0,0,0,0,176,177,172,173,174,175,176,177,
540,541,538,539,0,0,0,0,16,17,12,13,14,15,16,17,
572,573,570,571,0,0,0,0,48,49,44,45,46,47,48,49,
540,541,540,541,0,0,0,0,80,81,76,77,78,79,80,81,
572,573,572,573,0,0,0,0,112,113,108,109,110,111,112,113,
538,539,538,539,0,0,0,0,144,145,140,141,142,143,144,145,
570,571,570,571,0,0,0,0,176,177,172,173,174,175,176,177,
540,541,538,539,0,0,0,0,0,0,0,0,0,0,16,17,
572,573,570,571,0,0,0,0,0,0,0,0,0,0,48,49,
538,539,540,541,0,0,0,0,0,0,0,0,0,0,80,81,
570,571,572,573,0,0,0,0,0,0,0,0,0,0,112,113
</chunk>
   <chunk x="-48" y="-96" width="16" height="16">
12,13,14,15,16,17,12,13,14,15,0,0,0,0,0,0,
44,45,46,47,48,49,44,45,46,47,0,0,0,0,0,0,
76,77,78,79,80,81,76,77,78,79,0,0,0,0,0,0,
108,109,110,111,112,113,108,109,110,111,0,0,0,0,0,0,
140,141,142,143,144,145,140,141,142,143,0,0,0,0,0,0,
172,173,174,175,176,177,172,173,174,175,0,0,0,0,0,0,
12,13,14,15,16,17,12,13,14,15,0,0,0,0,0,0,
44,45,46,47,48,49,44,45,46,47,0,0,0,0,0,0,
76,77,78,79,80,81,76,77,78,79,0,0,0,0,0,0,
108,109,110,111,112,113,108,109,110,111,0,0,0,0,0,0,
140,141,142,143,144,145,140,141,142,143,0,0,0,0,0,0,
172,173,174,175,176,177,172,173,174,175,0,0,0,0,0,0,
12,13,14,15,16,17,12,13,14,15,0,0,774,775,776,777,
44,45,46,47,48,49,44,45,46,47,0,0,806,807,808,809,
76,77,78,79,80,81,76,77,78,79,0,0,838,839,840,841,
108,109,110,111,112,113,108,109,110,111,0,0,870,871,872,873
</chunk>
   <chunk x="-32" y="-96" width="16" height="16">
0,0,774,775,534,535,536,537,408,409,410,411,474,475,778,779,
0,0,806,807,566,567,568,569,440,441,442,443,506,507,810,811,
0,0,534,535,774,775,534,535,472,473,474,475,538,539,842,843,
0,0,566,567,806,807,566,567,504,505,506,507,570,571,874,875,
0,0,536,537,534,535,536,537,408,409,410,411,474,475,474,475,
0,0,568,569,566,567,568,569,440,441,442,443,506,507,506,507,
0,0,774,775,774,775,776,777,598,599,538,539,540,541,540,541,
0,0,806,807,806,807,808,809,630,631,570,571,572,573,572,573,
0,0,0,0,838,839,840,841,410,411,540,541,538,539,538,539,
0,0,0,0,870,871,872,873,442,443,572,573,570,571,570,571,
0,0,536,537,534,535,472,473,474,475,538,539,540,541,0,0,
0,0,568,569,566,567,504,505,506,507,570,571,572,573,0,0,
534,535,774,775,776,777,472,473,778,779,780,781,540,541,540,541,
566,567,806,807,808,809,504,505,810,811,812,813,572,573,572,573,
536,537,838,839,840,841,408,409,842,843,844,845,538,539,538,539,
568,569,870,871,872,873,440,441,874,875,876,877,570,571,570,571
</chunk>
   <chunk x="-16" y="-96" width="16" height="16">
780,781,540,541,540,541,538,539,540,541,0,0,0,0,0,0,
812,813,572,573,572,573,570,571,572,573,0,0,0,0,0,0,
844,845,538,539,538,539,540,541,0,0,0,0,0,0,0,0,
876,877,570,571,570,571,572,573,0,0,0,0,0,0,0,0,
538,539,540,541,474,475,538,539,0,0,0,0,0,0,0,0,
570,571,572,573,506,507,570,571,0,0,0,0,0,0,0,0,
538,539,540,541,778,779,780,781,0,0,0,0,0,0,0,0,
570,571,572,573,810,811,812,813,0,0,0,0,0,0,0,0,
538,539,0,0,842,843,844,845,0,0,0,0,0,0,0,0,
570,571,0,0,874,875,876,877,0,0,0,0,0,0,0,0,
0,0,538,539,540,541,538,539,0,0,0,0,0,0,0,0,
0,0,570,571,572,573,570,571,0,0,0,0,0,0,0,0,
538,539,540,541,0,0,0,0,0,0,6,7,8,9,10,11,
570,571,572,573,0,0,0,0,0,0,38,39,40,41,42,43,
540,541,0,0,0,0,0,0,0,0,70,71,72,73,74,75,
572,573,0,0,0,0,0,0,0,0,102,103,104,105,106,107
</chunk>
   <chunk x="0" y="-96" width="16" height="16">
6,7,8,9,10,11,0,0,0,0,0,0,0,0,0,0,
38,39,40,41,42,43,0,0,0,0,0,0,0,0,0,0,
70,71,72,73,74,75,0,0,0,0,0,0,0,0,0,0,
102,103,104,105,106,107,0,0,0,0,0,0,0,0,0,0,
134,135,136,137,138,139,0,0,0,0,0,0,0,0,0,0,
166,167,168,169,170,171,0,0,0,0,0,0,0,0,0,0,
6,7,8,9,10,11,6,7,8,9,10,11,6,7,8,9,
38,39,40,41,42,43,38,39,40,41,42,43,38,39,40,41,
70,71,72,73,74,75,70,71,72,73,74,75,70,71,72,73,
102,103,104,105,106,107,102,103,104,105,106,107,102,103,104,105,
134,135,136,137,138,139,134,135,136,137,138,139,134,135,136,137,
166,167,168,169,170,171,166,167,168,169,170,171,166,167,168,169,
6,7,8,9,10,11,6,7,8,9,10,11,6,7,8,9,
38,39,40,41,42,43,38,39,40,41,42,43,38,39,40,41,
70,71,72,73,74,75,70,71,72,73,74,75,70,71,72,73,
102,103,104,105,106,107,102,103,104,105,106,107,102,103,104,105
</chunk>
   <chunk x="16" y="-96" width="16" height="16">
0,0,0,0,0,0,0,0,0,0,0,0,0,0,6,7,
0,0,0,0,0,0,0,0,0,0,0,0,0,0,38,39,
0,0,0,0,0,0,0,0,0,0,0,0,0,0,70,71,
0,0,0,0,0,0,0,0,0,0,0,0,0,0,102,103,
0,0,0,0,0,0,0,0,0,0,0,0,0,0,134,135,
0,0,0,0,0,0,0,0,0,0,0,0,0,0,166,167,
10,11,6,7,8,9,10,11,0,0,0,0,0,0,0,0,
42,43,38,39,40,41,42,43,0,0,0,0,0,0,0,0,
74,75,70,71,72,73,74,75,0,0,0,0,0,0,0,0,
106,107,102,103,104,105,106,107,0,0,0,0,0,0,0,0,
138,139,134,135,136,137,138,139,0,0,0,0,0,0,0,0,
170,171,166,167,168,169,170,171,0,0,0,0,0,0,0,0,
10,11,0,0,0,0,0,0,12,13,14,15,16,17,12,13,
42,43,0,0,0,0,0,0,44,45,46,47,48,49,44,45,
74,75,0,0,0,0,80,81,76,77,78,79,80,81,76,77,
106,107,0,0,0,0,112,113,108,109,110,111,112,113,108,109
</chunk>
   <chunk x="32" y="-96" width="16" height="16">
8,9,10,11,6,7,8,9,10,11,6,7,8,9,712,713,
40,41,42,43,38,39,40,41,42,43,38,39,40,41,744,745,
72,73,74,75,70,71,72,73,74,75,70,71,72,73,74,75,
104,105,106,107,102,103,104,105,106,107,102,103,104,105,106,107,
136,137,138,139,134,135,136,137,138,139,134,135,136,137,138,139,
168,169,170,171,166,167,168,169,170,171,166,167,168,169,170,171,
0,0,0,0,6,7,8,9,10,11,6,7,8,9,10,11,
0,0,0,0,38,39,40,41,42,43,38,39,40,41,42,43,
0,0,0,0,70,71,72,73,74,75,70,71,72,73,74,75,
0,0,0,0,102,103,104,105,106,107,102,103,104,105,106,107,
0,0,0,0,134,135,136,137,138,139,134,135,136,137,138,139,
0,0,0,0,166,167,168,169,170,171,166,167,168,169,170,171,
14,15,0,0,0,0,0,0,0,0,0,0,0,0,0,0,
46,47,0,0,0,0,0,0,0,0,0,0,0,0,0,0,
78,79,0,0,0,0,0,0,0,0,0,0,0,0,0,0,
110,111,0,0,0,0,0,0,0,0,0,0,0,0,0,0
</chunk>
   <chunk x="48" y="-96" width="16" height="16">
714,715,716,717,222,223,218,219,220,221,222,223,0,0,0,0,
746,747,748,749,254,255,250,251,252,253,254,255,0,0,0,0,
70,71,72,73,74,75,0,0,0,0,0,0,0,0,598,599,
102,103,104,105,106,107,0,0,0,0,0,0,0,0,630,631,
134,135,136,137,138,139,0,0,0,0,0,0,0,0,410,411,
166,167,168,169,170,171,0,0,0,0,0,0,0,0,442,443,
6,7,8,9,10,11,606,607,534,535,536,537,598,599,410,411,
38,39,40,41,42,43,638,639,566,567,568,569,630,631,442,443,
70,71,72,73,74,75,670,671,536,537,774,775,600,601,538,539,
102,103,104,105,106,107,702,703,568,569,806,807,632,633,570,571,
134,135,136,137,138,139,0,0,534,535,408,409,410,411,540,541,
166,167,168,169,170,171,0,0,566,567,440,441,442,443,572,573,
0,0,0,0,0,0,774,775,776,777,472,473,474,475,538,539,
0,0,0,0,0,0,806,807,808,809,504,505,506,507,570,571,
0,0,0,0,0,0,838,839,840,841,536,537,600,601,540,541,
0,0,0,0,0,0,870,871,872,873,568,569,632,633,572,573
</chunk>
   <chunk x="64" y="-96" width="16" height="16">
0,0,792,793,290,291,2147484441,2147484440,156,157,0,0,0,0,0,0,
0,0,824,825,322,323,2147484473,2147484472,188,189,0,0,0,0,0,0,
0,0,792,793,290,291,2147484439,2147484438,666,667,536,537,472,473,0,0,
0,0,824,825,322,323,2147484471,2147484470,698,699,568,569,504,505,0,0,
0,0,790,791,290,291,2147484441,2147484440,602,603,534,535,408,409,600,601,
0,0,822,823,322,323,2147484473,2147484472,634,635,566,567,440,441,632,633,
0,0,792,793,290,291,2147484441,2147484440,666,667,536,537,534,535,534,535,
0,0,824,825,322,323,2147484473,2147484472,698,699,568,569,566,567,566,567,
0,0,792,793,290,291,2147484439,2147484438,602,603,534,535,536,537,536,537,
0,0,824,825,322,323,2147484471,2147484470,634,635,566,567,568,569,568,569,
0,0,790,791,290,291,2147484441,2147484440,666,667,536,537,534,535,534,535,
0,0,822,823,322,323,2147484473,2147484472,698,699,568,569,566,567,566,567,
0,0,792,793,290,291,2147484441,2147484440,666,667,534,535,584,585,536,537,
0,0,824,825,322,323,2147484473,2147484472,698,699,566,567,616,617,568,569,
0,0,792,793,290,291,2147484439,2147484438,666,667,536,537,648,649,0,0,
0,0,824,825,322,323,2147484471,2147484470,698,699,568,569,680,681,0,0
</chunk>
   <chunk x="80" y="-96" width="16" height="16">
0,0,0,0,0,0,0,0,0,0,0,0,536,537,598,599,
0,0,0,0,0,0,0,0,0,0,0,0,568,569,630,631,
0,0,534,535,536,537,0,0,0,0,0,0,408,409,410,411,
0,0,566,567,568,569,0,0,0,0,0,0,440,441,442,443,
0,0,0,0,0,0,538,539,0,0,536,537,472,473,474,475,
0,0,0,0,0,0,570,571,0,0,568,569,504,505,506,507,
472,473,474,475,540,541,542,543,534,535,534,535,598,599,538,539,
504,505,506,507,572,573,574,575,566,567,566,567,630,631,570,571,
534,535,600,601,540,541,0,0,408,409,472,473,0,0,540,541,
566,567,632,633,572,573,0,0,440,441,504,505,0,0,572,573,
536,537,534,535,600,601,0,0,408,409,536,537,0,0,538,539,
568,569,566,567,632,633,0,0,440,441,568,569,0,0,570,571,
774,775,776,777,408,409,600,601,0,0,534,535,0,0,538,539,
806,807,808,809,440,441,632,633,0,0,566,567,0,0,570,571,
838,839,840,841,534,535,536,537,600,601,536,537,534,535,600,601,
870,871,872,873,566,567,568,569,632,633,568,569,566,567,632,633
</chunk>
   <chunk x="96" y="-96" width="16" height="16">
538,539,0,0,0,0,536,537,472,473,538,539,0,0,0,0,
570,571,0,0,0,0,568,569,504,505,570,571,0,0,0,0,
538,539,0,0,536,537,534,535,472,473,474,475,0,0,0,0,
570,571,0,0,568,569,566,567,504,505,506,507,0,0,0,0,
538,539,538,539,0,0,536,537,598,599,474,475,0,0,0,0,
570,571,570,571,0,0,568,569,630,631,506,507,0,0,0,0,
540,541,538,539,540,541,542,543,474,475,540,541,0,0,0,0,
572,573,570,571,572,573,574,575,506,507,572,573,0,0,0,0,
538,539,538,539,0,0,0,0,410,411,538,539,0,0,0,0,
570,571,570,571,0,0,0,0,442,443,570,571,0,0,0,0,
778,779,780,781,538,539,0,0,0,0,540,541,0,0,0,0,
810,811,812,813,570,571,0,0,0,0,572,573,0,0,0,0,
0,0,538,539,540,541,0,0,0,0,540,541,0,0,0,0,
0,0,570,571,572,573,0,0,0,0,572,573,0,0,0,0,
410,411,540,541,538,539,0,0,778,779,780,781,0,0,0,0,
442,443,572,573,570,571,0,0,810,811,812,813,0,0,0,0
</chunk>
   <chunk x="-96" y="-80" width="16" height="16">
0,0,0,0,0,0,0,0,0,0,0,0,536,537,534,535,
0,0,0,0,0,0,0,0,0,0,0,0,568,569,566,567,
0,0,0,0,0,0,0,0,0,0,0,0,472,473,838,839,
0,0,0,0,0,0,0,0,0,0,0,0,504,505,870,871,
0,0,0,0,0,0,0,0,0,0,0,0,774,775,776,777,
0,0,0,0,0,0,0,0,0,0,0,0,806,807,808,809,
0,0,0,0,0,0,0,0,0,0,0,0,838,839,840,841,
0,0,0,0,0,0,0,0,0,0,0,0,870,871,872,873,
0,0,0,0,0,0,0,0,0,0,0,0,774,775,534,535,
0,0,0,0,0,0,0,0,0,0,0,0,806,807,566,567,
0,0,0,0,0,0,0,0,0,0,0,0,534,535,774,775,
0,0,0,0,0,0,0,0,0,0,0,0,566,567,806,807,
0,0,0,0,0,0,0,0,0,0,0,0,536,537,534,535,
0,0,0,0,0,0,0,0,0,0,0,0,568,569,566,567,
0,0,0,0,0,0,0,0,0,0,0,0,774,775,776,777,
0,0,0,0,0,0,0,0,0,0,0,0,806,807,808,809
</chunk>
   <chunk x="-80" y="-80" width="16" height="16">
536,537,536,537,534,535,472,473,474,475,538,539,540,541,538,539,
568,569,568,569,566,567,504,505,506,507,570,571,572,573,570,571,
840,841,774,775,776,777,472,473,472,473,474,475,538,539,538,539,
872,873,806,807,808,809,504,505,504,505,506,507,570,571,570,571,
534,535,838,839,840,841,408,409,408,409,0,0,474,475,410,411,
566,567,870,871,872,873,440,441,440,441,0,0,506,507,442,443,
536,537,536,537,534,535,472,473,472,473,474,475,538,539,474,475,
568,569,568,569,566,567,504,505,504,505,506,507,570,571,506,507,
536,537,472,473,472,473,408,409,598,599,538,539,540,541,782,783,
568,569,504,505,504,505,440,441,630,631,570,571,572,573,814,815,
534,535,536,537,536,537,598,599,410,411,0,0,538,539,410,411,
566,567,568,569,568,569,630,631,442,443,0,0,570,571,442,443,
536,537,408,409,598,599,538,539,474,475,538,539,540,541,474,475,
568,569,440,441,630,631,570,571,506,507,570,571,572,573,506,507,
472,473,408,409,410,411,474,475,778,779,780,781,540,541,538,539,
504,505,440,441,442,443,506,507,810,811,812,813,572,573,570,571
</chunk>
   <chunk x="-64" y="-80" width="16" height="16">
540,541,538,539,0,0,0,0,0,0,0,0,0,0,144,145,
572,573,570,571,0,0,0,0,0,0,0,0,0,0,176,177,
540,541,538,539,0,0,0,0,540,541,0,0,0,0,16,17,
572,573,570,571,0,0,0,0,572,573,0,0,0,0,48,49,
540,541,540,541,0,0,778,779,780,781,0,0,0,0,80,81,
572,573,572,573,0,0,810,811,812,813,0,0,0,0,112,113,
538,539,538,539,474,475,842,843,844,845,0,0,0,0,144,145,
570,571,570,571,506,507,874,875,876,877,0,0,0,0,176,177,
538,539,540,541,0,0,474,475,0,0,0,0,0,0,0,0,
570,571,572,573,0,0,506,507,0,0,0,0,0,0,0,0,
0,0,0,0,0,0,474,475,474,475,0,0,0,0,0,0,
0,0,0,0,0,0,506,507,506,507,0,0,0,0,0,0,
538,539,0,0,534,535,0,0,0,0,538,539,0,0,0,0,
570,571,0,0,566,567,0,0,0,0,570,571,0,0,0,0,
0,0,0,0,536,537,0,0,410,411,538,539,540,541,538,539,
0,0,0,0,568,569,0,0,442,443,570,571,572,573,570,571
</chunk>
   <chunk x="-48" y="-80" width="16" height="16">
140,141,142,143,144,145,140,141,142,143,0,0,534,535,536,537,
172,173,174,175,176,177,172,173,174,175,0,0,566,567,568,569,
12,13,14,15,16,17,12,13,14,15,0,0,0,0,534,535,
44,45,46,47,48,49,44,45,46,47,0,0,0,0,566,567,
76,77,78,79,80,81,76,77,78,79,0,0,0,0,774,775,
108,109,110,111,112,113,108,109,110,111,0,0,0,0,806,807,
140,141,142,143,144,145,140,141,142,143,0,0,0,0,534,535,
172,173,174,175,176,177,172,173,174,175,0,0,0,0,566,567,
0,0,0,0,16,17,12,13,14,15,0,0,0,0,0,0,
0,0,0,0,48,49,44,45,46,47,0,0,0,0,0,0,
0,0,0,0,80,81,76,77,78,79,0,0,0,0,0,0,
0,0,0,0,112,113,108,109,110,111,0,0,0,0,0,0,
0,0,0,0,144,145,140,141,142,143,0,0,0,0,0,0,
0,0,0,0,176,177,172,173,174,175,0,0,0,0,0,0,
0,0,0,0,16,17,12,13,14,15,16,17,12,13,14,15,
0,0,0,0,48,49,44,45,46,47,48,49,44,45,46,47
</chunk>
   <chunk x="-32" y="-80" width="16" height="16">
534,535,536,537,534,535,472,473,474,475,538,539,540,541,474,475,
566,567,568,569,566,567,504,505,506,507,570,571,572,573,506,507,
536,537,774,775,776,777,472,473,782,783,538,539,540,541,778,779,
568,569,806,807,808,809,504,505,814,815,570,571,572,573,810,811,
534,535,838,839,840,841,408,409,410,411,540,541,538,539,0,0,
566,567,870,871,872,873,440,441,442,443,572,573,570,571,0,0,
536,537,536,537,646,647,648,649,0,0,0,0,540,541,0,0,
568,569,568,569,678,679,680,681,0,0,0,0,572,573,0,0,
0,0,536,537,0,0,0,0,0,0,0,0,0,0,0,0,
0,0,568,569,0,0,0,0,0,0,0,0,0,0,0,0,
0,0,0,0,0,0,0,0,0,0,0,0,0,0,0,0,
0,0,0,0,0,0,0,0,0,0,0,0,0,0,0,0,
0,0,0,0,0,0,0,0,0,0,0,0,0,0,0,0,
0,0,0,0,0,0,0,0,0,0,0,0,0,0,0,0,
16,17,12,13,14,15,16,17,12,13,14,15,16,17,12,13,
48,49,44,45,46,47,48,49,44,45,46,47,48,49,44,45
</chunk>
   <chunk x="-16" y="-80" width="16" height="16">
538,539,0,0,0,0,0,0,0,0,134,135,136,137,138,139,
570,571,0,0,0,0,0,0,0,0,166,167,168,169,170,171,
780,781,0,0,0,0,0,0,0,0,6,7,8,9,10,11,
812,813,0,0,0,0,0,0,0,0,38,39,40,41,42,43,
538,539,0,0,0,0,0,0,0,0,70,71,72,73,74,75,
570,571,0,0,0,0,0,0,0,0,102,103,104,105,106,107,
0,0,0,0,0,0,0,0,0,0,134,135,136,137,138,139,
0,0,0,0,0,0,0,0,0,0,166,167,168,169,170,171,
0,0,0,0,0,0,0,0,0,0,0,0,0,0,0,0,
0,0,0,0,0,0,0,0,0,0,0,0,0,0,0,0,
0,0,0,0,0,0,0,0,0,0,0,0,0,0,0,0,
0,0,0,0,0,0,0,0,0,0,0,0,0,0,0,0,
0,0,0,0,0,0,0,0,0,0,0,0,0,0,0,0,
0,0,0,0,0,0,0,0,0,0,0,0,0,0,0,0,
14,15,16,17,12,13,14,15,16,17,12,13,14,15,16,17,
46,47,48,49,44,45,46,47,48,49,44,45,46,47,48,49
</chunk>
   <chunk x="0" y="-80" width="16" height="16">
134,135,136,137,138,139,134,135,136,137,138,139,134,135,136,137,
166,167,168,169,170,171,166,167,168,169,170,171,166,167,168,169,
6,7,8,9,10,11,6,7,8,9,10,11,0,0,0,0,
38,39,40,41,42,43,38,39,40,41,42,43,0,0,0,0,
70,71,72,73,74,75,70,71,72,73,74,75,0,0,0,0,
102,103,104,105,106,107,102,103,104,105,106,107,0,0,0,0,
134,135,136,137,138,139,134,135,136,137,138,139,0,0,0,0,
166,167,168,169,170,171,166,167,168,169,170,171,0,0,0,0,
0,0,0,0,0,0,0,0,0,0,0,0,12,13,14,15,
0,0,0,0,0,0,0,0,0,0,0,0,44,45,46,47,
0,0,0,0,0,0,0,0,0,0,80,81,76,77,78,79,
0,0,0,0,0,0,0,0,0,0,112,113,108,109,110,111,
0,0,0,0,0,0,0,0,0,0,144,145,140,141,142,143,
0,0,0,0,0,0,0,0,0,0,176,177,172,173,174,175,
12,13,14,15,0,0,0,0,0,0,0,0,0,0,0,0,
44,45,46,47,0,0,0,0,0,0,0,0,0,0,0,0
</chunk>
   <chunk x="16" y="-80" width="16" height="16">
138,139,0,0,0,0,144,145,140,141,142,143,144,145,140,141,
170,171,0,0,0,0,176,177,172,173,174,175,176,177,172,173,
0,0,12,13,14,15,16,17,12,13,14,15,16,17,12,13,
0,0,44,45,46,47,48,49,44,45,46,47,48,49,44,45,
80,81,76,77,78,79,80,81,76,77,78,79,80,81,76,77,
112,113,108,109,110,111,112,113,108,109,110,111,112,113,108,109,
144,145,140,141,142,143,144,145,140,141,142,143,144,145,140,141,
176,177,172,173,174,175,176,177,172,173,174,175,176,177,172,173,
16,17,12,13,14,15,0,0,0,0,0,0,0,0,0,0,
48,49,44,45,46,47,0,0,0,0,0,0,0,0,0,0,
80,81,76,77,78,79,0,0,0,0,0,0,0,0,0,0,
112,113,108,109,110,111,0,0,0,0,0,0,0,0,0,0,
144,145,140,141,142,143,0,0,0,0,0,0,0,0,0,0,
176,177,172,173,174,175,0,0,0,0,0,0,0,0,0,0,
0,0,0,0,0,0,0,0,0,0,0,0,0,0,12,13,
0,0,0,0,0,0,0,0,0,0,0,0,0,0,44,45
</chunk>
   <chunk x="32" y="-80" width="16" height="16">
142,143,0,0,0,0,0,0,0,0,0,0,0,0,0,0,
174,175,0,0,0,0,0,0,0,0,0,0,0,0,0,0,
14,15,16,17,12,13,14,15,0,0,0,0,0,0,0,0,
46,47,48,49,44,45,46,47,0,0,0,0,0,0,0,0,
78,79,80,81,76,77,78,79,0,0,774,775,776,777,408,409,
110,111,112,113,108,109,110,111,0,0,806,807,808,809,440,441,
142,143,144,145,140,141,142,143,0,0,838,839,840,841,534,535,
174,175,176,177,172,173,174,175,0,0,870,871,872,873,566,567,
0,0,16,17,12,13,14,15,0,0,472,473,838,839,840,841,
0,0,48,49,44,45,46,47,0,0,504,505,870,871,872,873,
0,0,80,81,76,77,78,79,0,0,774,775,776,777,534,535,
0,0,112,113,108,109,110,111,0,0,806,807,808,809,566,567,
0,0,144,145,140,141,142,143,0,0,838,839,840,841,536,537,
0,0,176,177,172,173,174,175,0,0,870,871,872,873,568,569,
14,15,0,0,0,0,0,0,0,0,0,0,0,0,712,713,
46,47,0,0,0,0,0,0,0,0,0,0,0,0,744,745
</chunk>
   <chunk x="48" y="-80" width="16" height="16">
0,0,0,0,0,0,534,535,536,537,718,719,408,409,410,411,
0,0,0,0,0,0,566,567,568,569,750,751,440,441,442,443,
0,0,838,839,840,841,536,537,410,411,414,415,598,599,540,541,
0,0,870,871,872,873,568,569,442,443,446,447,630,631,572,573,
774,775,776,777,534,535,782,783,410,411,478,479,778,779,780,781,
806,807,808,809,566,567,814,815,442,443,510,511,810,811,812,813,
838,839,840,841,536,537,536,537,600,601,540,541,842,843,844,845,
870,871,872,873,568,569,568,569,632,633,572,573,874,875,876,877,
774,775,534,535,536,537,534,535,472,473,474,475,538,539,540,541,
806,807,566,567,568,569,566,567,504,505,506,507,570,571,572,573,
534,535,774,775,534,535,534,535,536,537,600,601,540,541,538,539,
566,567,806,807,566,567,566,567,568,569,632,633,572,573,570,571,
536,537,534,535,536,537,534,535,534,535,536,537,600,601,540,541,
568,569,566,567,568,569,566,567,566,567,568,569,632,633,572,573,
536,537,774,775,776,777,534,535,774,775,776,777,408,409,410,411,
568,569,806,807,808,809,566,567,806,807,808,809,440,441,442,443
</chunk>
   <chunk x="64" y="-80" width="16" height="16">
0,0,790,791,290,291,2147484441,2147484440,0,0,996,997,994,995,536,537,
0,0,822,823,322,323,2147484473,2147484472,0,0,1028,1029,1026,1027,568,569,
0,0,792,793,290,291,0,0,0,0,0,0,0,0,0,0,
0,0,824,825,322,323,0,0,0,0,0,0,0,0,0,0,
0,0,790,791,290,291,0,0,0,0,0,0,0,0,666,667,
0,0,822,823,322,323,0,0,0,0,0,0,0,0,698,699,
0,0,792,793,290,291,0,0,0,0,0,0,0,0,0,0,
0,0,824,825,322,323,0,0,0,0,0,0,0,0,0,0,
0,0,790,791,290,291,290,291,290,291,290,291,2147484441,2147484440,0,0,
0,0,822,823,322,323,322,323,322,323,322,323,2147484473,2147484472,0,0,
0,0,792,793,290,291,290,291,290,291,290,291,2147484441,2147484440,0,0,
0,0,824,825,322,323,322,323,322,323,322,323,2147484473,2147484472,0,0,
538,539,0,0,0,0,0,0,0,0,290,291,2147484439,2147484438,0,0,
570,571,0,0,0,0,0,0,0,0,322,323,2147484471,2147484470,0,0,
538,539,540,541,474,475,0,0,792,793,290,291,2147484441,2147484440,666,667,
570,571,572,573,506,507,0,0,824,825,322,323,2147484473,2147484472,698,699
</chunk>
   <chunk x="80" y="-80" width="16" height="16">
534,535,0,0,0,0,838,839,840,841,534,535,536,537,408,409,
566,567,0,0,0,0,870,871,872,873,566,567,568,569,440,441,
774,775,776,777,472,473,838,839,840,841,774,775,776,777,472,473,
806,807,808,809,504,505,870,871,872,873,806,807,808,809,504,505,
838,839,840,841,774,775,776,777,534,535,838,839,840,841,408,409,
870,871,872,873,806,807,808,809,566,567,870,871,872,873,440,441,
534,535,536,537,838,839,840,841,536,537,536,537,534,535,472,473,
566,567,568,569,870,871,872,873,568,569,568,569,566,567,504,505,
536,537,534,535,774,775,776,777,0,0,774,775,776,777,534,535,
568,569,566,567,806,807,808,809,0,0,806,807,808,809,566,567,
0,0,536,537,838,839,840,841,408,409,838,839,840,841,408,409,
0,0,568,569,870,871,872,873,440,441,870,871,872,873,440,441,
0,0,534,535,536,537,534,535,472,473,0,0,534,535,472,473,
0,0,566,567,568,569,566,567,504,505,0,0,566,567,504,505,
534,535,536,537,472,473,838,839,840,841,774,775,776,777,472,473,
566,567,568,569,504,505,870,871,872,873,806,807,808,809,504,505
</chunk>
   <chunk x="96" y="-80" width="16" height="16">
474,475,538,539,540,541,474,475,842,843,844,845,0,0,0,0,
506,507,570,571,572,573,506,507,874,875,876,877,0,0,0,0,
472,473,474,475,538,539,778,779,780,781,540,541,0,0,0,0,
504,505,506,507,570,571,810,811,812,813,572,573,0,0,0,0,
408,409,410,411,474,475,842,843,844,845,538,539,0,0,0,0,
440,441,442,443,506,507,874,875,876,877,570,571,0,0,0,0,
472,473,474,475,538,539,474,475,538,539,540,541,0,0,0,0,
504,505,506,507,570,571,506,507,570,571,572,573,0,0,0,0,
0,0,538,539,540,541,778,779,780,781,540,541,0,0,0,0,
0,0,570,571,572,573,810,811,812,813,572,573,0,0,0,0,
0,0,540,541,538,539,842,843,778,779,780,781,0,0,0,0,
0,0,572,573,570,571,874,875,810,811,812,813,0,0,0,0,
474,475,538,539,540,541,474,475,842,843,844,845,0,0,0,0,
506,507,570,571,572,573,506,507,874,875,876,877,0,0,0,0,
778,779,780,781,540,541,778,779,780,781,540,541,0,0,0,0,
810,811,812,813,572,573,810,811,812,813,572,573,0,0,0,0
</chunk>
   <chunk x="-96" y="-64" width="16" height="16">
0,0,0,0,0,0,0,0,0,0,0,0,838,839,840,841,
0,0,0,0,0,0,0,0,0,0,0,0,870,871,872,873,
0,0,0,0,0,0,0,0,0,0,0,0,536,537,534,535,
0,0,0,0,0,0,0,0,0,0,0,0,568,569,566,567,
0,0,0,0,0,0,0,0,0,0,0,0,536,537,534,535,
0,0,0,0,0,0,0,0,0,0,0,0,568,569,566,567,
0,0,0,0,0,0,0,0,0,0,0,0,534,535,774,775,
0,0,0,0,0,0,0,0,0,0,0,0,566,567,806,807,
0,0,0,0,0,0,0,0,0,0,0,0,536,537,534,535,
0,0,0,0,0,0,0,0,0,0,0,0,568,569,566,567,
0,0,0,0,0,0,0,0,0,0,0,0,774,775,776,777,
0,0,0,0,0,0,0,0,0,0,0,0,806,807,808,809,
0,0,0,0,0,0,0,0,0,0,0,0,838,839,840,841,
0,0,0,0,0,0,0,0,0,0,0,0,870,871,872,873,
0,0,0,0,0,0,0,0,0,0,0,0,534,535,534,535,
0,0,0,0,0,0,0,0,0,0,0,0,566,567,566,567
</chunk>
   <chunk x="-80" y="-64" width="16" height="16">
408,409,472,473,474,475,538,539,842,843,844,845,538,539,538,539,
440,441,504,505,506,507,570,571,874,875,876,877,570,571,570,571,
472,473,408,409,410,411,474,475,474,475,538,539,540,541,538,539,
504,505,440,441,442,443,506,507,506,507,570,571,572,573,570,571,
536,537,534,535,600,601,538,539,538,539,540,541,538,539,540,541,
568,569,566,567,632,633,570,571,570,571,572,573,570,571,572,573,
534,535,536,537,534,535,600,601,410,411,540,541,540,541,538,539,
566,567,568,569,566,567,632,633,442,443,572,573,572,573,570,571,
536,537,534,535,536,537,408,409,474,475,538,539,538,539,778,779,
568,569,566,567,568,569,440,441,506,507,570,571,570,571,810,811,
534,535,774,775,534,535,536,537,600,601,540,541,538,539,778,779,
566,567,806,807,566,567,568,569,632,633,572,573,570,571,810,811,
408,409,534,535,774,775,534,535,472,473,474,475,540,541,842,843,
440,441,566,567,806,807,566,567,504,505,506,507,572,573,874,875,
472,473,536,537,534,535,536,537,536,537,600,601,538,539,474,475,
504,505,568,569,566,567,568,569,568,569,632,633,570,571,506,507
</chunk>
   <chunk x="-64" y="-64" width="16" height="16">
538,539,0,0,534,535,0,0,474,475,410,411,540,541,540,541,
570,571,0,0,566,567,0,0,506,507,442,443,572,573,572,573,
538,539,538,539,536,537,598,599,0,0,474,475,538,539,538,539,
570,571,570,571,568,569,630,631,0,0,506,507,570,571,570,571,
0,0,540,541,0,0,0,0,540,541,540,541,538,539,540,541,
0,0,572,573,0,0,0,0,572,573,572,573,570,571,572,573,
538,539,0,0,0,0,0,0,538,539,538,539,540,541,0,0,
570,571,0,0,0,0,0,0,570,571,570,571,572,573,0,0,
780,781,538,539,0,0,0,0,540,541,540,541,538,539,0,0,
812,813,570,571,0,0,0,0,572,573,572,573,570,571,0,0,
780,781,540,541,540,541,538,539,540,541,0,0,0,0,0,0,
812,813,572,573,572,573,570,571,572,573,0,0,0,0,0,0,
778,779,780,781,538,539,540,541,0,0,0,0,0,0,0,0,
810,811,812,813,570,571,572,573,0,0,0,0,0,0,0,0,
842,843,844,845,474,475,538,539,0,0,0,0,0,0,0,0,
874,875,876,877,506,507,570,571,0,0,0,0,0,0,0,0
</chunk>
   <chunk x="-48" y="-64" width="16" height="16">
0,0,0,0,80,81,76,77,78,79,80,81,76,77,78,79,
0,0,0,0,112,113,108,109,110,111,112,113,108,109,110,111,
0,0,0,0,144,145,140,141,142,143,144,145,140,141,142,143,
0,0,0,0,176,177,172,173,174,175,176,177,172,173,174,175,
0,0,0,0,0,0,0,0,0,0,0,0,0,0,0,0,
0,0,0,0,0,0,0,0,0,0,0,0,0,0,0,0,
0,0,0,0,0,0,0,0,0,0,0,0,0,0,0,0,
0,0,0,0,0,0,0,0,0,0,0,0,0,0,0,0,
0,0,0,0,0,0,0,0,0,0,0,0,0,0,0,0,
0,0,0,0,0,0,0,0,0,0,0,0,0,0,0,0,
6,7,8,9,10,11,6,7,8,9,10,11,0,0,0,0,
38,39,40,41,42,43,38,39,40,41,42,43,0,0,0,0,
70,71,72,73,74,75,70,71,72,73,74,75,0,0,0,0,
102,103,104,105,106,107,102,103,104,105,106,107,0,0,0,0,
134,135,136,137,138,139,134,135,136,137,138,139,0,0,0,0,
166,167,168,169,170,171,166,167,168,169,170,171,0,0,0,0
</chunk>
   <chunk x="-32" y="-64" width="16" height="16">
80,81,76,77,78,79,80,81,76,77,78,79,80,81,76,77,
112,113,108,109,110,111,112,113,108,109,110,111,112,113,108,109,
144,145,140,141,142,143,144,145,140,141,142,143,144,145,140,141,
176,177,172,173,174,175,176,177,172,173,174,175,176,177,172,173,
16,17,12,13,14,15,16,17,12,13,14,15,16,17,12,13,
48,49,44,45,46,47,48,49,44,45,46,47,48,49,44,45,
80,81,76,77,78,79,80,81,76,77,78,79,80,81,76,77,
112,113,108,109,110,111,112,113,108,109,110,111,112,113,108,109,
144,145,140,141,142,143,144,145,140,141,142,143,144,145,140,141,
176,177,172,173,174,175,176,177,172,173,174,175,176,177,172,173,
0,0,0,0,0,0,16,17,12,13,14,15,16,17,12,13,
0,0,0,0,0,0,48,49,44,45,46,47,48,49,44,45,
0,0,0,0,0,0,80,81,76,77,78,79,80,81,76,77,
0,0,0,0,0,0,112,113,108,109,110,111,112,113,108,109,
0,0,0,0,0,0,144,145,140,141,142,143,144,145,140,141,
0,0,0,0,0,0,176,177,172,173,174,175,176,177,172,173
</chunk>
   <chunk x="-16" y="-64" width="16" height="16">
78,79,80,81,76,77,78,79,80,81,76,77,78,79,80,81,
110,111,112,113,108,109,110,111,112,113,108,109,110,111,112,113,
142,143,144,145,140,141,142,143,144,145,140,141,142,143,144,145,
174,175,176,177,172,173,174,175,176,177,172,173,174,175,176,177,
14,15,16,17,12,13,14,15,16,17,12,13,14,15,16,17,
46,47,48,49,44,45,46,47,48,49,44,45,46,47,48,49,
78,79,80,81,76,77,78,79,80,81,76,77,78,79,80,81,
110,111,112,113,108,109,110,111,112,113,108,109,110,111,112,113,
142,143,144,145,140,141,142,143,144,145,140,141,142,143,144,145,
174,175,176,177,172,173,174,175,176,177,172,173,174,175,176,177,
14,15,16,17,12,13,14,15,0,0,0,0,0,0,0,0,
46,47,48,49,44,45,46,47,0,0,0,0,0,0,0,0,
78,79,80,81,76,77,78,79,0,0,0,0,0,0,0,0,
110,111,112,113,108,109,110,111,0,0,0,0,0,0,0,0,
142,143,144,145,140,141,142,143,0,0,0,0,0,0,0,0,
174,175,176,177,172,173,174,175,0,0,0,0,0,0,0,0
</chunk>
   <chunk x="0" y="-64" width="16" height="16">
76,77,78,79,0,0,0,0,0,0,0,0,0,0,0,0,
108,109,110,111,0,0,0,0,0,0,0,0,0,0,0,0,
140,141,142,143,0,0,0,0,0,0,0,0,0,0,0,0,
172,173,174,175,0,0,0,0,0,0,0,0,0,0,0,0,
12,13,14,15,0,0,0,0,0,0,0,0,0,0,0,0,
44,45,46,47,0,0,0,0,0,0,0,0,0,0,0,0,
76,77,78,79,0,0,0,0,0,0,0,0,0,0,0,0,
108,109,110,111,0,0,0,0,0,0,0,0,0,0,0,0,
140,141,142,143,0,0,0,0,0,0,0,0,0,0,0,0,
172,173,174,175,0,0,0,0,0,0,0,0,0,0,0,0,
0,0,0,0,0,0,0,0,0,0,0,0,0,0,0,0,
0,0,0,0,0,0,0,0,0,0,0,0,0,0,0,0,
0,0,0,0,0,0,0,0,0,0,0,0,0,0,0,0,
0,0,0,0,0,0,0,0,0,0,0,0,0,0,0,0,
0,0,0,0,0,0,0,0,0,0,0,0,0,0,0,0,
0,0,0,0,0,0,0,0,0,0,0,0,0,0,0,0
</chunk>
   <chunk x="16" y="-64" width="16" height="16">
0,0,0,0,0,0,0,0,0,0,0,0,80,81,76,77,
0,0,0,0,0,0,0,0,0,0,0,0,112,113,108,109,
0,0,0,0,0,0,0,0,0,0,0,0,144,145,140,141,
0,0,0,0,0,0,0,0,0,0,0,0,176,177,172,173,
0,0,0,0,0,0,0,0,12,13,14,15,0,0,0,0,
0,0,0,0,0,0,0,0,44,45,46,47,0,0,0,0,
0,0,0,0,0,0,80,81,76,77,78,79,0,0,0,0,
0,0,0,0,0,0,112,113,108,109,110,111,0,0,0,0,
0,0,0,0,0,0,144,145,140,141,142,143,0,0,0,0,
0,0,0,0,0,0,176,177,172,173,174,175,0,0,0,0,
16,17,12,13,14,15,16,17,12,13,14,15,0,0,6,7,
48,49,44,45,46,47,48,49,44,45,46,47,0,0,38,39,
80,81,76,77,78,79,80,81,76,77,78,79,0,0,70,71,
112,113,108,109,110,111,112,113,108,109,110,111,0,0,102,103,
144,145,140,141,142,143,144,145,140,141,142,143,0,0,134,135,
176,177,172,173,174,175,176,177,172,173,174,175,0,0,166,167
</chunk>
   <chunk x="32" y="-64" width="16" height="16">
78,79,0,0,0,0,0,0,0,0,0,0,0,0,0,0,
110,111,0,0,0,0,0,0,0,0,0,0,0,0,0,0,
142,143,0,0,0,0,0,0,0,0,0,0,0,0,0,0,
174,175,0,0,0,0,0,0,0,0,0,0,0,0,0,0,
0,0,0,0,6,7,8,9,10,11,6,7,8,9,10,11,
0,0,0,0,38,39,40,41,42,43,38,39,40,41,42,43,
0,0,0,0,70,71,72,73,74,75,70,71,72,73,74,75,
0,0,0,0,102,103,104,105,106,107,102,103,104,105,106,107,
0,0,0,0,134,135,136,137,138,139,134,135,136,137,138,139,
0,0,0,0,166,167,168,169,170,171,166,167,168,169,170,171,
8,9,10,11,6,7,8,9,10,11,6,7,8,9,10,11,
40,41,42,43,38,39,40,41,42,43,38,39,40,41,42,43,
72,73,74,75,70,71,72,73,74,75,70,71,72,73,74,75,
104,105,106,107,102,103,104,105,106,107,102,103,104,105,106,107,
136,137,138,139,134,135,136,137,138,139,134,135,136,137,138,139,
168,169,170,171,166,167,168,169,170,171,166,167,168,169,170,171
</chunk>
   <chunk x="48" y="-64" width="16" height="16">
670,671,838,839,840,841,774,775,776,777,840,841,472,473,474,475,
702,703,870,871,872,873,806,807,808,809,872,873,504,505,506,507,
734,735,534,535,408,409,838,839,840,841,534,535,598,599,540,541,
766,767,566,567,440,441,870,871,872,873,566,567,630,631,572,573,
606,607,534,535,472,473,534,535,534,535,472,473,474,475,538,539,
638,639,566,567,504,505,566,567,566,567,504,505,506,507,570,571,
670,671,536,537,584,585,534,535,536,537,598,599,538,539,540,541,
702,703,568,569,616,617,566,567,568,569,630,631,570,571,572,573,
734,735,0,0,648,649,534,535,534,535,600,601,540,541,0,0,
766,767,0,0,680,681,566,567,566,567,632,633,572,573,0,0,
0,0,0,0,712,713,536,537,774,775,408,409,410,411,0,0,
0,0,0,0,744,745,568,569,806,807,440,441,442,443,0,0,
0,0,0,0,0,0,670,671,838,839,472,473,474,475,538,539,
0,0,0,0,0,0,702,703,870,871,504,505,506,507,570,571,
0,0,0,0,0,0,734,735,534,535,408,409,598,599,538,539,
0,0,0,0,0,0,766,767,566,567,440,441,630,631,570,571
</chunk>
   <chunk x="64" y="-64" width="16" height="16">
540,541,474,475,538,539,0,0,792,793,290,291,2147484439,2147484438,0,0,
572,573,506,507,570,571,0,0,824,825,322,323,2147484471,2147484470,0,0,
538,539,0,0,0,0,0,0,790,791,290,291,2147484441,2147484440,0,0,
570,571,0,0,0,0,0,0,822,823,322,323,2147484473,2147484472,0,0,
0,0,0,0,0,0,0,0,0,0,290,291,0,0,0,0,
0,0,0,0,0,0,0,0,0,0,322,323,0,0,0,0,
0,0,0,0,0,0,0,0,0,0,290,291,0,0,0,0,
0,0,0,0,0,0,0,0,0,0,322,323,0,0,0,0,
0,0,0,0,0,0,0,0,0,0,290,291,0,0,0,0,
0,0,0,0,0,0,0,0,0,0,322,323,0,0,0,0,
0,0,790,791,290,291,290,291,290,291,290,291,290,291,290,291,
0,0,822,823,322,323,322,323,322,323,322,323,322,323,322,323,
0,0,792,793,290,291,290,291,290,291,290,291,290,291,290,291,
0,0,824,825,322,323,322,323,322,323,322,323,322,323,322,323,
0,0,792,793,290,291,290,291,290,291,290,291,290,291,290,291,
0,0,824,825,322,323,322,323,322,323,322,323,322,323,322,323
</chunk>
   <chunk x="80" y="-64" width="16" height="16">
0,0,534,535,774,775,776,777,534,535,838,839,840,841,408,409,
0,0,566,567,806,807,808,809,566,567,870,871,872,873,440,441,
0,0,0,0,838,839,840,841,536,537,536,537,534,535,472,473,
0,0,0,0,870,871,872,873,568,569,568,569,566,567,504,505,
0,0,0,0,0,0,536,537,0,0,472,473,838,839,840,841,
0,0,0,0,0,0,568,569,0,0,504,505,870,871,872,873,
0,0,0,0,666,667,774,775,776,777,774,775,776,777,534,535,
0,0,0,0,698,699,806,807,808,809,806,807,808,809,566,567,
0,0,0,0,602,603,838,839,840,841,838,839,840,841,536,537,
0,0,0,0,634,635,870,871,872,873,870,871,872,873,568,569,
290,291,2147484441,2147484440,666,667,534,535,536,537,774,775,776,777,472,473,
322,323,2147484473,2147484472,698,699,566,567,568,569,806,807,808,809,504,505,
290,291,2147484441,2147484440,0,0,0,0,534,535,838,839,840,841,408,409,
322,323,2147484473,2147484472,0,0,0,0,566,567,870,871,872,873,440,441,
290,291,2147484439,2147484438,0,0,0,0,0,0,536,537,534,535,472,473,
322,323,2147484471,2147484470,0,0,0,0,0,0,568,569,566,567,504,505
</chunk>
   <chunk x="96" y="-64" width="16" height="16">
842,843,844,845,538,539,842,843,844,845,538,539,0,0,0,0,
874,875,876,877,570,571,874,875,876,877,570,571,0,0,0,0,
474,475,538,539,540,541,474,475,538,539,540,541,0,0,0,0,
506,507,570,571,572,573,506,507,570,571,572,573,0,0,0,0,
600,601,538,539,474,475,474,475,0,0,538,539,0,0,0,0,
632,633,570,571,506,507,506,507,0,0,570,571,0,0,0,0,
534,535,408,409,0,0,0,0,474,475,540,541,0,0,0,0,
566,567,440,441,0,0,0,0,506,507,572,573,0,0,0,0,
536,537,534,535,408,409,410,411,538,539,474,475,0,0,0,0,
568,569,566,567,440,441,442,443,570,571,506,507,0,0,0,0,
0,0,534,535,536,537,600,601,474,475,0,0,0,0,0,0,
0,0,566,567,568,569,632,633,506,507,0,0,0,0,0,0,
534,535,0,0,534,535,536,537,600,601,0,0,0,0,0,0,
566,567,0,0,566,567,568,569,632,633,0,0,0,0,0,0,
536,537,534,535,536,537,534,535,534,535,534,535,0,0,0,0,
568,569,566,567,568,569,566,567,566,567,566,567,0,0,0,0
</chunk>
   <chunk x="-96" y="-48" width="16" height="16">
0,0,0,0,0,0,0,0,0,0,0,0,534,535,776,777,
0,0,0,0,0,0,0,0,0,0,0,0,566,567,808,809,
0,0,0,0,0,0,0,0,0,0,0,0,838,839,840,841,
0,0,0,0,0,0,0,0,0,0,0,0,870,871,872,873,
0,0,0,0,0,0,0,0,0,0,0,0,0,0,0,0,
0,0,0,0,0,0,0,0,0,0,0,0,0,0,0,0,
0,0,0,0,0,0,0,0,0,0,0,0,0,0,0,0,
0,0,0,0,0,0,0,0,0,0,0,0,0,0,0,0,
0,0,0,0,0,0,0,0,0,0,0,0,0,0,840,841,
0,0,0,0,0,0,0,0,0,0,0,0,0,0,872,873,
0,0,0,0,0,0,0,0,0,0,0,0,0,0,534,535,
0,0,0,0,0,0,0,0,0,0,0,0,0,0,566,567,
0,0,0,0,0,0,0,0,0,0,0,0,774,775,776,777,
0,0,0,0,0,0,0,0,0,0,0,0,806,807,808,809,
0,0,0,0,0,0,0,0,0,0,0,0,838,839,840,841,
0,0,0,0,0,0,0,0,0,0,0,0,870,871,872,873
</chunk>
   <chunk x="-80" y="-48" width="16" height="16">
534,535,472,473,838,839,840,841,534,535,600,601,538,539,782,783,
566,567,504,505,870,871,872,873,566,567,632,633,570,571,814,815,
408,409,774,775,776,777,534,535,536,537,534,535,600,601,0,0,
440,441,806,807,808,809,566,567,568,569,566,567,632,633,0,0,
472,473,838,839,840,841,536,537,534,535,536,537,408,409,474,475,
504,505,870,871,872,873,568,569,566,567,568,569,440,441,506,507,
534,535,774,775,534,535,536,537,472,473,838,839,840,841,600,601,
566,567,806,807,566,567,568,569,504,505,870,871,872,873,632,633,
408,409,534,535,774,775,534,535,774,775,776,777,534,535,472,473,
440,441,566,567,806,807,566,567,806,807,808,809,566,567,504,505,
472,473,536,537,534,535,536,537,838,839,840,841,536,537,536,537,
504,505,568,569,566,567,568,569,870,871,872,873,568,569,568,569,
472,473,774,775,776,777,534,535,774,775,776,777,472,473,534,535,
504,505,806,807,808,809,566,567,806,807,808,809,504,505,566,567,
408,409,838,839,840,841,408,409,838,839,840,841,408,409,536,537,
440,441,870,871,872,873,440,441,870,871,872,873,440,441,568,569
</chunk>
   <chunk x="-64" y="-48" width="16" height="16">
538,539,540,541,474,475,540,541,0,0,0,0,0,0,0,0,
570,571,572,573,506,507,572,573,0,0,0,0,0,0,0,0,
540,541,538,539,540,541,538,539,540,541,0,0,0,0,0,0,
572,573,570,571,572,573,570,571,572,573,0,0,0,0,0,0,
538,539,540,541,778,779,780,781,540,541,0,0,0,0,0,0,
570,571,572,573,810,811,812,813,572,573,0,0,0,0,0,0,
540,541,538,539,782,783,538,539,540,541,410,411,540,541,0,0,
572,573,570,571,814,815,570,571,572,573,442,443,572,573,0,0,
474,475,540,541,0,0,540,541,538,539,782,783,538,539,0,0,
506,507,572,573,0,0,572,573,570,571,814,815,570,571,0,0,
600,601,538,539,474,475,538,539,540,541,0,0,0,0,0,0,
632,633,570,571,506,507,570,571,572,573,0,0,0,0,0,0,
600,601,538,539,778,779,780,781,540,541,474,475,540,541,0,0,
632,633,570,571,810,811,812,813,572,573,506,507,572,573,0,0,
534,535,600,601,842,843,778,779,780,781,540,541,538,539,540,541,
566,567,632,633,874,875,810,811,812,813,572,573,570,571,572,573
</chunk>
   <chunk x="-48" y="-48" width="16" height="16">
6,7,8,9,10,11,6,7,8,9,10,11,6,7,8,9,
38,39,40,41,42,43,38,39,40,41,42,43,38,39,40,41,
70,71,72,73,74,75,70,71,72,73,74,75,70,71,72,73,
102,103,104,105,106,107,102,103,104,105,106,107,102,103,104,105,
134,135,136,137,138,139,134,135,136,137,138,139,134,135,136,137,
166,167,168,169,170,171,166,167,168,169,170,171,166,167,168,169,
0,0,0,0,0,0,6,7,8,9,10,11,6,7,8,9,
0,0,0,0,0,0,38,39,40,41,42,43,38,39,40,41,
0,0,0,0,0,0,70,71,72,73,74,75,70,71,72,73,
0,0,0,0,0,0,102,103,104,105,106,107,102,103,104,105,
0,0,0,0,0,0,134,135,136,137,138,139,134,135,136,137,
0,0,0,0,0,0,166,167,168,169,170,171,166,167,168,169,
0,0,0,0,0,0,6,7,8,9,10,11,6,7,8,9,
0,0,0,0,0,0,38,39,40,41,42,43,38,39,40,41,
0,0,0,0,0,0,70,71,72,73,74,75,70,71,72,73,
0,0,0,0,0,0,102,103,104,105,106,107,102,103,104,105
</chunk>
   <chunk x="-32" y="-48" width="16" height="16">
10,11,0,0,0,0,0,0,0,0,0,0,16,17,12,13,
42,43,0,0,0,0,0,0,0,0,0,0,48,49,44,45,
74,75,0,0,0,0,0,0,0,0,0,0,80,81,76,77,
106,107,0,0,0,0,0,0,0,0,0,0,112,113,108,109,
138,139,0,0,0,0,0,0,0,0,0,0,144,145,140,141,
170,171,0,0,0,0,0,0,0,0,0,0,176,177,172,173,
10,11,6,7,8,9,10,11,0,0,0,0,16,17,12,13,
42,43,38,39,40,41,42,43,0,0,0,0,48,49,44,45,
74,75,70,71,72,73,74,75,0,0,0,0,80,81,76,77,
106,107,102,103,104,105,106,107,0,0,0,0,112,113,108,109,
138,139,134,135,136,137,138,139,0,0,0,0,144,145,140,141,
170,171,166,167,168,169,170,171,0,0,0,0,176,177,172,173,
10,11,6,7,8,9,10,11,0,0,0,0,16,17,12,13,
42,43,38,39,40,41,42,43,0,0,0,0,48,49,44,45,
74,75,70,71,72,73,74,75,0,0,0,0,80,81,76,77,
106,107,102,103,104,105,106,107,0,0,0,0,112,113,108,109
</chunk>
   <chunk x="-16" y="-48" width="16" height="16">
14,15,0,0,0,0,0,0,0,0,0,0,0,0,0,0,
46,47,0,0,0,0,0,0,0,0,0,0,0,0,0,0,
78,79,0,0,0,0,0,0,0,0,0,0,0,0,0,0,
110,111,0,0,0,0,0,0,0,0,0,0,0,0,0,0,
142,143,0,0,0,0,0,0,0,0,0,0,0,0,0,0,
174,175,0,0,0,0,0,0,0,0,0,0,0,0,0,0,
14,15,0,0,0,0,0,0,0,0,0,0,0,0,0,0,
46,47,0,0,0,0,0,0,0,0,0,0,0,0,0,0,
78,79,0,0,0,0,0,0,0,0,0,0,0,0,0,0,
110,111,0,0,0,0,0,0,0,0,0,0,0,0,0,0,
142,143,0,0,0,0,0,0,0,0,0,0,0,0,0,0,
174,175,0,0,0,0,0,0,0,0,0,0,0,0,0,0,
14,15,16,17,12,13,14,15,0,0,0,0,0,0,0,0,
46,47,48,49,44,45,46,47,0,0,0,0,0,0,0,0,
78,79,80,81,76,77,78,79,0,0,0,0,0,0,0,0,
110,111,112,113,108,109,110,111,0,0,0,0,0,0,0,0
</chunk>
   <chunk x="0" y="-48" width="16" height="16">
0,0,0,0,0,0,0,0,0,0,0,0,12,13,14,15,
0,0,0,0,0,0,0,0,0,0,0,0,44,45,46,47,
0,0,0,0,0,0,0,0,0,0,80,81,76,77,78,79,
0,0,0,0,0,0,0,0,0,0,112,113,108,109,110,111,
0,0,0,0,0,0,0,0,0,0,144,145,140,141,142,143,
0,0,0,0,0,0,0,0,0,0,176,177,172,173,174,175,
0,0,0,0,0,0,0,0,0,0,0,0,0,0,0,0,
0,0,0,0,0,0,0,0,0,0,0,0,0,0,0,0,
0,0,0,0,0,0,0,0,0,0,0,0,0,0,0,0,
0,0,0,0,0,0,0,0,0,0,0,0,0,0,0,0,
0,0,0,0,0,0,0,0,0,0,0,0,0,0,0,0,
0,0,0,0,0,0,0,0,0,0,0,0,0,0,0,0,
0,0,0,0,0,0,0,0,0,0,0,0,0,0,0,0,
0,0,0,0,0,0,0,0,0,0,0,0,0,0,0,0,
0,0,0,0,0,0,0,0,0,0,0,0,0,0,0,0,
0,0,0,0,0,0,0,0,0,0,0,0,0,0,0,0
</chunk>
   <chunk x="16" y="-48" width="16" height="16">
16,17,12,13,14,15,16,17,12,13,14,15,0,0,0,0,
48,49,44,45,46,47,48,49,44,45,46,47,0,0,0,0,
80,81,76,77,78,79,80,81,76,77,78,79,0,0,0,0,
112,113,108,109,110,111,112,113,108,109,110,111,0,0,0,0,
144,145,140,141,142,143,144,145,140,141,142,143,0,0,0,0,
176,177,172,173,174,175,176,177,172,173,174,175,0,0,0,0,
0,0,0,0,0,0,16,17,12,13,14,15,0,0,6,7,
0,0,0,0,0,0,48,49,44,45,46,47,0,0,38,39,
0,0,0,0,0,0,80,81,76,77,78,79,0,0,70,71,
0,0,0,0,0,0,112,113,108,109,110,111,0,0,102,103,
0,0,0,0,0,0,144,145,140,141,142,143,0,0,134,135,
0,0,0,0,0,0,176,177,172,173,174,175,0,0,166,167,
0,0,0,0,0,0,0,0,0,0,0,0,0,0,0,0,
0,0,0,0,0,0,0,0,0,0,0,0,0,0,0,0,
0,0,0,0,0,0,0,0,0,0,0,0,0,0,0,0,
0,0,0,0,0,0,0,0,0,0,0,0,0,0,0,0
</chunk>
   <chunk x="32" y="-48" width="16" height="16">
0,0,0,0,6,7,8,9,10,11,6,7,8,9,10,11,
0,0,0,0,38,39,40,41,42,43,38,39,40,41,42,43,
0,0,0,0,70,71,72,73,74,75,70,71,72,73,74,75,
0,0,0,0,102,103,104,105,106,107,102,103,104,105,106,107,
0,0,0,0,134,135,136,137,138,139,134,135,136,137,138,139,
0,0,0,0,166,167,168,169,170,171,166,167,168,169,170,171,
8,9,10,11,6,7,8,9,10,11,6,7,8,9,10,11,
40,41,42,43,38,39,40,41,42,43,38,39,40,41,42,43,
72,73,74,75,70,71,72,73,74,75,70,71,72,73,74,75,
104,105,106,107,102,103,104,105,106,107,102,103,104,105,106,107,
136,137,138,139,134,135,136,137,138,139,134,135,136,137,138,139,
168,169,170,171,166,167,168,169,170,171,166,167,168,169,170,171,
0,0,0,0,0,0,0,0,0,0,6,7,8,9,10,11,
0,0,0,0,0,0,0,0,0,0,38,39,40,41,42,43,
0,0,0,0,0,0,0,0,0,0,70,71,72,73,74,75,
0,0,0,0,0,0,0,0,0,0,102,103,104,105,106,107
</chunk>
   <chunk x="48" y="-48" width="16" height="16">
6,7,8,9,10,11,606,607,774,775,598,599,538,539,540,541,
38,39,40,41,42,43,638,639,806,807,630,631,570,571,572,573,
70,71,72,73,74,75,670,671,408,409,410,411,540,541,538,539,
102,103,104,105,106,107,702,703,440,441,442,443,572,573,570,571,
134,135,136,137,138,139,734,735,472,473,474,475,538,539,540,541,
166,167,168,169,170,171,766,767,504,505,506,507,570,571,572,573,
6,7,8,9,10,11,606,607,534,535,600,601,540,541,538,539,
38,39,40,41,42,43,638,639,566,567,632,633,572,573,570,571,
70,71,72,73,74,75,670,671,536,537,584,585,600,601,540,541,
102,103,104,105,106,107,702,703,568,569,616,617,632,633,572,573,
134,135,136,137,138,139,734,735,646,647,648,649,408,409,410,411,
166,167,168,169,170,171,766,767,678,679,680,681,440,441,442,443,
6,7,8,9,10,11,606,607,534,535,472,473,472,473,474,475,
38,39,40,41,42,43,638,639,566,567,504,505,504,505,506,507,
70,71,72,73,74,75,670,671,536,537,584,585,536,537,600,601,
102,103,104,105,106,107,702,703,568,569,616,617,568,569,632,633
</chunk>
   <chunk x="64" y="-48" width="16" height="16">
0,0,790,791,290,291,290,291,290,291,1170,1171,1172,1173,290,291,
0,0,822,823,322,323,322,323,322,323,1202,1203,1204,1205,322,323,
0,0,792,793,290,291,290,291,290,291,1234,1235,1236,1237,290,291,
0,0,824,825,322,323,322,323,322,323,1266,1267,1268,1269,322,323,
0,0,792,793,290,291,290,291,290,291,290,291,290,291,290,291,
0,0,824,825,322,323,322,323,322,323,322,323,322,323,322,323,
540,541,0,0,0,0,0,0,0,0,290,291,290,291,290,291,
572,573,0,0,0,0,0,0,0,0,322,323,322,323,322,323,
538,539,538,539,542,543,542,543,474,475,0,0,0,0,0,0,
570,571,570,571,574,575,574,575,506,507,0,0,0,0,0,0,
540,541,538,539,536,537,598,599,474,475,538,539,540,541,0,0,
572,573,570,571,568,569,630,631,506,507,570,571,572,573,0,0,
476,477,540,541,542,543,474,475,540,541,540,541,474,475,0,0,
508,509,572,573,574,575,506,507,572,573,572,573,506,507,0,0,
540,541,412,413,414,415,410,411,538,539,538,539,474,475,538,539,
572,573,444,445,446,447,442,443,570,571,570,571,506,507,570,571
</chunk>
   <chunk x="80" y="-48" width="16" height="16">
290,291,0,0,0,0,0,0,0,0,0,0,536,537,0,0,
322,323,0,0,0,0,0,0,0,0,0,0,568,569,0,0,
290,291,0,0,0,0,0,0,0,0,666,667,774,775,776,777,
322,323,0,0,0,0,0,0,0,0,698,699,806,807,808,809,
290,291,0,0,0,0,0,0,0,0,602,603,838,839,840,841,
322,323,0,0,0,0,0,0,0,0,634,635,870,871,872,873,
290,291,290,291,290,291,290,291,2147484441,2147484440,666,667,534,535,0,0,
322,323,322,323,322,323,322,323,2147484473,2147484472,698,699,566,567,0,0,
0,0,0,0,0,0,290,291,2147484441,2147484440,666,667,536,537,648,649,
0,0,0,0,0,0,322,323,2147484473,2147484472,698,699,568,569,680,681,
0,0,0,0,0,0,290,291,2147484439,2147484438,0,0,996,997,994,995,
0,0,0,0,0,0,322,323,2147484471,2147484470,0,0,1028,1029,1026,1027,
0,0,0,0,792,793,290,291,0,0,0,0,0,0,0,0,
0,0,0,0,824,825,322,323,0,0,0,0,0,0,0,0,
0,0,0,0,790,791,290,291,0,0,0,0,0,0,0,0,
0,0,0,0,822,823,322,323,0,0,0,0,0,0,0,0
</chunk>
   <chunk x="96" y="-48" width="16" height="16">
472,473,838,839,840,841,472,473,838,839,840,841,0,0,0,0,
504,505,870,871,872,873,504,505,870,871,872,873,0,0,0,0,
774,775,776,777,534,535,774,775,776,777,534,535,0,0,0,0,
806,807,808,809,566,567,806,807,808,809,566,567,0,0,0,0,
838,839,840,841,536,537,838,839,840,841,536,537,0,0,0,0,
870,871,872,873,568,569,870,871,872,873,568,569,0,0,0,0,
534,535,536,537,534,535,774,775,776,777,584,585,0,0,0,0,
566,567,568,569,566,567,806,807,808,809,616,617,0,0,0,0,
536,537,534,535,536,537,838,839,840,841,408,409,0,0,0,0,
568,569,566,567,568,569,870,871,872,873,440,441,0,0,0,0,
2147484643,2147484642,996,997,994,995,536,537,534,535,584,585,0,0,0,0,
2147484675,2147484674,1028,1029,1026,1027,568,569,566,567,616,617,0,0,0,0,
0,0,0,0,0,0,0,0,534,535,584,585,0,0,0,0,
0,0,0,0,0,0,0,0,566,567,616,617,0,0,0,0,
0,0,0,0,0,0,666,667,536,537,408,409,0,0,0,0,
0,0,0,0,0,0,698,699,568,569,440,441,0,0,0,0
</chunk>
   <chunk x="-96" y="-32" width="16" height="16">
0,0,0,0,0,0,0,0,0,0,0,0,536,537,534,535,
0,0,0,0,0,0,0,0,0,0,0,0,568,569,566,567,
0,0,0,0,0,0,0,0,0,0,0,0,472,473,838,839,
0,0,0,0,0,0,0,0,0,0,0,0,504,505,870,871,
0,0,0,0,0,0,0,0,0,0,0,0,774,775,776,777,
0,0,0,0,0,0,0,0,0,0,0,0,806,807,808,809,
0,0,0,0,0,0,0,0,0,0,0,0,838,839,840,841,
0,0,0,0,0,0,0,0,0,0,0,0,870,871,872,873,
0,0,0,0,0,0,0,0,0,0,0,0,0,0,0,0,
0,0,0,0,0,0,0,0,0,0,0,0,0,0,0,0,
0,0,0,0,0,0,0,0,0,0,0,0,0,0,840,841,
0,0,0,0,0,0,0,0,0,0,0,0,0,0,872,873,
0,0,0,0,0,0,0,0,0,0,0,0,0,0,534,535,
0,0,0,0,0,0,0,0,0,0,0,0,0,0,566,567,
0,0,0,0,0,0,0,0,0,0,0,0,0,0,0,0,
0,0,0,0,0,0,0,0,0,0,0,0,0,0,0,0
</chunk>
   <chunk x="-80" y="-32" width="16" height="16">
472,473,536,537,534,535,472,473,536,537,534,535,472,473,534,535,
504,505,568,569,566,567,504,505,568,569,566,567,504,505,566,567,
840,841,774,775,776,777,534,535,774,775,534,535,536,537,774,775,
872,873,806,807,808,809,566,567,806,807,566,567,568,569,806,807,
534,535,838,839,840,841,408,409,534,535,774,775,534,535,838,839,
566,567,870,871,872,873,440,441,566,567,806,807,566,567,870,871,
536,537,536,537,534,535,472,473,536,537,534,535,536,537,536,537,
568,569,568,569,566,567,504,505,568,569,566,567,568,569,568,569,
534,535,774,775,534,535,536,537,774,775,776,777,534,535,472,473,
566,567,806,807,566,567,568,569,806,807,808,809,566,567,504,505,
408,409,534,535,774,775,534,535,838,839,840,841,408,409,536,537,
440,441,566,567,806,807,566,567,870,871,872,873,440,441,568,569,
472,473,536,537,534,535,536,537,536,537,534,535,472,473,408,409,
504,505,568,569,566,567,568,569,568,569,566,567,504,505,440,441,
776,777,774,775,534,535,536,537,472,473,0,0,840,841,472,473,
808,809,806,807,566,567,568,569,504,505,0,0,872,873,504,505
</chunk>
   <chunk x="-64" y="-32" width="16" height="16">
536,537,408,409,474,475,842,843,844,845,778,779,780,781,540,541,
568,569,440,441,506,507,874,875,876,877,810,811,812,813,572,573,
776,777,534,535,778,779,780,781,540,541,778,779,780,781,540,541,
808,809,566,567,810,811,812,813,572,573,810,811,812,813,572,573,
840,841,408,409,842,843,844,845,538,539,842,843,844,845,538,539,
872,873,440,441,874,875,876,877,570,571,874,875,876,877,570,571,
534,535,472,473,474,475,538,539,540,541,474,475,538,539,540,541,
566,567,504,505,506,507,570,571,572,573,506,507,570,571,572,573,
472,473,408,409,598,599,538,539,540,541,0,0,540,541,538,539,
504,505,440,441,630,631,570,571,572,573,0,0,572,573,570,571,
536,537,598,599,410,411,540,541,538,539,540,541,538,539,540,541,
568,569,630,631,442,443,572,573,570,571,572,573,570,571,572,573,
598,599,538,539,474,475,538,539,540,541,538,539,540,541,538,539,
630,631,570,571,506,507,570,571,572,573,570,571,572,573,570,571,
474,475,538,539,778,779,780,781,540,541,540,541,538,539,540,541,
506,507,570,571,810,811,812,813,572,573,572,573,570,571,572,573
</chunk>
   <chunk x="-48" y="-32" width="16" height="16">
0,0,0,0,0,0,134,135,136,137,138,139,134,135,136,137,
0,0,0,0,0,0,166,167,168,169,170,171,166,167,168,169,
0,0,540,541,0,0,0,0,0,0,0,0,6,7,8,9,
0,0,572,573,0,0,0,0,0,0,0,0,38,39,40,41,
540,541,538,539,540,541,0,0,0,0,0,0,70,71,72,73,
572,573,570,571,572,573,0,0,0,0,0,0,102,103,104,105,
538,539,540,541,538,539,0,0,0,0,0,0,134,135,136,137,
570,571,572,573,570,571,0,0,0,0,0,0,166,167,168,169,
0,0,538,539,540,541,0,0,0,0,0,0,0,0,0,0,
0,0,570,571,572,573,0,0,0,0,0,0,0,0,0,0,
782,783,540,541,0,0,0,0,0,0,0,0,0,0,0,0,
814,815,572,573,0,0,0,0,0,0,0,0,0,0,0,0,
540,541,538,539,0,0,0,0,0,0,0,0,0,0,0,0,
572,573,570,571,0,0,0,0,0,0,0,0,0,0,0,0,
0,0,0,0,0,0,0,0,0,0,16,17,12,13,14,15,
0,0,0,0,0,0,0,0,0,0,48,49,44,45,46,47
</chunk>
   <chunk x="-32" y="-32" width="16" height="16">
138,139,134,135,136,137,138,139,0,0,0,0,144,145,140,141,
170,171,166,167,168,169,170,171,0,0,0,0,176,177,172,173,
10,11,0,0,0,0,0,0,12,13,14,15,16,17,12,13,
42,43,0,0,0,0,0,0,44,45,46,47,48,49,44,45,
74,75,0,0,0,0,80,81,76,77,78,79,80,81,76,77,
106,107,0,0,0,0,112,113,108,109,110,111,112,113,108,109,
138,139,0,0,0,0,144,145,140,141,142,143,144,145,140,141,
170,171,0,0,0,0,176,177,172,173,174,175,176,177,172,173,
0,0,12,13,14,15,16,17,12,13,14,15,16,17,12,13,
0,0,44,45,46,47,48,49,44,45,46,47,48,49,44,45,
80,81,76,77,78,79,80,81,76,77,78,79,80,81,76,77,
112,113,108,109,110,111,112,113,108,109,110,111,112,113,108,109,
144,145,140,141,142,143,144,145,140,141,142,143,144,145,140,141,
176,177,172,173,174,175,176,177,172,173,174,175,176,177,172,173,
16,17,12,13,14,15,16,17,12,13,14,15,16,17,12,13,
48,49,44,45,46,47,48,49,44,45,46,47,48,49,44,45
</chunk>
   <chunk x="-16" y="-32" width="16" height="16">
142,143,144,145,140,141,142,143,0,0,0,0,0,0,0,0,
174,175,176,177,172,173,174,175,0,0,0,0,0,0,0,0,
14,15,16,17,12,13,14,15,16,17,12,13,14,15,0,0,
46,47,48,49,44,45,46,47,48,49,44,45,46,47,0,0,
78,79,80,81,76,77,78,79,80,81,76,77,78,79,0,0,
110,111,112,113,108,109,110,111,112,113,108,109,110,111,0,0,
142,143,144,145,140,141,142,143,144,145,140,141,142,143,0,0,
174,175,176,177,172,173,174,175,176,177,172,173,174,175,0,0,
14,15,16,17,12,13,14,15,16,17,12,13,14,15,16,17,
46,47,48,49,44,45,46,47,48,49,44,45,46,47,48,49,
78,79,80,81,76,77,78,79,80,81,76,77,78,79,80,81,
110,111,112,113,108,109,110,111,112,113,108,109,110,111,112,113,
142,143,144,145,140,141,142,143,144,145,140,141,142,143,144,145,
174,175,176,177,172,173,174,175,176,177,172,173,174,175,176,177,
14,15,16,17,12,13,14,15,16,17,12,13,14,15,16,17,
46,47,48,49,44,45,46,47,48,49,44,45,46,47,48,49
</chunk>
   <chunk x="0" y="-32" width="16" height="16">
0,0,0,0,0,0,0,0,0,0,0,0,0,0,0,0,
0,0,0,0,0,0,0,0,0,0,0,0,0,0,0,0,
0,0,0,0,0,0,0,0,0,0,0,0,0,0,0,0,
0,0,0,0,0,0,0,0,0,0,0,0,0,0,0,0,
0,0,0,0,0,0,0,0,0,0,0,0,0,0,0,0,
0,0,0,0,0,0,0,0,0,0,0,0,0,0,0,0,
0,0,0,0,0,0,0,0,0,0,0,0,0,0,0,0,
0,0,0,0,0,0,0,0,0,0,0,0,0,0,0,0,
12,13,14,15,16,17,12,13,14,15,0,0,0,0,0,0,
44,45,46,47,48,49,44,45,46,47,0,0,0,0,0,0,
76,77,78,79,80,81,76,77,78,79,0,0,0,0,0,0,
108,109,110,111,112,113,108,109,110,111,0,0,0,0,0,0,
140,141,142,143,144,145,140,141,142,143,0,0,0,0,0,0,
172,173,174,175,176,177,172,173,174,175,0,0,0,0,0,0,
12,13,14,15,16,17,12,13,14,15,16,17,12,13,14,15,
44,45,46,47,48,49,44,45,46,47,48,49,44,45,46,47
</chunk>
   <chunk x="32" y="-32" width="16" height="16">
0,0,0,0,0,0,0,0,0,0,134,135,136,137,138,139,
0,0,0,0,0,0,0,0,0,0,166,167,168,169,170,171,
0,0,16,17,12,13,14,15,0,0,0,0,0,0,0,0,
0,0,48,49,44,45,46,47,0,0,0,0,0,0,0,0,
0,0,80,81,76,77,78,79,0,0,0,0,0,0,0,0,
0,0,112,113,108,109,110,111,0,0,0,0,0,0,0,0,
0,0,144,145,140,141,142,143,0,0,0,0,0,0,0,0,
0,0,176,177,172,173,174,175,0,0,0,0,0,0,0,0,
0,0,0,0,0,0,0,0,16,17,12,13,14,15,0,0,
0,0,0,0,0,0,0,0,48,49,44,45,46,47,0,0,
0,0,0,0,0,0,0,0,80,81,76,77,78,79,0,0,
0,0,0,0,0,0,0,0,112,113,108,109,110,111,0,0,
0,0,0,0,0,0,0,0,144,145,140,141,142,143,0,0,
0,0,0,0,0,0,0,0,176,177,172,173,174,175,0,0,
0,0,0,0,12,13,14,15,16,17,12,13,14,15,16,17,
0,0,0,0,44,45,46,47,48,49,44,45,46,47,48,49
</chunk>
   <chunk x="48" y="-32" width="16" height="16">
134,135,136,137,138,139,734,735,646,647,648,649,534,535,536,537,
166,167,168,169,170,171,766,767,678,679,680,681,566,567,568,569,
6,7,8,9,10,11,0,0,0,0,712,713,536,537,774,775,
38,39,40,41,42,43,0,0,0,0,744,745,568,569,806,807,
70,71,72,73,74,75,0,0,0,0,0,0,670,671,838,839,
102,103,104,105,106,107,0,0,0,0,0,0,702,703,870,871,
134,135,136,137,138,139,0,0,0,0,0,0,734,735,534,535,
166,167,168,169,170,171,0,0,0,0,0,0,766,767,566,567,
0,0,0,0,0,0,6,7,8,9,10,11,606,607,774,775,
0,0,0,0,0,0,38,39,40,41,42,43,638,639,806,807,
0,0,0,0,0,0,70,71,72,73,74,75,670,671,838,839,
0,0,0,0,0,0,102,103,104,105,106,107,702,703,870,871,
0,0,0,0,0,0,134,135,136,137,138,139,734,735,534,535,
0,0,0,0,0,0,166,167,168,169,170,171,766,767,566,567,
12,13,14,15,0,0,6,7,8,9,10,11,606,607,534,535,
44,45,46,47,0,0,38,39,40,41,42,43,638,639,566,567
</chunk>
   <chunk x="64" y="-32" width="16" height="16">
600,601,538,539,476,477,478,479,540,541,540,541,540,541,540,541,
632,633,570,571,508,509,510,511,572,573,572,573,572,573,572,573,
776,777,600,601,538,539,412,413,414,415,410,411,538,539,538,539,
808,809,632,633,570,571,444,445,446,447,442,443,570,571,570,571,
840,841,534,535,408,409,600,601,476,477,478,479,540,541,540,541,
872,873,566,567,440,441,632,633,508,509,510,511,572,573,572,573,
408,409,536,537,534,535,408,409,410,411,538,539,474,475,538,539,
440,441,568,569,566,567,440,441,442,443,570,571,506,507,570,571,
776,777,774,775,534,535,536,537,600,601,474,475,412,413,474,475,
808,809,806,807,566,567,568,569,632,633,506,507,444,445,506,507,
840,841,534,535,774,775,534,535,536,537,600,601,542,543,474,475,
872,873,566,567,806,807,566,567,568,569,632,633,574,575,506,507,
536,537,536,537,534,535,536,537,534,535,534,535,534,535,600,601,
568,569,568,569,566,567,568,569,566,567,566,567,566,567,632,633,
472,473,472,473,838,839,840,841,472,473,472,473,408,409,598,599,
504,505,504,505,870,871,872,873,504,505,504,505,440,441,630,631
</chunk>
   <chunk x="80" y="-32" width="16" height="16">
538,539,0,0,792,793,290,291,0,0,0,0,0,0,0,0,
570,571,0,0,824,825,322,323,0,0,0,0,0,0,0,0,
540,541,0,0,790,791,290,291,290,291,290,291,1170,1171,1172,1173,
572,573,0,0,822,823,322,323,322,323,322,323,1202,1203,1204,1205,
538,539,0,0,792,793,290,291,290,291,290,291,1234,1235,1236,1237,
570,571,0,0,824,825,322,323,322,323,322,323,1266,1267,1268,1269,
540,541,478,479,0,0,0,0,290,291,290,291,290,291,290,291,
572,573,510,511,0,0,0,0,322,323,322,323,322,323,322,323,
538,539,538,539,778,779,780,781,0,0,0,0,0,0,0,0,
570,571,570,571,810,811,812,813,0,0,0,0,0,0,0,0,
474,475,538,539,842,843,844,845,538,539,540,541,0,0,792,793,
506,507,570,571,874,875,876,877,570,571,572,573,0,0,824,825,
538,539,474,475,540,541,538,539,540,541,538,539,0,0,0,0,
570,571,506,507,572,573,570,571,572,573,570,571,0,0,0,0,
538,539,540,541,778,779,780,781,540,541,540,541,0,0,0,0,
570,571,572,573,810,811,812,813,572,573,572,573,0,0,0,0
</chunk>
   <chunk x="96" y="-32" width="16" height="16">
0,0,0,0,0,0,0,0,996,997,994,995,0,0,0,0,
0,0,0,0,0,0,0,0,1028,1029,1026,1027,0,0,0,0,
290,291,290,291,0,0,0,0,0,0,0,0,0,0,0,0,
322,323,322,323,0,0,0,0,0,0,0,0,0,0,0,0,
290,291,290,291,0,0,0,0,0,0,0,0,0,0,0,0,
322,323,322,323,0,0,0,0,0,0,0,0,0,0,0,0,
290,291,290,291,0,0,0,0,0,0,0,0,0,0,0,0,
322,323,322,323,0,0,0,0,0,0,0,0,0,0,0,0,
290,291,290,291,290,291,290,291,290,291,290,291,0,0,0,0,
322,323,322,323,322,323,322,323,322,323,322,323,0,0,0,0,
290,291,290,291,290,291,290,291,290,291,290,291,0,0,0,0,
322,323,322,323,322,323,322,323,322,323,322,323,0,0,0,0,
290,291,290,291,290,291,290,291,290,291,290,291,0,0,0,0,
322,323,322,323,322,323,322,323,322,323,322,323,0,0,0,0,
1114,1115,1116,1117,1118,1119,1120,1121,1122,1123,1124,1125,0,0,0,0,
1146,1147,1148,1149,1150,1151,1152,1153,1154,1155,1156,1157,0,0,0,0
</chunk>
   <chunk x="-96" y="-16" width="16" height="16">
0,0,0,0,0,0,0,0,0,0,0,0,0,0,0,0,
0,0,0,0,0,0,0,0,0,0,0,0,0,0,0,0,
0,0,0,0,0,0,0,0,0,0,0,0,0,0,0,0,
0,0,0,0,0,0,0,0,0,0,0,0,0,0,0,0,
0,0,0,0,0,0,0,0,0,0,0,0,0,0,0,0,
0,0,0,0,0,0,0,0,0,0,0,0,0,0,0,0,
0,0,0,0,0,0,0,0,0,0,0,0,0,0,0,0,
0,0,0,0,0,0,0,0,0,0,0,0,0,0,0,0,
0,0,0,0,0,0,0,0,0,0,0,0,0,0,0,0,
0,0,0,0,0,0,0,0,0,0,0,0,0,0,0,0,
0,0,0,0,0,0,0,0,0,0,0,0,774,775,776,777,
0,0,0,0,0,0,0,0,0,0,0,0,806,807,808,809,
0,0,0,0,0,0,0,0,0,0,0,0,838,839,840,841,
0,0,0,0,0,0,0,0,0,0,0,0,870,871,872,873,
0,0,0,0,0,0,0,0,0,0,0,0,536,537,534,535,
0,0,0,0,0,0,0,0,0,0,0,0,568,569,566,567
</chunk>
   <chunk x="-80" y="-16" width="16" height="16">
840,841,534,535,774,775,534,535,774,775,776,777,534,535,408,409,
872,873,566,567,806,807,566,567,806,807,808,809,566,567,440,441,
0,0,536,537,534,535,536,537,838,839,840,841,536,537,472,473,
0,0,568,569,566,567,568,569,870,871,872,873,568,569,504,505,
0,0,472,473,0,0,840,841,472,473,472,473,408,409,598,599,
0,0,504,505,0,0,872,873,504,505,504,505,440,441,630,631,
840,841,774,775,776,777,534,535,536,537,536,537,598,599,410,411,
872,873,806,807,808,809,566,567,568,569,568,569,630,631,442,443,
534,535,838,839,840,841,536,537,408,409,598,599,538,539,474,475,
566,567,870,871,872,873,568,569,440,441,630,631,570,571,506,507,
472,473,774,775,776,777,534,535,598,599,538,539,540,541,778,779,
504,505,806,807,808,809,566,567,630,631,570,571,572,573,810,811,
408,409,534,535,840,841,408,409,410,411,540,541,538,539,842,843,
440,441,566,567,872,873,440,441,442,443,572,573,570,571,874,875,
472,473,536,537,534,535,472,473,474,475,538,539,540,541,474,475,
504,505,568,569,566,567,504,505,506,507,570,571,572,573,506,507
</chunk>
   <chunk x="-64" y="-16" width="16" height="16">
410,411,474,475,842,843,844,845,538,539,538,539,540,541,0,0,
442,443,506,507,874,875,876,877,570,571,570,571,572,573,0,0,
474,475,538,539,474,475,538,539,540,541,474,475,538,539,0,0,
506,507,570,571,506,507,570,571,572,573,506,507,570,571,0,0,
538,539,540,541,410,411,538,539,540,541,778,779,780,781,0,0,
570,571,572,573,442,443,570,571,572,573,810,811,812,813,0,0,
540,541,538,539,782,783,540,541,778,779,842,843,844,845,0,0,
572,573,570,571,814,815,572,573,810,811,874,875,876,877,0,0,
538,539,540,541,540,541,538,539,842,843,540,541,538,539,0,0,
570,571,572,573,572,573,570,571,874,875,572,573,570,571,0,0,
780,781,540,541,540,541,538,539,540,541,0,0,0,0,0,0,
812,813,572,573,572,573,570,571,572,573,0,0,0,0,0,0,
844,845,538,539,538,539,540,541,0,0,0,0,0,0,0,0,
876,877,570,571,570,571,572,573,0,0,0,0,0,0,0,0,
538,539,540,541,474,475,538,539,0,0,0,0,0,0,0,0,
570,571,572,573,506,507,570,571,0,0,0,0,0,0,0,0
</chunk>
   <chunk x="-48" y="-16" width="16" height="16">
0,0,0,0,0,0,0,0,0,0,80,81,76,77,78,79,
0,0,0,0,0,0,0,0,0,0,112,113,108,109,110,111,
0,0,0,0,0,0,0,0,0,0,144,145,140,141,142,143,
0,0,0,0,0,0,0,0,0,0,176,177,172,173,174,175,
0,0,0,0,0,0,0,0,0,0,0,0,0,0,0,0,
0,0,0,0,0,0,0,0,0,0,0,0,0,0,0,0,
0,0,0,0,0,0,0,0,0,0,0,0,0,0,0,0,
0,0,0,0,0,0,0,0,0,0,0,0,0,0,0,0,
0,0,0,0,0,0,0,0,0,0,0,0,0,0,0,0,
0,0,0,0,0,0,0,0,0,0,0,0,0,0,0,0,
6,7,8,9,10,11,6,7,8,9,10,11,0,0,0,0,
38,39,40,41,42,43,38,39,40,41,42,43,0,0,0,0,
70,71,72,73,74,75,70,71,72,73,74,75,0,0,0,0,
102,103,104,105,106,107,102,103,104,105,106,107,0,0,0,0,
134,135,136,137,138,139,134,135,136,137,138,139,0,0,0,0,
166,167,168,169,170,171,166,167,168,169,170,171,0,0,0,0
</chunk>
   <chunk x="-32" y="-16" width="16" height="16">
80,81,76,77,78,79,80,81,76,77,78,79,80,81,76,77,
112,113,108,109,110,111,112,113,108,109,110,111,112,113,108,109,
144,145,140,141,142,143,144,145,140,141,142,143,144,145,140,141,
176,177,172,173,174,175,176,177,172,173,174,175,176,177,172,173,
16,17,12,13,14,15,16,17,12,13,14,15,16,17,12,13,
48,49,44,45,46,47,48,49,44,45,46,47,48,49,44,45,
80,81,76,77,78,79,80,81,76,77,78,79,80,81,76,77,
112,113,108,109,110,111,112,113,108,109,110,111,112,113,108,109,
144,145,140,141,142,143,144,145,140,141,142,143,144,145,140,141,
176,177,172,173,174,175,176,177,172,173,174,175,176,177,172,173,
16,17,12,13,14,15,16,17,12,13,14,15,16,17,12,13,
48,49,44,45,46,47,48,49,44,45,46,47,48,49,44,45,
80,81,76,77,78,79,80,81,76,77,78,79,80,81,76,77,
112,113,108,109,110,111,112,113,108,109,110,111,112,113,108,109,
144,145,140,141,142,143,144,145,140,141,142,143,144,145,140,141,
176,177,172,173,174,175,176,177,172,173,174,175,176,177,172,173
</chunk>
   <chunk x="-16" y="-16" width="16" height="16">
78,79,80,81,76,77,78,79,80,81,76,77,78,79,80,81,
110,111,112,113,108,109,110,111,112,113,108,109,110,111,112,113,
142,143,144,145,140,141,142,143,144,145,140,141,142,143,144,145,
174,175,176,177,172,173,174,175,176,177,172,173,174,175,176,177,
14,15,16,17,12,13,14,15,16,17,12,13,14,15,16,17,
46,47,48,49,44,45,46,47,48,49,44,45,46,47,48,49,
78,79,80,81,76,77,78,79,80,81,76,77,78,79,80,81,
110,111,112,113,108,109,110,111,112,113,108,109,110,111,112,113,
142,143,144,145,140,141,142,143,144,145,140,141,142,143,144,145,
174,175,176,177,172,173,174,175,176,177,172,173,174,175,176,177,
14,15,16,17,12,13,14,15,16,17,12,13,14,15,16,17,
46,47,48,49,44,45,46,47,48,49,44,45,46,47,48,49,
78,79,80,81,76,77,78,79,80,81,76,77,78,79,80,81,
110,111,112,113,108,109,110,111,112,113,108,109,110,111,112,113,
142,143,144,145,140,141,142,143,144,145,140,141,142,143,144,145,
174,175,176,177,172,173,174,175,176,177,172,173,174,175,176,177
</chunk>
   <chunk x="0" y="-16" width="16" height="16">
76,77,78,79,80,81,76,77,78,79,80,81,76,77,78,79,
108,109,110,111,112,113,108,109,110,111,112,113,108,109,110,111,
140,141,142,143,144,145,140,141,142,143,144,145,140,141,142,143,
172,173,174,175,176,177,172,173,174,175,176,177,172,173,174,175,
12,13,14,15,16,17,12,13,14,15,16,17,12,13,14,15,
44,45,46,47,48,49,44,45,46,47,48,49,44,45,46,47,
76,77,78,79,80,81,76,77,78,79,80,81,76,77,78,79,
108,109,110,111,112,113,108,109,110,111,112,113,108,109,110,111,
140,141,142,143,144,145,140,141,142,143,144,145,140,141,142,143,
172,173,174,175,176,177,172,173,174,175,176,177,172,173,174,175,
12,13,14,15,16,17,12,13,14,15,0,0,0,0,0,0,
44,45,46,47,48,49,44,45,46,47,0,0,0,0,0,0,
76,77,78,79,80,81,76,77,78,79,0,0,0,0,0,0,
108,109,110,111,112,113,108,109,110,111,0,0,0,0,0,0,
140,141,142,143,144,145,140,141,142,143,0,0,0,0,0,0,
172,173,174,175,176,177,172,173,174,175,0,0,0,0,0,0
</chunk>
   <chunk x="32" y="-16" width="16" height="16">
0,0,80,81,76,77,78,79,80,81,76,77,78,79,80,81,
0,0,112,113,108,109,110,111,112,113,108,109,110,111,112,113,
0,0,144,145,140,141,142,143,144,145,140,141,142,143,144,145,
0,0,176,177,172,173,174,175,176,177,172,173,174,175,176,177,
0,0,0,0,0,0,0,0,16,17,12,13,14,15,16,17,
0,0,0,0,0,0,0,0,48,49,44,45,46,47,48,49,
0,0,0,0,0,0,0,0,80,81,76,77,78,79,80,81,
0,0,0,0,0,0,0,0,112,113,108,109,110,111,112,113,
0,0,0,0,0,0,0,0,144,145,140,141,142,143,144,145,
0,0,0,0,0,0,0,0,176,177,172,173,174,175,176,177,
0,0,0,0,0,0,0,0,0,0,0,0,0,0,0,0,
0,0,0,0,0,0,0,0,0,0,0,0,0,0,0,0,
0,0,0,0,0,0,0,0,0,0,0,0,0,0,0,0,
0,0,0,0,0,0,0,0,0,0,0,0,0,0,0,0,
0,0,0,0,0,0,0,0,0,0,0,0,0,0,0,0,
0,0,0,0,0,0,0,0,0,0,0,0,0,0,0,0
</chunk>
   <chunk x="48" y="-16" width="16" height="16">
76,77,78,79,0,0,70,71,72,73,74,75,670,671,536,537,
108,109,110,111,0,0,102,103,104,105,106,107,702,703,568,569,
140,141,142,143,0,0,134,135,136,137,138,139,734,735,646,647,
172,173,174,175,0,0,166,167,168,169,170,171,766,767,678,679,
12,13,14,15,0,0,0,0,0,0,0,0,606,607,534,535,
44,45,46,47,0,0,0,0,0,0,0,0,638,639,566,567,
76,77,78,79,0,0,0,0,0,0,0,0,670,671,536,537,
108,109,110,111,0,0,0,0,0,0,0,0,702,703,568,569,
140,141,142,143,0,0,0,0,800,801,802,803,804,805,534,535,
172,173,174,175,0,0,0,0,832,833,834,835,836,837,566,567,
0,0,0,0,0,0,0,0,534,535,0,0,774,775,534,535,
0,0,0,0,0,0,0,0,566,567,0,0,806,807,566,567,
0,0,0,0,0,0,670,671,536,537,534,535,534,535,774,775,
0,0,0,0,0,0,702,703,568,569,566,567,566,567,806,807,
0,0,0,0,0,0,734,735,646,647,472,473,536,537,534,535,
0,0,0,0,0,0,766,767,678,679,504,505,568,569,566,567
</chunk>
   <chunk x="64" y="-16" width="16" height="16">
584,585,774,775,776,777,534,535,536,537,536,537,598,599,410,411,
616,617,806,807,808,809,566,567,568,569,568,569,630,631,442,443,
648,649,838,839,840,841,536,537,408,409,598,599,538,539,474,475,
680,681,870,871,872,873,568,569,440,441,630,631,570,571,506,507,
536,537,774,775,776,777,472,473,408,409,410,411,474,475,778,779,
568,569,806,807,808,809,504,505,440,441,442,443,506,507,810,811,
774,775,838,839,840,841,408,409,472,473,474,475,538,539,842,843,
806,807,870,871,872,873,440,441,504,505,506,507,570,571,874,875,
0,0,536,537,534,535,472,473,408,409,410,411,474,475,474,475,
0,0,568,569,566,567,504,505,440,441,442,443,506,507,506,507,
536,537,774,775,776,777,472,473,598,599,538,539,540,541,540,541,
568,569,806,807,808,809,504,505,630,631,570,571,572,573,572,573,
534,535,838,839,840,841,408,409,410,411,540,541,538,539,538,539,
566,567,870,871,872,873,440,441,442,443,572,573,570,571,570,571,
536,537,536,537,534,535,472,473,474,475,538,539,540,541,0,0,
568,569,568,569,566,567,504,505,506,507,570,571,572,573,0,0
</chunk>
   <chunk x="80" y="-16" width="16" height="16">
540,541,538,539,842,843,778,779,780,781,538,539,540,541,0,0,
572,573,570,571,874,875,810,811,812,813,570,571,572,573,0,0,
538,539,540,541,474,475,842,843,844,845,540,541,538,539,0,0,
570,571,572,573,506,507,874,875,876,877,572,573,570,571,0,0,
780,781,540,541,778,779,780,781,540,541,538,539,540,541,542,543,
812,813,572,573,810,811,812,813,572,573,570,571,572,573,574,575,
844,845,538,539,842,843,844,845,538,539,540,541,0,0,0,0,
876,877,570,571,874,875,876,877,570,571,572,573,0,0,0,0,
538,539,540,541,474,475,538,539,540,541,538,539,542,543,0,0,
570,571,572,573,506,507,570,571,572,573,570,571,574,575,0,0,
538,539,540,541,0,0,0,0,0,0,0,0,0,0,0,0,
570,571,572,573,0,0,0,0,0,0,0,0,0,0,0,0,
538,539,0,0,0,0,0,0,0,0,0,0,0,0,0,0,
570,571,0,0,0,0,0,0,0,0,0,0,0,0,0,0,
0,0,538,539,0,0,0,0,0,0,0,0,0,0,0,0,
0,0,570,571,0,0,0,0,0,0,0,0,0,0,0,0
</chunk>
   <chunk x="96" y="-16" width="16" height="16">
0,0,536,537,408,409,474,475,0,0,0,0,0,0,0,0,
0,0,568,569,440,441,506,507,0,0,0,0,0,0,0,0,
0,0,534,535,536,537,600,601,540,541,538,539,0,0,0,0,
0,0,566,567,568,569,632,633,572,573,570,571,0,0,0,0,
472,473,838,839,840,841,472,473,474,475,538,539,0,0,0,0,
504,505,870,871,872,873,504,505,506,507,570,571,0,0,0,0,
774,775,776,777,534,535,408,409,410,411,474,475,0,0,0,0,
806,807,808,809,566,567,440,441,442,443,506,507,0,0,0,0,
838,839,840,841,536,537,472,473,474,475,538,539,0,0,0,0,
870,871,872,873,568,569,504,505,506,507,570,571,0,0,0,0,
774,775,534,535,536,537,600,601,538,539,540,541,0,0,0,0,
806,807,566,567,568,569,632,633,570,571,572,573,0,0,0,0,
534,535,774,775,534,535,598,599,540,541,538,539,0,0,0,0,
566,567,806,807,566,567,630,631,572,573,570,571,0,0,0,0,
536,537,534,535,536,537,474,475,538,539,540,541,0,0,0,0,
568,569,566,567,568,569,506,507,570,571,572,573,0,0,0,0
</chunk>
   <chunk x="-96" y="0" width="16" height="16">
0,0,0,0,0,0,0,0,0,0,0,0,472,473,838,839,
0,0,0,0,0,0,0,0,0,0,0,0,504,505,870,871,
0,0,0,0,0,0,0,0,0,0,0,0,774,775,776,777,
0,0,0,0,0,0,0,0,0,0,0,0,806,807,808,809,
0,0,0,0,0,0,0,0,0,0,0,0,838,839,840,841,
0,0,0,0,0,0,0,0,0,0,0,0,870,871,872,873,
0,0,0,0,0,0,0,0,0,0,0,0,774,775,534,535,
0,0,0,0,0,0,0,0,0,0,0,0,806,807,566,567,
0,0,0,0,0,0,0,0,0,0,0,0,534,535,774,775,
0,0,0,0,0,0,0,0,0,0,0,0,566,567,806,807,
0,0,0,0,0,0,0,0,0,0,0,0,536,537,534,535,
0,0,0,0,0,0,0,0,0,0,0,0,568,569,566,567,
0,0,0,0,0,0,0,0,0,0,0,0,774,775,776,777,
0,0,0,0,0,0,0,0,0,0,0,0,806,807,808,809,
0,0,0,0,0,0,0,0,0,0,0,0,838,839,840,841,
0,0,0,0,0,0,0,0,0,0,0,0,870,871,872,873
</chunk>
   <chunk x="-80" y="0" width="16" height="16">
840,841,774,775,776,777,472,473,472,473,474,475,538,539,410,411,
872,873,806,807,808,809,504,505,504,505,506,507,570,571,442,443,
534,535,838,839,840,841,408,409,408,409,410,411,474,475,782,783,
566,567,870,871,872,873,440,441,440,441,442,443,506,507,814,815,
536,537,536,537,534,535,472,473,472,473,474,475,538,539,540,541,
568,569,568,569,566,567,504,505,504,505,506,507,570,571,572,573,
536,537,774,775,776,777,534,535,600,601,538,539,540,541,540,541,
568,569,806,807,808,809,566,567,632,633,570,571,572,573,572,573,
534,535,838,839,840,841,408,409,0,0,540,541,538,539,538,539,
566,567,870,871,872,873,440,441,0,0,572,573,570,571,570,571,
536,537,536,537,534,535,472,473,474,475,538,539,540,541,474,475,
568,569,568,569,566,567,504,505,506,507,570,571,572,573,506,507,
534,535,774,775,776,777,472,473,778,779,780,781,540,541,0,0,
566,567,806,807,808,809,504,505,810,811,812,813,572,573,0,0,
408,409,838,839,840,841,408,409,842,843,844,845,538,539,0,0,
440,441,870,871,872,873,440,441,874,875,876,877,570,571,0,0
</chunk>
   <chunk x="-64" y="0" width="16" height="16">
538,539,540,541,778,779,780,781,0,0,0,0,0,0,0,0,
570,571,572,573,810,811,812,813,0,0,0,0,0,0,0,0,
540,541,778,779,842,843,844,845,0,0,0,0,0,0,0,0,
572,573,810,811,874,875,876,877,0,0,0,0,0,0,0,0,
538,539,842,843,540,541,0,0,0,0,0,0,0,0,0,0,
570,571,874,875,572,573,0,0,0,0,0,0,0,0,0,0,
0,0,540,541,0,0,0,0,0,0,6,7,8,9,10,11,
0,0,572,573,0,0,0,0,0,0,38,39,40,41,42,43,
540,541,0,0,0,0,0,0,0,0,70,71,72,73,74,75,
572,573,0,0,0,0,0,0,0,0,102,103,104,105,106,107,
0,0,0,0,0,0,0,0,0,0,134,135,136,137,138,139,
0,0,0,0,0,0,0,0,0,0,166,167,168,169,170,171,
0,0,0,0,0,0,0,0,0,0,6,7,8,9,10,11,
0,0,0,0,0,0,0,0,0,0,38,39,40,41,42,43,
540,541,0,0,0,0,0,0,0,0,70,71,72,73,74,75,
572,573,0,0,0,0,0,0,0,0,102,103,104,105,106,107
</chunk>
   <chunk x="-48" y="0" width="16" height="16">
6,7,8,9,10,11,6,7,8,9,10,11,0,0,0,0,
38,39,40,41,42,43,38,39,40,41,42,43,0,0,0,0,
70,71,72,73,74,75,70,71,72,73,74,75,0,0,0,0,
102,103,104,105,106,107,102,103,104,105,106,107,0,0,0,0,
134,135,136,137,138,139,134,135,136,137,138,139,0,0,0,0,
166,167,168,169,170,171,166,167,168,169,170,171,0,0,0,0,
6,7,8,9,10,11,6,7,8,9,10,11,6,7,8,9,
38,39,40,41,42,43,38,39,40,41,42,43,38,39,40,41,
70,71,72,73,74,75,70,71,72,73,74,75,70,71,72,73,
102,103,104,105,106,107,102,103,104,105,106,107,102,103,104,105,
134,135,136,137,138,139,134,135,136,137,138,139,134,135,136,137,
166,167,168,169,170,171,166,167,168,169,170,171,166,167,168,169,
6,7,8,9,10,11,0,0,0,0,0,0,0,0,0,0,
38,39,40,41,42,43,0,0,0,0,0,0,0,0,0,0,
70,71,72,73,74,75,0,0,0,0,0,0,0,0,0,0,
102,103,104,105,106,107,0,0,0,0,0,0,0,0,0,0
</chunk>
   <chunk x="-32" y="0" width="16" height="16">
0,0,0,0,0,0,16,17,12,13,14,15,16,17,12,13,
0,0,0,0,0,0,48,49,44,45,46,47,48,49,44,45,
0,0,0,0,0,0,80,81,76,77,78,79,80,81,76,77,
0,0,0,0,0,0,112,113,108,109,110,111,112,113,108,109,
0,0,0,0,0,0,144,145,140,141,142,143,144,145,140,141,
0,0,0,0,0,0,176,177,172,173,174,175,176,177,172,173,
10,11,0,0,0,0,16,17,12,13,14,15,16,17,12,13,
42,43,0,0,0,0,48,49,44,45,46,47,48,49,44,45,
74,75,0,0,0,0,80,81,76,77,78,79,80,81,76,77,
106,107,0,0,0,0,112,113,108,109,110,111,112,113,108,109,
138,139,0,0,0,0,144,145,140,141,142,143,144,145,140,141,
170,171,0,0,0,0,176,177,172,173,174,175,176,177,172,173,
0,0,12,13,14,15,16,17,12,13,14,15,16,17,12,13,
0,0,44,45,46,47,48,49,44,45,46,47,48,49,44,45,
80,81,76,77,78,79,80,81,76,77,78,79,80,81,76,77,
112,113,108,109,110,111,112,113,108,109,110,111,112,113,108,109
</chunk>
   <chunk x="-16" y="0" width="16" height="16">
14,15,16,17,12,13,14,15,16,17,12,13,14,15,0,0,
46,47,48,49,44,45,46,47,48,49,44,45,46,47,0,0,
78,79,80,81,76,77,78,79,80,81,76,77,78,79,0,0,
110,111,112,113,108,109,110,111,112,113,108,109,110,111,0,0,
142,143,144,145,140,141,142,143,144,145,140,141,142,143,0,0,
174,175,176,177,172,173,174,175,176,177,172,173,174,175,0,0,
14,15,16,17,12,13,14,15,0,0,0,0,0,0,0,0,
46,47,48,49,44,45,46,47,0,0,0,0,0,0,0,0,
78,79,80,81,76,77,78,79,0,0,0,0,0,0,0,0,
110,111,112,113,108,109,110,111,0,0,0,0,0,0,0,0,
142,143,144,145,140,141,142,143,0,0,0,0,0,0,0,0,
174,175,176,177,172,173,174,175,0,0,0,0,0,0,0,0,
14,15,0,0,0,0,0,0,0,0,0,0,0,0,0,0,
46,47,0,0,0,0,0,0,0,0,0,0,0,0,0,0,
78,79,0,0,0,0,0,0,0,0,0,0,0,0,0,0,
110,111,0,0,0,0,0,0,0,0,0,0,0,0,0,0
</chunk>
   <chunk x="0" y="0" width="16" height="16">
0,0,0,0,0,0,0,0,0,0,0,0,0,0,0,0,
0,0,0,0,0,0,0,0,0,0,0,0,0,0,0,0,
0,0,0,0,0,0,0,0,0,0,0,0,0,0,0,0,
0,0,0,0,0,0,0,0,0,0,0,0,0,0,0,0,
0,0,0,0,0,0,0,0,0,0,0,0,0,0,0,0,
0,0,0,0,0,0,0,0,0,0,0,0,0,0,0,0,
0,0,0,0,0,0,0,0,0,0,0,0,0,0,0,0,
0,0,0,0,0,0,0,0,0,0,0,0,0,0,0,0,
0,0,0,0,0,0,0,0,0,0,0,0,0,0,0,0,
0,0,0,0,0,0,0,0,0,0,0,0,0,0,0,0,
0,0,0,0,0,0,0,0,0,0,0,0,0,0,0,0,
0,0,0,0,0,0,0,0,0,0,0,0,0,0,0,0,
0,0,0,0,0,0,0,0,0,0,0,0,12,13,14,15,
0,0,0,0,0,0,0,0,0,0,0,0,44,45,46,47,
0,0,0,0,0,0,0,0,0,0,80,81,76,77,78,79,
0,0,0,0,0,0,0,0,0,0,112,113,108,109,110,111
</chunk>
   <chunk x="16" y="0" width="16" height="16">
0,0,0,0,0,0,0,0,12,13,14,15,0,0,0,0,
0,0,0,0,0,0,0,0,44,45,46,47,0,0,0,0,
0,0,0,0,0,0,80,81,76,77,78,79,0,0,0,0,
0,0,0,0,0,0,112,113,108,109,110,111,0,0,0,0,
0,0,0,0,0,0,144,145,140,141,142,143,0,0,0,0,
0,0,0,0,0,0,176,177,172,173,174,175,0,0,0,0,
16,17,12,13,14,15,0,0,0,0,0,0,0,0,6,7,
48,49,44,45,46,47,0,0,0,0,0,0,0,0,38,39,
80,81,76,77,78,79,0,0,0,0,0,0,0,0,70,71,
112,113,108,109,110,111,0,0,0,0,0,0,0,0,102,103,
144,145,140,141,142,143,0,0,0,0,0,0,0,0,134,135,
176,177,172,173,174,175,0,0,0,0,0,0,0,0,166,167,
16,17,12,13,14,15,0,0,6,7,8,9,10,11,6,7,
48,49,44,45,46,47,0,0,38,39,40,41,42,43,38,39,
80,81,76,77,78,79,0,0,70,71,72,73,74,75,70,71,
112,113,108,109,110,111,0,0,102,103,104,105,106,107,102,103
</chunk>
   <chunk x="32" y="0" width="16" height="16">
0,0,0,0,6,7,8,9,10,11,6,7,8,9,10,11,
0,0,0,0,38,39,40,41,42,43,38,39,40,41,42,43,
0,0,0,0,70,71,72,73,74,75,70,71,72,73,74,75,
0,0,0,0,102,103,104,105,106,107,102,103,104,105,106,107,
0,0,0,0,134,135,136,137,138,139,134,135,136,137,138,139,
0,0,0,0,166,167,168,169,170,171,166,167,168,169,170,171,
8,9,10,11,6,7,8,9,10,11,0,0,0,0,0,0,
40,41,42,43,38,39,40,41,42,43,0,0,0,0,0,0,
72,73,74,75,70,71,72,73,74,75,0,0,0,0,0,0,
104,105,106,107,102,103,104,105,106,107,0,0,0,0,0,0,
136,137,138,139,134,135,136,137,138,139,0,0,0,0,0,0,
168,169,170,171,166,167,168,169,170,171,0,0,0,0,0,0,
8,9,10,11,0,0,0,0,0,0,536,537,534,535,866,867,
40,41,42,43,0,0,0,0,0,0,568,569,566,567,898,899,
72,73,74,75,670,671,534,535,536,537,534,535,536,537,534,535,
104,105,106,107,702,703,566,567,568,569,566,567,568,569,566,567
</chunk>
   <chunk x="48" y="0" width="16" height="16">
6,7,8,9,10,11,0,0,0,0,712,713,714,715,716,717,
38,39,40,41,42,43,0,0,0,0,744,745,746,747,748,749,
70,71,72,73,74,75,0,0,0,0,0,0,0,0,0,0,
102,103,104,105,106,107,0,0,0,0,0,0,0,0,0,0,
134,135,136,137,138,139,0,0,0,0,0,0,0,0,0,0,
166,167,168,169,170,171,0,0,0,0,0,0,0,0,0,0,
902,903,904,905,906,907,908,909,910,911,912,913,0,0,0,0,
934,935,936,937,938,939,940,941,942,943,944,945,0,0,0,0,
670,671,534,535,536,537,782,783,538,539,0,0,0,0,0,0,
702,703,566,567,568,569,814,815,570,571,0,0,0,0,0,0,
0,0,536,537,408,409,778,779,780,781,0,0,0,0,0,0,
0,0,568,569,440,441,810,811,812,813,0,0,0,0,0,0,
536,537,534,535,866,867,474,475,538,539,0,0,908,909,0,0,
568,569,566,567,898,899,506,507,570,571,0,0,940,941,0,0,
534,535,536,537,534,535,600,601,474,475,538,539,474,475,0,0,
566,567,568,569,566,567,632,633,506,507,570,571,506,507,0,0
</chunk>
   <chunk x="64" y="0" width="16" height="16">
712,713,536,537,774,775,776,777,778,779,780,781,540,541,0,0,
744,745,568,569,806,807,808,809,810,811,812,813,572,573,0,0,
0,0,670,671,838,839,840,841,842,843,844,845,538,539,0,0,
0,0,702,703,870,871,872,873,874,875,876,877,570,571,0,0,
0,0,734,735,534,535,408,409,474,475,538,539,540,541,0,0,
0,0,766,767,566,567,440,441,506,507,570,571,572,573,0,0,
0,0,0,0,0,0,0,0,0,0,0,0,0,0,0,0,
0,0,0,0,0,0,0,0,0,0,0,0,0,0,0,0,
0,0,0,0,0,0,0,0,0,0,0,0,0,0,0,0,
0,0,0,0,0,0,0,0,0,0,0,0,0,0,0,0,
0,0,0,0,0,0,0,0,0,0,0,0,0,0,0,0,
0,0,0,0,0,0,0,0,0,0,0,0,0,0,0,0,
0,0,0,0,0,0,0,0,0,0,0,0,16,17,12,13,
0,0,0,0,0,0,0,0,0,0,0,0,48,49,44,45,
536,537,534,535,472,473,474,475,0,0,0,0,80,81,76,77,
568,569,566,567,504,505,506,507,0,0,0,0,112,113,108,109
</chunk>
   <chunk x="80" y="0" width="16" height="16">
0,0,0,0,0,0,0,0,16,17,12,13,14,15,0,0,
0,0,0,0,0,0,0,0,48,49,44,45,46,47,0,0,
0,0,0,0,0,0,0,0,80,81,76,77,78,79,0,0,
0,0,0,0,0,0,0,0,112,113,108,109,110,111,0,0,
0,0,0,0,0,0,0,0,144,145,140,141,142,143,0,0,
0,0,0,0,0,0,0,0,176,177,172,173,174,175,0,0,
0,0,16,17,12,13,14,15,16,17,12,13,14,15,0,0,
0,0,48,49,44,45,46,47,48,49,44,45,46,47,0,0,
0,0,80,81,76,77,78,79,80,81,76,77,78,79,0,0,
0,0,112,113,108,109,110,111,112,113,108,109,110,111,0,0,
0,0,144,145,140,141,142,143,144,145,140,141,142,143,0,0,
0,0,176,177,172,173,174,175,176,177,172,173,174,175,0,0,
14,15,16,17,12,13,14,15,0,0,0,0,0,0,0,0,
46,47,48,49,44,45,46,47,0,0,0,0,0,0,0,0,
78,79,80,81,76,77,78,79,0,0,0,0,0,0,0,0,
110,111,112,113,108,109,110,111,0,0,0,0,0,0,0,0
</chunk>
   <chunk x="96" y="0" width="16" height="16">
536,537,534,535,408,409,534,535,472,473,474,475,0,0,0,0,
568,569,566,567,440,441,566,567,504,505,506,507,0,0,0,0,
670,671,536,537,584,585,534,535,536,537,600,601,0,0,0,0,
702,703,568,569,616,617,566,567,568,569,632,633,0,0,0,0,
734,735,0,0,648,649,534,535,534,535,536,537,0,0,0,0,
766,767,0,0,680,681,566,567,566,567,568,569,0,0,0,0,
0,0,0,0,712,713,536,537,774,775,0,0,0,0,0,0,
0,0,0,0,744,745,568,569,806,807,0,0,0,0,0,0,
0,0,0,0,0,0,0,0,0,0,0,0,0,0,0,0,
0,0,0,0,0,0,0,0,0,0,0,0,0,0,0,0,
0,0,0,0,0,0,804,805,534,535,408,409,0,0,0,0,
0,0,0,0,0,0,836,837,566,567,440,441,0,0,0,0,
0,0,0,0,0,0,472,473,472,473,408,409,0,0,0,0,
0,0,0,0,0,0,504,505,504,505,440,441,0,0,0,0,
670,671,534,535,536,537,536,537,536,537,598,599,0,0,0,0,
702,703,566,567,568,569,568,569,568,569,630,631,0,0,0,0
</chunk>
   <chunk x="-96" y="16" width="16" height="16">
0,0,0,0,0,0,0,0,0,0,0,0,536,537,534,535,
0,0,0,0,0,0,0,0,0,0,0,0,568,569,566,567,
0,0,0,0,0,0,0,0,0,0,0,0,0,0,0,0,
0,0,0,0,0,0,0,0,0,0,0,0,0,0,0,0,
0,0,0,0,0,0,0,0,0,0,0,0,70,71,72,73,
0,0,0,0,0,0,0,0,0,0,0,0,102,103,104,105,
0,0,0,0,0,0,0,0,0,0,0,0,134,135,136,137,
0,0,0,0,0,0,0,0,0,0,0,0,166,167,168,169,
0,0,0,0,0,0,0,0,0,0,0,0,6,7,8,9,
0,0,0,0,0,0,0,0,0,0,0,0,38,39,40,41,
0,0,0,0,0,0,0,0,0,0,0,0,70,71,72,73,
0,0,0,0,0,0,0,0,0,0,0,0,102,103,104,105,
0,0,0,0,0,0,0,0,0,0,0,0,134,135,136,137,
0,0,0,0,0,0,0,0,0,0,0,0,166,167,168,169,
0,0,0,0,0,0,0,0,0,0,0,0,6,7,8,9,
0,0,0,0,0,0,0,0,0,0,0,0,38,39,40,41
</chunk>
   <chunk x="-80" y="16" width="16" height="16">
472,473,536,537,534,535,472,473,474,475,538,539,540,541,0,0,
504,505,568,569,566,567,504,505,506,507,570,571,572,573,0,0,
712,713,536,537,774,775,776,777,600,601,474,475,0,0,0,0,
744,745,568,569,806,807,808,809,632,633,506,507,0,0,0,0,
74,75,670,671,0,0,840,841,534,535,600,601,474,475,0,0,
106,107,702,703,0,0,872,873,566,567,632,633,506,507,0,0,
138,139,734,735,534,535,408,409,536,537,408,409,410,411,0,0,
170,171,766,767,566,567,440,441,568,569,440,441,442,443,0,0,
10,11,606,607,534,535,472,473,534,535,472,473,474,475,540,541,
42,43,638,639,566,567,504,505,566,567,504,505,506,507,572,573,
74,75,670,671,536,537,584,585,536,537,534,535,600,601,540,541,
106,107,702,703,568,569,616,617,568,569,566,567,632,633,572,573,
138,139,734,735,0,0,648,649,534,535,536,537,534,535,600,601,
170,171,766,767,0,0,680,681,566,567,568,569,566,567,632,633,
10,11,6,7,8,9,712,713,536,537,774,775,776,777,408,409,
42,43,38,39,40,41,744,745,568,569,806,807,808,809,440,441
</chunk>
   <chunk x="-64" y="16" width="16" height="16">
538,539,0,0,0,0,0,0,0,0,134,135,136,137,138,139,
570,571,0,0,0,0,0,0,0,0,166,167,168,169,170,171,
474,475,0,0,410,411,0,0,0,0,0,0,0,0,0,0,
506,507,0,0,442,443,0,0,0,0,0,0,0,0,0,0,
0,0,0,0,782,783,0,0,0,0,0,0,0,0,0,0,
0,0,0,0,814,815,0,0,0,0,0,0,0,0,0,0,
0,0,0,0,778,779,780,781,0,0,0,0,0,0,0,0,
0,0,0,0,810,811,812,813,0,0,0,0,0,0,0,0,
0,0,534,535,0,0,540,541,0,0,0,0,0,0,0,0,
0,0,566,567,0,0,572,573,0,0,0,0,0,0,0,0,
0,0,408,409,540,541,538,539,0,0,0,0,0,0,0,0,
0,0,440,441,572,573,570,571,0,0,0,0,0,0,0,0,
0,0,408,409,0,0,540,541,538,539,0,0,0,0,0,0,
0,0,440,441,0,0,572,573,570,571,0,0,0,0,0,0,
600,601,0,0,0,0,0,0,410,411,474,475,540,541,0,0,
632,633,0,0,0,0,0,0,442,443,506,507,572,573,0,0
</chunk>
   <chunk x="-48" y="16" width="16" height="16">
134,135,136,137,138,139,0,0,0,0,0,0,0,0,0,0,
166,167,168,169,170,171,0,0,0,0,0,0,0,0,0,0,
6,7,8,9,10,11,6,7,8,9,10,11,0,0,0,0,
38,39,40,41,42,43,38,39,40,41,42,43,0,0,0,0,
70,71,72,73,74,75,70,71,72,73,74,75,0,0,0,0,
102,103,104,105,106,107,102,103,104,105,106,107,0,0,0,0,
134,135,136,137,138,139,134,135,136,137,138,139,0,0,0,0,
166,167,168,169,170,171,166,167,168,169,170,171,0,0,0,0,
6,7,8,9,10,11,0,0,0,0,0,0,0,0,0,0,
38,39,40,41,42,43,0,0,0,0,0,0,0,0,0,0,
70,71,72,73,74,75,0,0,408,409,472,473,0,0,0,0,
102,103,104,105,106,107,0,0,440,441,504,505,0,0,0,0,
134,135,136,137,138,139,0,0,534,535,408,409,600,601,540,541,
166,167,168,169,170,171,0,0,566,567,440,441,632,633,572,573,
0,0,0,0,0,0,0,0,534,535,472,473,534,535,600,601,
0,0,0,0,0,0,0,0,566,567,504,505,566,567,632,633
</chunk>
   <chunk x="-32" y="16" width="16" height="16">
144,145,140,141,142,143,144,145,140,141,142,143,144,145,140,141,
176,177,172,173,174,175,176,177,172,173,174,175,176,177,172,173,
0,0,0,0,0,0,16,17,12,13,14,15,16,17,12,13,
0,0,0,0,0,0,48,49,44,45,46,47,48,49,44,45,
0,0,0,0,0,0,80,81,76,77,78,79,80,81,76,77,
0,0,0,0,0,0,112,113,108,109,110,111,112,113,108,109,
0,0,0,0,0,0,144,145,140,141,142,143,144,145,140,141,
0,0,0,0,0,0,176,177,172,173,174,175,176,177,172,173,
0,0,0,0,0,0,16,17,12,13,14,15,16,17,12,13,
0,0,0,0,0,0,48,49,44,45,46,47,48,49,44,45,
0,0,0,0,0,0,80,81,76,77,78,79,80,81,76,77,
0,0,0,0,0,0,112,113,108,109,110,111,112,113,108,109,
538,539,0,0,0,0,144,145,140,141,142,143,144,145,140,141,
570,571,0,0,0,0,176,177,172,173,174,175,176,177,172,173,
540,541,0,0,0,0,0,0,0,0,0,0,16,17,12,13,
572,573,0,0,0,0,0,0,0,0,0,0,48,49,44,45
</chunk>
   <chunk x="-16" y="16" width="16" height="16">
142,143,0,0,0,0,0,0,0,0,0,0,0,0,0,0,
174,175,0,0,0,0,0,0,0,0,0,0,0,0,0,0,
14,15,0,0,0,0,0,0,0,0,0,0,0,0,0,0,
46,47,0,0,0,0,0,0,0,0,0,0,0,0,0,0,
78,79,0,0,0,0,0,0,0,0,0,0,0,0,0,0,
110,111,0,0,0,0,0,0,0,0,0,0,0,0,0,0,
142,143,0,0,0,0,0,0,0,0,0,0,0,0,0,0,
174,175,0,0,0,0,0,0,0,0,0,0,0,0,0,0,
14,15,0,0,0,0,0,0,0,0,156,157,156,157,156,157,
46,47,0,0,0,0,0,0,0,0,188,189,188,189,188,189,
78,79,0,0,0,0,0,0,0,0,156,157,156,157,156,157,
110,111,0,0,0,0,0,0,0,0,188,189,188,189,188,189,
142,143,0,0,0,0,0,0,0,0,156,157,156,157,156,157,
174,175,0,0,0,0,0,0,0,0,188,189,188,189,188,189,
14,15,0,0,156,157,156,157,156,157,156,157,156,157,156,157,
46,47,0,0,188,189,188,189,188,189,188,189,188,189,188,189
</chunk>
   <chunk x="0" y="16" width="16" height="16">
0,0,0,0,0,0,0,0,0,0,144,145,140,141,142,143,
0,0,0,0,0,0,0,0,0,0,176,177,172,173,174,175,
0,0,156,157,156,157,204,205,0,0,16,17,12,13,14,15,
0,0,188,189,188,189,236,237,0,0,48,49,44,45,46,47,
156,157,156,157,156,157,268,269,0,0,80,81,76,77,78,79,
188,189,188,189,188,189,300,301,0,0,112,113,108,109,110,111,
156,157,156,157,156,157,0,0,0,0,144,145,140,141,142,143,
188,189,188,189,188,189,0,0,0,0,176,177,172,173,174,175,
156,157,156,157,156,157,204,205,0,0,0,0,0,0,0,0,
188,189,188,189,188,189,236,237,0,0,0,0,0,0,0,0,
156,157,156,157,156,157,96,97,0,0,0,0,0,0,0,0,
188,189,188,189,188,189,128,129,0,0,0,0,0,0,0,0,
156,157,156,157,156,157,160,161,162,163,0,0,0,0,0,0,
188,189,188,189,188,189,192,193,194,195,0,0,0,0,0,0,
156,157,156,157,156,157,156,157,156,157,156,157,204,205,0,0,
188,189,188,189,188,189,188,189,188,189,188,189,236,237,0,0
</chunk>
   <chunk x="16" y="16" width="16" height="16">
144,145,140,141,142,143,0,0,134,135,136,137,138,139,134,135,
176,177,172,173,174,175,0,0,166,167,168,169,170,171,166,167,
16,17,12,13,14,15,0,0,6,7,8,9,10,11,6,7,
48,49,44,45,46,47,0,0,38,39,40,41,42,43,38,39,
80,81,76,77,78,79,0,0,70,71,72,73,74,75,70,71,
112,113,108,109,110,111,0,0,102,103,104,105,106,107,102,103,
144,145,140,141,142,143,0,0,134,135,136,137,138,139,134,135,
176,177,172,173,174,175,0,0,166,167,168,169,170,171,166,167,
16,17,12,13,14,15,0,0,0,0,0,0,0,0,6,7,
48,49,44,45,46,47,0,0,0,0,0,0,0,0,38,39,
80,81,76,77,78,79,0,0,0,0,0,0,0,0,70,71,
112,113,108,109,110,111,0,0,0,0,0,0,0,0,102,103,
144,145,140,141,142,143,0,0,0,0,0,0,0,0,134,135,
176,177,172,173,174,175,0,0,0,0,0,0,0,0,166,167,
0,0,0,0,0,0,16,17,12,13,14,15,0,0,6,7,
0,0,0,0,0,0,48,49,44,45,46,47,0,0,38,39
</chunk>
   <chunk x="32" y="16" width="16" height="16">
136,137,138,139,734,735,536,537,408,409,536,537,534,535,472,473,
168,169,170,171,766,767,568,569,440,441,568,569,566,567,504,505,
8,9,10,11,606,607,534,535,472,473,472,473,838,839,840,841,
40,41,42,43,638,639,566,567,504,505,504,505,870,871,872,873,
72,73,74,75,670,671,536,537,584,585,774,775,776,777,534,535,
104,105,106,107,702,703,568,569,616,617,806,807,808,809,566,567,
136,137,138,139,734,735,774,775,648,649,838,839,840,841,536,537,
168,169,170,171,766,767,806,807,680,681,870,871,872,873,568,569,
8,9,10,11,606,607,774,775,776,777,774,775,776,777,472,473,
40,41,42,43,638,639,806,807,808,809,806,807,808,809,504,505,
72,73,74,75,670,671,838,839,840,841,838,839,840,841,408,409,
104,105,106,107,702,703,870,871,872,873,870,871,872,873,440,441,
136,137,138,139,734,735,534,535,536,537,536,537,534,535,472,473,
168,169,170,171,766,767,566,567,568,569,568,569,566,567,504,505,
8,9,10,11,606,607,534,535,472,473,536,537,534,535,866,867,
40,41,42,43,638,639,566,567,504,505,568,569,566,567,898,899
</chunk>
   <chunk x="48" y="16" width="16" height="16">
536,537,534,535,472,473,408,409,410,411,474,475,600,601,538,539,
568,569,566,567,504,505,440,441,442,443,506,507,632,633,570,571,
472,473,838,839,840,841,472,473,474,475,538,539,778,779,780,781,
504,505,870,871,872,873,504,505,506,507,570,571,810,811,812,813,
774,775,776,777,534,535,408,409,410,411,474,475,842,843,778,779,
806,807,808,809,566,567,440,441,442,443,506,507,874,875,810,811,
838,839,840,841,536,537,472,473,474,475,538,539,474,475,842,843,
870,871,872,873,568,569,504,505,506,507,570,571,506,507,874,875,
774,775,534,535,536,537,536,537,600,601,0,0,474,475,538,539,
806,807,566,567,568,569,568,569,632,633,0,0,506,507,570,571,
534,535,774,775,534,535,534,535,534,535,534,535,474,475,474,475,
566,567,806,807,566,567,566,567,566,567,566,567,506,507,506,507,
536,537,774,775,776,777,472,473,472,473,408,409,600,601,538,539,
568,569,806,807,808,809,504,505,504,505,440,441,632,633,570,571,
472,473,838,839,840,841,472,473,472,473,408,409,778,779,780,781,
504,505,870,871,872,873,504,505,504,505,440,441,810,811,812,813
</chunk>
   <chunk x="64" y="16" width="16" height="16">
538,539,536,537,598,599,474,475,0,0,0,0,144,145,140,141,
570,571,568,569,630,631,506,507,0,0,0,0,176,177,172,173,
540,541,538,539,538,539,540,541,0,0,0,0,0,0,0,0,
572,573,570,571,570,571,572,573,0,0,0,0,0,0,0,0,
780,781,538,539,540,541,592,593,0,0,0,0,0,0,0,0,
812,813,570,571,572,573,624,625,0,0,0,0,0,0,0,0,
844,845,474,475,538,539,656,657,0,0,0,0,0,0,0,0,
876,877,506,507,570,571,688,689,0,0,0,0,0,0,0,0,
538,539,778,779,780,781,720,721,0,0,0,0,0,0,0,0,
570,571,810,811,812,813,752,753,0,0,0,0,0,0,0,0,
538,539,842,843,844,845,592,593,0,0,0,0,0,0,0,0,
570,571,874,875,876,877,624,625,0,0,0,0,0,0,0,0,
474,475,540,541,538,539,656,657,0,0,0,0,0,0,0,0,
506,507,572,573,570,571,688,689,0,0,0,0,0,0,0,0,
540,541,538,539,540,541,720,721,0,0,0,0,0,0,6,7,
572,573,570,571,572,573,752,753,0,0,0,0,0,0,38,39
</chunk>
   <chunk x="80" y="16" width="16" height="16">
142,143,144,145,140,141,142,143,0,0,0,0,0,0,0,0,
174,175,176,177,172,173,174,175,0,0,0,0,0,0,0,0,
0,0,16,17,12,13,14,15,0,0,6,7,8,9,10,11,
0,0,48,49,44,45,46,47,0,0,38,39,40,41,42,43,
0,0,80,81,76,77,78,79,0,0,70,71,72,73,74,75,
0,0,112,113,108,109,110,111,0,0,102,103,104,105,106,107,
0,0,144,145,140,141,142,143,0,0,134,135,136,137,138,139,
0,0,176,177,172,173,174,175,0,0,166,167,168,169,170,171,
0,0,16,17,12,13,14,15,0,0,0,0,0,0,0,0,
0,0,48,49,44,45,46,47,0,0,0,0,0,0,0,0,
0,0,80,81,76,77,78,79,0,0,0,0,0,0,0,0,
0,0,112,113,108,109,110,111,0,0,0,0,0,0,0,0,
0,0,0,0,140,141,142,143,0,0,0,0,0,0,0,0,
0,0,0,0,172,173,174,175,0,0,0,0,0,0,0,0,
8,9,10,11,0,0,0,0,0,0,0,0,0,0,0,0,
40,41,42,43,0,0,0,0,0,0,0,0,0,0,0,0
</chunk>
   <chunk x="96" y="16" width="16" height="16">
734,735,536,537,472,473,408,409,598,599,538,539,0,0,0,0,
766,767,568,569,504,505,440,441,630,631,570,571,0,0,0,0,
606,607,534,535,472,473,472,473,474,475,538,539,0,0,0,0,
638,639,566,567,504,505,504,505,506,507,570,571,0,0,0,0,
670,671,534,535,536,537,408,409,410,411,474,475,0,0,0,0,
702,703,566,567,568,569,440,441,442,443,506,507,0,0,0,0,
804,805,536,537,534,535,472,473,474,475,538,539,0,0,0,0,
836,837,568,569,566,567,504,505,506,507,570,571,0,0,0,0,
0,0,0,0,0,0,534,535,472,473,474,475,0,0,0,0,
0,0,0,0,0,0,566,567,504,505,506,507,0,0,0,0,
0,0,0,0,0,0,534,535,536,537,600,601,0,0,0,0,
0,0,0,0,0,0,566,567,568,569,632,633,0,0,0,0,
0,0,0,0,0,0,534,535,534,535,536,537,0,0,0,0,
0,0,0,0,0,0,566,567,566,567,568,569,0,0,0,0,
0,0,0,0,472,473,534,535,774,775,0,0,0,0,0,0,
0,0,0,0,504,505,566,567,806,807,0,0,0,0,0,0
</chunk>
   <chunk x="-96" y="32" width="16" height="16">
0,0,0,0,0,0,0,0,0,0,0,0,70,71,72,73,
0,0,0,0,0,0,0,0,0,0,0,0,102,103,104,105,
0,0,0,0,0,0,0,0,0,0,0,0,134,135,136,137,
0,0,0,0,0,0,0,0,0,0,0,0,166,167,168,169,
0,0,0,0,0,0,0,0,0,0,0,0,6,7,8,9,
0,0,0,0,0,0,0,0,0,0,0,0,38,39,40,41,
0,0,0,0,0,0,0,0,0,0,0,0,70,71,72,73,
0,0,0,0,0,0,0,0,0,0,0,0,102,103,104,105,
0,0,0,0,0,0,0,0,0,0,0,0,134,135,136,137,
0,0,0,0,0,0,0,0,0,0,0,0,166,167,168,169,
0,0,0,0,0,0,0,0,0,0,0,0,6,7,8,9,
0,0,0,0,0,0,0,0,0,0,0,0,38,39,40,41,
0,0,0,0,0,0,0,0,0,0,0,0,70,71,72,73,
0,0,0,0,0,0,0,0,0,0,0,0,102,103,104,105,
0,0,0,0,0,0,0,0,0,0,0,0,134,135,136,137,
0,0,0,0,0,0,0,0,0,0,0,0,166,167,168,169
</chunk>
   <chunk x="-80" y="32" width="16" height="16">
74,75,70,71,72,73,74,75,670,671,838,839,840,841,534,535,
106,107,102,103,104,105,106,107,702,703,870,871,872,873,566,567,
138,139,134,135,136,137,138,139,734,735,534,535,408,409,408,409,
170,171,166,167,168,169,170,171,766,767,566,567,440,441,440,441,
10,11,6,7,8,9,10,11,606,607,534,535,472,473,472,473,
42,43,38,39,40,41,42,43,638,639,566,567,504,505,504,505,
74,75,70,71,72,73,74,75,670,671,536,537,584,585,774,775,
106,107,102,103,104,105,106,107,702,703,568,569,616,617,806,807,
138,139,134,135,136,137,138,139,734,735,0,0,648,649,838,839,
170,171,166,167,168,169,170,171,766,767,0,0,680,681,870,871,
10,11,6,7,8,9,10,11,606,607,534,535,0,0,774,775,
42,43,38,39,40,41,42,43,638,639,566,567,0,0,806,807,
74,75,70,71,72,73,74,75,670,671,536,537,584,585,534,535,
106,107,102,103,104,105,106,107,702,703,568,569,616,617,566,567,
138,139,134,135,136,137,138,139,734,735,0,0,648,649,536,537,
170,171,166,167,168,169,170,171,766,767,0,0,680,681,568,569
</chunk>
   <chunk x="-64" y="32" width="16" height="16">
536,537,600,601,472,473,472,473,474,475,540,541,0,0,0,0,
568,569,632,633,504,505,504,505,506,507,572,573,0,0,0,0,
838,839,840,841,536,537,472,473,600,601,778,779,780,781,540,541,
870,871,872,873,568,569,504,505,632,633,810,811,812,813,572,573,
838,839,840,841,774,775,534,535,536,537,600,601,474,475,0,0,
870,871,872,873,806,807,566,567,568,569,632,633,506,507,0,0,
776,777,534,535,534,535,774,775,534,535,534,535,600,601,474,475,
808,809,566,567,566,567,806,807,566,567,566,567,632,633,506,507,
840,841,536,537,536,537,534,535,536,537,536,537,408,409,410,411,
872,873,568,569,568,569,566,567,568,569,568,569,440,441,442,443,
534,535,536,537,472,473,838,839,840,841,534,535,0,0,474,475,
566,567,568,569,504,505,870,871,872,873,566,567,0,0,506,507,
774,775,534,535,774,775,776,777,534,535,536,537,534,535,600,601,
806,807,566,567,806,807,808,809,566,567,568,569,566,567,632,633,
534,535,536,537,838,839,840,841,536,537,534,535,536,537,534,535,
566,567,568,569,870,871,872,873,568,569,566,567,568,569,566,567
</chunk>
   <chunk x="-48" y="32" width="16" height="16">
0,0,0,0,0,0,0,0,536,537,584,585,776,777,408,409,
0,0,0,0,0,0,0,0,568,569,616,617,808,809,440,441,
0,0,0,0,0,0,0,0,534,535,648,649,0,0,0,0,
0,0,0,0,0,0,0,0,566,567,680,681,0,0,0,0,
0,0,0,0,0,0,0,0,0,0,534,535,408,409,410,411,
0,0,0,0,0,0,0,0,0,0,566,567,440,441,442,443,
0,0,0,0,0,0,0,0,0,0,408,409,472,473,474,475,
0,0,0,0,0,0,0,0,0,0,440,441,504,505,506,507,
0,0,0,0,0,0,0,0,534,535,472,473,408,409,410,411,
0,0,0,0,0,0,0,0,566,567,504,505,440,441,442,443,
540,541,0,0,534,535,472,473,838,839,840,841,472,473,474,475,
572,573,0,0,566,567,504,505,870,871,872,873,504,505,506,507,
540,541,0,0,408,409,774,775,776,777,534,535,408,409,410,411,
572,573,0,0,440,441,806,807,808,809,566,567,440,441,442,443,
600,601,0,0,0,0,838,839,840,841,536,537,472,473,474,475,
632,633,0,0,0,0,870,871,872,873,568,569,504,505,506,507
</chunk>
   <chunk x="-32" y="32" width="16" height="16">
410,411,0,0,0,0,0,0,0,0,0,0,80,81,76,77,
442,443,0,0,0,0,0,0,0,0,0,0,112,113,108,109,
474,475,538,539,0,0,0,0,0,0,0,0,144,145,140,141,
506,507,570,571,0,0,0,0,0,0,0,0,176,177,172,173,
474,475,778,779,780,781,540,541,0,0,0,0,16,17,12,13,
506,507,810,811,812,813,572,573,0,0,0,0,48,49,44,45,
538,539,842,843,844,845,538,539,0,0,0,0,80,81,76,77,
570,571,874,875,876,877,570,571,0,0,0,0,112,113,108,109,
474,475,474,475,538,539,540,541,0,0,0,0,144,145,140,141,
506,507,506,507,570,571,572,573,0,0,0,0,176,177,172,173,
538,539,0,0,474,475,540,541,0,0,0,0,16,17,12,13,
570,571,0,0,506,507,572,573,0,0,0,0,48,49,44,45,
474,475,0,0,410,411,538,539,0,0,0,0,80,81,76,77,
506,507,0,0,442,443,570,571,0,0,0,0,112,113,108,109,
538,539,0,0,0,0,540,541,0,0,0,0,144,145,140,141,
570,571,0,0,0,0,572,573,0,0,0,0,176,177,172,173
</chunk>
   <chunk x="-16" y="32" width="16" height="16">
78,79,0,0,156,157,156,157,156,157,156,157,156,157,156,157,
110,111,0,0,188,189,188,189,188,189,188,189,188,189,188,189,
142,143,0,0,156,157,156,157,156,157,156,157,156,157,156,157,
174,175,0,0,188,189,188,189,188,189,188,189,188,189,188,189,
14,15,0,0,0,0,0,0,0,0,156,157,156,157,156,157,
46,47,0,0,0,0,0,0,0,0,188,189,188,189,188,189,
78,79,0,0,0,0,0,0,0,0,156,157,156,157,156,157,
110,111,0,0,0,0,0,0,0,0,188,189,188,189,188,189,
142,143,0,0,0,0,0,0,0,0,156,157,156,157,156,157,
174,175,0,0,0,0,0,0,0,0,188,189,188,189,188,189,
14,15,16,17,12,13,14,15,0,0,0,0,0,0,0,0,
46,47,48,49,44,45,46,47,0,0,0,0,0,0,0,0,
78,79,80,81,76,77,78,79,0,0,0,0,0,0,0,0,
110,111,112,113,108,109,110,111,0,0,0,0,0,0,0,0,
142,143,144,145,140,141,142,143,0,0,0,0,0,0,0,0,
174,175,176,177,172,173,174,175,0,0,0,0,0,0,0,0
</chunk>
   <chunk x="0" y="32" width="16" height="16">
156,157,156,157,156,157,156,157,156,157,156,157,96,97,0,0,
188,189,188,189,188,189,188,189,188,189,188,189,128,129,0,0,
156,157,156,157,156,157,156,157,156,157,156,157,160,161,162,163,
188,189,188,189,188,189,188,189,188,189,188,189,192,193,194,195,
156,157,156,157,156,157,156,157,156,157,156,157,156,157,156,157,
188,189,188,189,188,189,188,189,188,189,188,189,188,189,188,189,
156,157,156,157,156,157,156,157,156,157,156,157,156,157,156,157,
188,189,188,189,188,189,188,189,188,189,188,189,188,189,188,189,
156,157,156,157,156,157,156,157,156,157,156,157,156,157,156,157,
188,189,188,189,188,189,188,189,188,189,188,189,188,189,188,189,
156,157,156,157,156,157,156,157,156,157,156,157,156,157,156,157,
188,189,188,189,188,189,188,189,188,189,188,189,188,189,188,189,
156,157,156,157,156,157,156,157,156,157,156,157,156,157,156,157,
188,189,188,189,188,189,188,189,188,189,188,189,188,189,188,189,
156,157,156,157,156,157,156,157,156,157,156,157,156,157,156,157,
188,189,188,189,188,189,188,189,188,189,188,189,188,189,188,189
</chunk>
   <chunk x="16" y="32" width="16" height="16">
0,0,0,0,0,0,80,81,76,77,78,79,0,0,70,71,
0,0,0,0,0,0,112,113,108,109,110,111,0,0,102,103,
0,0,0,0,0,0,144,145,140,141,142,143,0,0,134,135,
0,0,0,0,0,0,176,177,172,173,174,175,0,0,166,167,
156,157,204,205,0,0,0,0,0,0,0,0,0,0,0,0,
188,189,236,237,0,0,0,0,0,0,0,0,0,0,0,0,
156,157,96,97,98,262,263,264,265,266,267,99,100,101,276,277,
188,189,128,129,130,294,295,296,297,298,299,131,132,133,308,309,
156,157,160,161,162,326,327,328,329,330,331,163,164,165,340,341,
188,189,192,193,194,358,359,360,361,362,363,195,196,197,372,373,
156,157,156,157,156,157,156,157,212,213,214,215,216,217,218,219,
188,189,188,189,188,189,188,189,244,245,246,247,248,249,250,251,
156,157,156,157,156,157,156,157,276,277,278,279,74,75,70,71,
188,189,188,189,188,189,188,189,308,309,310,311,106,107,102,103,
156,157,156,157,156,157,156,157,340,341,342,343,138,139,134,135,
188,189,188,189,188,189,188,189,372,373,374,375,170,171,166,167
</chunk>
   <chunk x="32" y="32" width="16" height="16">
72,73,74,75,670,671,536,537,584,585,534,535,536,537,534,535,
104,105,106,107,702,703,568,569,616,617,566,567,568,569,566,567,
136,137,138,139,734,735,0,0,0,0,536,537,534,535,472,473,
168,169,170,171,766,767,0,0,0,0,568,569,566,567,504,505,
0,0,0,0,0,0,0,0,712,713,0,0,0,0,712,713,
0,0,0,0,0,0,0,0,744,745,0,0,0,0,744,745,
278,279,74,75,70,71,72,73,74,75,0,0,0,0,0,0,
310,311,106,107,102,103,104,105,106,107,0,0,0,0,0,0,
342,343,138,139,134,135,136,137,138,139,0,0,800,801,802,803,
374,375,170,171,166,167,168,169,170,171,0,0,832,833,834,835,
220,221,10,11,6,7,8,9,10,11,0,0,534,535,866,867,
252,253,42,43,38,39,40,41,42,43,0,0,566,567,898,899,
72,73,74,75,70,71,72,73,74,75,670,671,774,775,776,777,
104,105,106,107,102,103,104,105,106,107,702,703,806,807,808,809,
136,137,138,139,134,135,136,137,138,139,734,735,838,839,840,841,
168,169,170,171,166,167,168,169,170,171,766,767,870,871,872,873
</chunk>
   <chunk x="48" y="32" width="16" height="16">
774,775,776,777,534,535,536,537,536,537,598,599,842,843,844,845,
806,807,808,809,566,567,568,569,568,569,630,631,874,875,876,877,
838,839,840,841,536,537,408,409,598,599,538,539,474,475,538,539,
870,871,872,873,568,569,440,441,630,631,570,571,506,507,570,571,
536,537,774,775,776,777,408,409,410,411,474,475,778,779,780,781,
568,569,806,807,808,809,440,441,442,443,506,507,810,811,812,813,
670,671,838,839,840,841,472,473,474,475,538,539,842,843,778,779,
702,703,870,871,872,873,504,505,506,507,570,571,874,875,810,811,
804,805,774,775,776,777,408,409,410,411,474,475,474,475,842,843,
836,837,806,807,808,809,440,441,442,443,506,507,506,507,874,875,
534,535,838,839,840,841,472,473,474,475,538,539,540,541,538,539,
566,567,870,871,872,873,504,505,506,507,570,571,572,573,570,571,
534,535,536,537,534,535,408,409,410,411,474,475,538,539,540,541,
566,567,568,569,566,567,440,441,442,443,506,507,570,571,572,573,
536,537,534,535,472,473,472,473,474,475,538,539,540,541,538,539,
568,569,566,567,504,505,504,505,506,507,570,571,572,573,570,571
</chunk>
   <chunk x="64" y="32" width="16" height="16">
538,539,540,541,538,539,592,593,0,0,0,0,0,0,70,71,
570,571,572,573,570,571,624,625,0,0,0,0,0,0,102,103,
540,541,538,539,540,541,656,657,0,0,0,0,0,0,134,135,
572,573,570,571,572,573,688,689,0,0,0,0,0,0,166,167,
540,541,474,475,540,541,720,721,0,0,0,0,0,0,6,7,
572,573,506,507,572,573,752,753,0,0,0,0,0,0,38,39,
780,781,540,541,538,539,540,541,0,0,0,0,0,0,70,71,
812,813,572,573,570,571,572,573,0,0,0,0,0,0,102,103,
844,845,778,779,780,781,540,541,0,0,0,0,0,0,134,135,
876,877,810,811,812,813,572,573,0,0,0,0,0,0,166,167,
540,541,538,539,540,541,538,539,778,779,780,781,540,541,908,909,
572,573,570,571,572,573,570,571,810,811,812,813,572,573,940,941,
410,411,410,411,540,541,540,541,842,843,844,845,538,539,474,475,
442,443,442,443,572,573,572,573,874,875,876,877,570,571,506,507,
540,541,474,475,538,539,538,539,474,475,538,539,540,541,600,601,
572,573,506,507,570,571,570,571,506,507,570,571,572,573,632,633
</chunk>
   <chunk x="80" y="32" width="16" height="16">
72,73,74,75,0,0,0,0,0,0,0,0,0,0,0,0,
104,105,106,107,0,0,0,0,0,0,0,0,0,0,0,0,
136,137,138,139,0,0,0,0,0,0,0,0,0,0,0,0,
168,169,170,171,0,0,0,0,0,0,0,0,0,0,0,0,
8,9,10,11,6,7,8,9,10,11,0,0,0,0,0,0,
40,41,42,43,38,39,40,41,42,43,0,0,0,0,0,0,
72,73,74,75,70,71,72,73,74,75,0,0,0,0,0,0,
104,105,106,107,102,103,104,105,106,107,0,0,0,0,0,0,
136,137,138,139,134,135,136,137,138,139,0,0,0,0,0,0,
168,169,170,171,166,167,168,169,170,171,0,0,0,0,0,0,
910,911,912,913,0,0,0,0,902,903,904,905,906,907,908,909,
942,943,944,945,0,0,0,0,934,935,936,937,938,939,940,941,
842,843,844,845,538,539,538,539,536,537,534,535,472,473,474,475,
874,875,876,877,570,571,570,571,568,569,566,567,504,505,506,507,
540,541,538,539,538,539,538,539,0,0,536,537,0,0,474,475,
572,573,570,571,570,571,570,571,0,0,568,569,0,0,506,507
</chunk>
   <chunk x="96" y="32" width="16" height="16">
670,671,472,473,472,473,774,775,776,777,840,841,0,0,0,0,
702,703,504,505,504,505,806,807,808,809,872,873,0,0,0,0,
734,735,536,537,472,473,838,839,840,841,534,535,0,0,0,0,
766,767,568,569,504,505,870,871,872,873,566,567,0,0,0,0,
606,607,534,535,472,473,472,473,472,473,408,409,0,0,0,0,
638,639,566,567,504,505,504,505,504,505,440,441,0,0,0,0,
670,671,536,537,584,585,536,537,536,537,598,599,0,0,0,0,
702,703,568,569,616,617,568,569,568,569,630,631,0,0,0,0,
734,735,534,535,648,649,408,409,598,599,538,539,0,0,0,0,
766,767,566,567,680,681,440,441,630,631,570,571,0,0,0,0,
606,607,536,537,472,473,408,409,410,411,474,475,0,0,0,0,
638,639,568,569,504,505,440,441,442,443,506,507,0,0,0,0,
542,543,472,473,536,537,472,473,474,475,538,539,0,0,0,0,
574,575,504,505,568,569,504,505,506,507,570,571,0,0,0,0,
542,543,536,537,472,473,408,409,410,411,474,475,0,0,0,0,
574,575,568,569,504,505,440,441,442,443,506,507,0,0,0,0
</chunk>
   <chunk x="-96" y="48" width="16" height="16">
0,0,0,0,0,0,0,0,0,0,0,0,6,7,8,9,
0,0,0,0,0,0,0,0,0,0,0,0,38,39,40,41,
0,0,0,0,0,0,0,0,0,0,0,0,70,71,72,73,
0,0,0,0,0,0,0,0,0,0,0,0,102,103,104,105,
0,0,0,0,0,0,0,0,0,0,0,0,134,135,136,137,
0,0,0,0,0,0,0,0,0,0,0,0,166,167,168,169,
0,0,0,0,0,0,0,0,0,0,0,0,6,7,8,9,
0,0,0,0,0,0,0,0,0,0,0,0,38,39,40,41,
0,0,0,0,0,0,0,0,0,0,0,0,70,71,72,73,
0,0,0,0,0,0,0,0,0,0,0,0,102,103,104,105,
0,0,0,0,0,0,0,0,0,0,0,0,134,135,136,137,
0,0,0,0,0,0,0,0,0,0,0,0,166,167,168,169,
0,0,0,0,0,0,0,0,0,0,0,0,6,7,8,9,
0,0,0,0,0,0,0,0,0,0,0,0,38,39,40,41,
0,0,0,0,0,0,0,0,0,0,0,0,70,71,72,73,
0,0,0,0,0,0,0,0,0,0,0,0,102,103,104,105
</chunk>
   <chunk x="-80" y="48" width="16" height="16">
10,11,6,7,8,9,10,11,6,7,8,9,712,713,536,537,
42,43,38,39,40,41,42,43,38,39,40,41,744,745,568,569,
74,75,70,71,72,73,74,75,70,71,72,73,74,75,670,671,
106,107,102,103,104,105,106,107,102,103,104,105,106,107,702,703,
138,139,134,135,136,137,138,139,134,135,136,137,138,139,734,735,
170,171,166,167,168,169,170,171,166,167,168,169,170,171,766,767,
10,11,6,7,8,9,10,11,6,7,8,9,10,11,6,7,
42,43,38,39,40,41,42,43,38,39,40,41,42,43,38,39,
74,75,70,71,72,73,74,75,70,71,72,73,74,75,70,71,
106,107,102,103,104,105,106,107,102,103,104,105,106,107,102,103,
138,139,134,135,136,137,138,139,134,135,136,137,138,139,134,135,
170,171,166,167,168,169,170,171,166,167,168,169,170,171,166,167,
10,11,6,7,8,9,10,11,6,7,8,9,10,11,6,7,
42,43,38,39,40,41,42,43,38,39,40,41,42,43,38,39,
74,75,70,71,72,73,74,75,70,71,72,73,74,75,70,71,
106,107,102,103,104,105,106,107,102,103,104,105,106,107,102,103
</chunk>
   <chunk x="-64" y="48" width="16" height="16">
774,775,776,777,472,473,838,839,840,841,774,775,534,535,536,537,
806,807,808,809,504,505,870,871,872,873,806,807,566,567,568,569,
838,839,840,841,774,775,776,777,534,535,534,535,774,775,534,535,
870,871,872,873,806,807,808,809,566,567,566,567,806,807,566,567,
534,535,408,409,838,839,840,841,536,537,536,537,534,535,536,537,
566,567,440,441,870,871,872,873,568,569,568,569,566,567,568,569,
8,9,712,713,0,0,0,0,712,713,536,537,774,775,776,777,
40,41,744,745,0,0,0,0,744,745,568,569,806,807,808,809,
72,73,74,75,70,71,72,73,74,75,670,671,838,839,840,841,
104,105,106,107,102,103,104,105,106,107,702,703,870,871,872,873,
136,137,138,139,134,135,136,137,138,139,734,735,534,535,408,409,
168,169,170,171,166,167,168,169,170,171,766,767,566,567,440,441,
8,9,10,11,6,7,8,9,10,11,6,7,8,9,712,713,
40,41,42,43,38,39,40,41,42,43,38,39,40,41,744,745,
72,73,74,75,70,71,72,73,74,75,70,71,72,73,74,75,
104,105,106,107,102,103,104,105,106,107,102,103,104,105,106,107
</chunk>
   <chunk x="-48" y="48" width="16" height="16">
408,409,600,601,0,0,774,775,534,535,536,537,472,473,474,475,
440,441,632,633,0,0,806,807,566,567,568,569,504,505,506,507,
534,535,774,775,776,777,534,535,774,775,534,535,408,409,410,411,
566,567,806,807,808,809,566,567,806,807,566,567,440,441,442,443,
408,409,838,839,840,841,536,537,534,535,536,537,472,473,474,475,
440,441,870,871,872,873,568,569,566,567,568,569,504,505,506,507,
472,473,838,839,840,841,472,473,472,473,408,409,598,599,538,539,
504,505,870,871,872,873,504,505,504,505,440,441,630,631,570,571,
774,775,776,777,534,535,536,537,536,537,598,599,538,539,778,779,
806,807,808,809,566,567,568,569,568,569,630,631,570,571,810,811,
838,839,840,841,536,537,408,409,598,599,538,539,540,541,842,843,
870,871,872,873,568,569,440,441,630,631,570,571,572,573,874,875,
536,537,774,775,776,777,598,599,538,539,540,541,0,0,0,0,
568,569,806,807,808,809,630,631,570,571,572,573,0,0,0,0,
670,671,838,839,840,841,538,539,540,541,0,0,0,0,72,73,
702,703,870,871,872,873,570,571,572,573,0,0,0,0,104,105
</chunk>
   <chunk x="-32" y="48" width="16" height="16">
538,539,540,541,538,539,540,541,0,0,0,0,16,17,12,13,
570,571,572,573,570,571,572,573,0,0,0,0,48,49,44,45,
474,475,538,539,540,541,410,411,0,0,0,0,80,81,76,77,
506,507,570,571,572,573,442,443,0,0,0,0,112,113,108,109,
538,539,540,541,538,539,540,541,0,0,0,0,144,145,140,141,
570,571,572,573,570,571,572,573,0,0,0,0,176,177,172,173,
540,541,540,541,538,539,540,541,0,0,0,0,0,0,0,0,
572,573,572,573,570,571,572,573,0,0,0,0,0,0,0,0,
780,781,538,539,540,541,0,0,0,0,0,0,0,0,0,0,
812,813,570,571,572,573,0,0,0,0,0,0,0,0,0,0,
0,0,0,0,538,539,0,0,0,0,0,0,0,0,0,0,
0,0,0,0,570,571,0,0,0,0,0,0,0,0,0,0,
0,0,0,0,0,0,0,0,6,7,8,9,10,11,6,7,
0,0,0,0,0,0,0,0,38,39,40,41,42,43,38,39,
74,75,70,71,72,73,74,75,70,71,72,73,74,75,70,71,
106,107,102,103,104,105,106,107,102,103,104,105,106,107,102,103
</chunk>
   <chunk x="-16" y="48" width="16" height="16">
14,15,16,17,12,13,14,15,16,17,12,13,14,15,0,0,
46,47,48,49,44,45,46,47,48,49,44,45,46,47,0,0,
78,79,80,81,76,77,78,79,80,81,76,77,78,79,0,0,
110,111,112,113,108,109,110,111,112,113,108,109,110,111,0,0,
142,143,144,145,140,141,142,143,144,145,140,141,142,143,0,0,
174,175,176,177,172,173,174,175,176,177,172,173,174,175,0,0,
0,0,0,0,0,0,0,0,0,0,0,0,0,0,16,17,
0,0,0,0,0,0,0,0,0,0,0,0,0,0,48,49,
0,0,0,0,0,0,0,0,0,0,0,0,0,0,80,81,
0,0,0,0,0,0,0,0,0,0,0,0,0,0,112,113,
0,0,0,0,0,0,0,0,0,0,0,0,0,0,144,145,
0,0,0,0,0,0,0,0,0,0,0,0,0,0,176,177,
8,9,10,11,6,7,8,9,10,11,0,0,0,0,16,17,
40,41,42,43,38,39,40,41,42,43,0,0,0,0,48,49,
72,73,74,75,70,71,72,73,74,75,0,0,0,0,80,81,
104,105,106,107,102,103,104,105,106,107,0,0,0,0,112,113
</chunk>
   <chunk x="0" y="48" width="16" height="16">
0,0,0,0,0,0,156,157,156,157,156,157,156,157,156,157,
0,0,0,0,0,0,188,189,188,189,188,189,188,189,188,189,
0,0,0,0,0,0,156,157,156,157,156,157,156,157,156,157,
0,0,0,0,0,0,188,189,188,189,188,189,188,189,188,189,
0,0,0,0,0,0,156,157,156,157,156,157,156,157,156,157,
0,0,0,0,0,0,188,189,188,189,188,189,188,189,188,189,
12,13,14,15,0,0,0,0,0,0,0,0,0,0,0,0,
44,45,46,47,0,0,0,0,0,0,0,0,0,0,0,0,
76,77,78,79,0,0,0,0,0,0,0,0,0,0,0,0,
108,109,110,111,0,0,0,0,0,0,0,0,0,0,0,0,
140,141,142,143,0,0,0,0,0,0,0,0,0,0,0,0,
172,173,174,175,0,0,0,0,0,0,0,0,0,0,0,0,
12,13,14,15,16,17,12,13,14,15,16,17,12,13,14,15,
44,45,46,47,48,49,44,45,46,47,48,49,44,45,46,47,
76,77,78,79,80,81,76,77,78,79,80,81,76,77,78,79,
108,109,110,111,112,113,108,109,110,111,112,113,108,109,110,111
</chunk>
   <chunk x="16" y="48" width="16" height="16">
156,157,156,157,156,157,156,157,212,213,214,215,10,11,6,7,
188,189,188,189,188,189,188,189,244,245,246,247,42,43,38,39,
156,157,156,157,156,157,156,157,276,277,278,279,74,75,70,71,
188,189,188,189,188,189,188,189,308,309,310,311,106,107,102,103,
156,157,156,157,156,157,156,157,340,341,342,343,138,139,134,135,
188,189,188,189,188,189,188,189,372,373,374,375,170,171,166,167,
0,0,212,213,214,215,216,217,218,219,220,221,10,11,6,7,
0,0,244,245,246,247,248,249,250,251,252,253,42,43,38,39,
0,0,70,71,72,73,74,75,70,71,72,73,74,75,1752,1753,
0,0,102,103,104,105,106,107,102,103,104,105,106,107,1784,1785,
0,0,134,135,136,137,138,139,134,135,136,137,138,139,1816,1817,
0,0,166,167,168,169,170,171,166,167,168,169,170,171,1848,1849,
0,0,6,7,8,9,10,11,6,7,8,9,10,11,862,863,
0,0,38,39,40,41,42,43,38,39,40,41,42,43,894,895,
0,0,70,71,72,73,74,75,70,71,72,73,74,75,1228,1229,
0,0,102,103,104,105,106,107,102,103,104,105,106,107,1260,1261
</chunk>
   <chunk x="32" y="48" width="16" height="16">
8,9,10,11,6,7,8,9,10,11,606,607,0,0,0,0,
40,41,42,43,38,39,40,41,42,43,638,639,0,0,0,0,
72,73,74,75,70,71,72,73,74,75,670,671,0,0,0,0,
104,105,106,107,102,103,104,105,106,107,702,703,0,0,0,0,
136,137,138,139,134,135,136,137,138,139,734,735,0,0,0,0,
168,169,170,171,166,167,168,169,170,171,766,767,0,0,0,0,
8,9,10,11,1752,1753,2147485401,2147485400,2008,2009,774,775,534,535,536,537,
40,41,42,43,1784,1785,2147485433,2147485432,2040,2041,806,807,566,567,568,569,
2147485401,2147485400,2008,2009,1816,1817,2147485465,2147485464,1754,1755,534,535,774,775,534,535,
2147485433,2147485432,2040,2041,1848,1849,2147485497,2147485496,1786,1787,566,567,806,807,566,567,
2147485465,2147485464,1754,1755,2147485529,2147485528,1944,1945,1880,1881,536,537,534,535,536,537,
2147485497,2147485496,1786,1787,2147485561,2147485560,1976,1977,1912,1913,568,569,566,567,568,569,
2147485529,2147485528,1880,1881,862,863,862,863,862,863,774,775,534,535,536,537,
2147485561,2147485560,1912,1913,894,895,894,895,894,895,806,807,566,567,568,569,
1230,1231,1232,1233,396,397,400,401,1952,1953,534,535,774,775,534,535,
1262,1263,1264,1265,428,429,432,433,1984,1985,566,567,806,807,566,567
</chunk>
   <chunk x="48" y="48" width="16" height="16">
774,775,534,535,536,537,598,599,538,539,540,541,778,779,780,781,
806,807,566,567,568,569,630,631,570,571,572,573,810,811,812,813,
534,535,774,775,534,535,410,411,540,541,538,539,842,843,778,779,
566,567,806,807,566,567,442,443,572,573,570,571,874,875,810,811,
536,537,534,535,536,537,474,475,538,539,540,541,474,475,842,843,
568,569,566,567,568,569,506,507,570,571,572,573,506,507,874,875,
472,473,472,473,408,409,598,599,538,539,540,541,778,779,780,781,
504,505,504,505,440,441,630,631,570,571,572,573,810,811,812,813,
536,537,536,537,598,599,410,411,540,541,538,539,842,843,844,845,
568,569,568,569,630,631,442,443,572,573,570,571,874,875,876,877,
408,409,598,599,538,539,474,475,538,539,540,541,474,475,538,539,
440,441,630,631,570,571,506,507,570,571,572,573,506,507,570,571,
408,409,410,411,474,475,778,779,780,781,540,541,778,779,780,781,
440,441,442,443,506,507,810,811,812,813,572,573,810,811,812,813,
472,473,474,475,538,539,842,843,844,845,538,539,842,843,778,779,
504,505,506,507,570,571,874,875,876,877,570,571,874,875,810,811
</chunk>
   <chunk x="64" y="48" width="16" height="16">
540,541,778,779,780,781,540,541,778,779,780,781,540,541,540,541,
572,573,810,811,812,813,572,573,810,811,812,813,572,573,572,573,
780,781,842,843,844,845,538,539,842,843,778,779,780,781,538,539,
812,813,874,875,876,877,570,571,874,875,810,811,812,813,570,571,
844,845,474,475,538,539,540,541,474,475,842,843,844,845,540,541,
876,877,506,507,570,571,572,573,506,507,874,875,876,877,572,573,
540,541,538,539,540,541,538,539,0,0,0,0,0,0,0,0,
572,573,570,571,572,573,570,571,0,0,0,0,0,0,0,0,
538,539,410,411,540,541,540,541,0,0,0,0,0,0,0,0,
570,571,442,443,572,573,572,573,0,0,0,0,0,0,0,0,
540,541,474,475,538,539,538,539,0,0,0,0,0,0,0,0,
572,573,506,507,570,571,570,571,0,0,0,0,0,0,0,0,
540,541,778,779,780,781,540,541,0,0,0,0,0,0,0,0,
572,573,810,811,812,813,572,573,0,0,0,0,0,0,0,0,
780,781,842,843,844,845,538,539,0,0,0,0,0,0,0,0,
812,813,874,875,876,877,570,571,0,0,0,0,0,0,0,0
</chunk>
   <chunk x="80" y="48" width="16" height="16">
538,539,540,541,540,541,540,541,542,543,774,775,542,543,0,0,
570,571,572,573,572,573,572,573,574,575,806,807,574,575,0,0,
540,541,410,411,782,783,0,0,840,841,838,839,840,841,542,543,
572,573,442,443,814,815,0,0,872,873,870,871,872,873,574,575,
538,539,540,541,600,601,0,0,534,535,536,537,534,535,472,473,
570,571,572,573,632,633,0,0,566,567,568,569,566,567,504,505,
0,0,0,0,472,473,838,839,840,841,472,473,838,839,840,841,
0,0,0,0,504,505,870,871,872,873,504,505,870,871,872,873,
0,0,0,0,774,775,776,777,534,535,774,775,776,777,534,535,
0,0,0,0,806,807,808,809,566,567,806,807,808,809,566,567,
0,0,0,0,838,839,840,841,536,537,838,839,840,841,536,537,
0,0,0,0,870,871,872,873,568,569,870,871,872,873,568,569,
0,0,0,0,774,775,776,777,472,473,774,775,776,777,534,535,
0,0,0,0,806,807,808,809,504,505,806,807,808,809,566,567,
0,0,0,0,838,839,840,841,408,409,838,839,840,841,408,409,
0,0,0,0,870,871,872,873,440,441,870,871,872,873,440,441
</chunk>
   <chunk x="96" y="48" width="16" height="16">
774,775,776,777,472,473,598,599,538,539,540,541,0,0,0,0,
806,807,808,809,504,505,630,631,570,571,572,573,0,0,0,0,
838,839,840,841,408,409,410,411,540,541,538,539,0,0,0,0,
870,871,872,873,440,441,442,443,572,573,570,571,0,0,0,0,
536,537,534,535,472,473,474,475,538,539,540,541,0,0,0,0,
568,569,566,567,504,505,506,507,570,571,572,573,0,0,0,0,
472,473,472,473,408,409,598,599,538,539,540,541,0,0,0,0,
504,505,504,505,440,441,630,631,570,571,572,573,0,0,0,0,
536,537,536,537,598,599,410,411,540,541,538,539,0,0,0,0,
568,569,568,569,630,631,442,443,572,573,570,571,0,0,0,0,
408,409,598,599,538,539,474,475,538,539,540,541,0,0,0,0,
440,441,630,631,570,571,506,507,570,571,572,573,0,0,0,0,
598,599,538,539,540,541,778,779,780,781,540,541,0,0,0,0,
630,631,570,571,572,573,810,811,812,813,572,573,0,0,0,0,
410,411,540,541,538,539,842,843,778,779,780,781,0,0,0,0,
442,443,572,573,570,571,874,875,810,811,812,813,0,0,0,0
</chunk>
   <chunk x="-96" y="64" width="16" height="16">
0,0,0,0,0,0,0,0,0,0,0,0,134,135,136,137,
0,0,0,0,0,0,0,0,0,0,0,0,166,167,168,169,
0,0,0,0,0,0,0,0,0,0,0,0,6,7,8,9,
0,0,0,0,0,0,0,0,0,0,0,0,38,39,40,41,
0,0,0,0,0,0,0,0,0,0,0,0,70,71,72,73,
0,0,0,0,0,0,0,0,0,0,0,0,102,103,104,105,
0,0,0,0,0,0,0,0,0,0,0,0,134,135,136,137,
0,0,0,0,0,0,0,0,0,0,0,0,166,167,168,169,
0,0,0,0,0,0,0,0,0,0,0,0,6,7,8,9,
0,0,0,0,0,0,0,0,0,0,0,0,38,39,40,41,
0,0,0,0,0,0,0,0,0,0,0,0,70,71,72,73,
0,0,0,0,0,0,0,0,0,0,0,0,102,103,104,105,
0,0,0,0,0,0,0,0,0,0,0,0,134,135,136,137,
0,0,0,0,0,0,0,0,0,0,0,0,166,167,168,169,
0,0,0,0,0,0,0,0,0,0,0,0,0,0,0,0,
0,0,0,0,0,0,0,0,0,0,0,0,0,0,0,0
</chunk>
   <chunk x="-80" y="64" width="16" height="16">
138,139,134,135,136,137,138,139,134,135,136,137,138,139,134,135,
170,171,166,167,168,169,170,171,166,167,168,169,170,171,166,167,
10,11,6,7,8,9,10,11,6,7,8,9,10,11,6,7,
42,43,38,39,40,41,42,43,38,39,40,41,42,43,38,39,
74,75,70,71,72,73,74,75,70,71,72,73,74,75,70,71,
106,107,102,103,104,105,106,107,102,103,104,105,106,107,102,103,
138,139,134,135,136,137,138,139,134,135,136,137,138,139,134,135,
170,171,166,167,168,169,170,171,166,167,168,169,170,171,166,167,
10,11,6,7,8,9,10,11,6,7,8,9,10,11,6,7,
42,43,38,39,40,41,42,43,38,39,40,41,42,43,38,39,
74,75,70,71,72,73,74,75,70,71,72,73,74,75,70,71,
106,107,102,103,104,105,106,107,102,103,104,105,106,107,102,103,
138,139,134,135,136,137,138,139,134,135,136,137,138,139,134,135,
170,171,166,167,168,169,170,171,166,167,168,169,170,171,166,167,
0,0,0,0,0,0,0,0,0,0,0,0,0,0,0,0,
0,0,0,0,0,0,0,0,0,0,0,0,0,0,0,0
</chunk>
   <chunk x="-64" y="64" width="16" height="16">
136,137,138,139,134,135,136,137,138,139,134,135,136,137,138,139,
168,169,170,171,166,167,168,169,170,171,166,167,168,169,170,171,
8,9,10,11,6,7,8,9,10,11,6,7,8,9,10,11,
40,41,42,43,38,39,40,41,42,43,38,39,40,41,42,43,
72,73,74,75,70,71,72,73,74,75,70,71,72,73,74,75,
104,105,106,107,102,103,104,105,106,107,102,103,104,105,106,107,
136,137,138,139,134,135,136,137,138,139,134,135,136,137,138,139,
168,169,170,171,166,167,168,169,170,171,166,167,168,169,170,171,
8,9,10,11,6,7,8,9,10,11,6,7,8,9,10,11,
40,41,42,43,38,39,40,41,42,43,38,39,40,41,42,43,
72,73,74,75,70,71,72,73,74,75,70,71,72,73,74,75,
104,105,106,107,102,103,104,105,106,107,102,103,104,105,106,107,
136,137,138,139,134,135,136,137,138,139,134,135,136,137,138,139,
168,169,170,171,166,167,168,169,170,171,166,167,168,169,170,171,
0,0,0,0,0,0,0,0,0,0,0,0,0,0,0,0,
0,0,0,0,0,0,0,0,0,0,0,0,0,0,0,0
</chunk>
   <chunk x="-48" y="64" width="16" height="16">
734,735,534,535,408,409,474,475,538,539,0,0,0,0,136,137,
766,767,566,567,440,441,506,507,570,571,0,0,0,0,168,169,
606,607,534,535,472,473,778,779,780,781,0,0,0,0,8,9,
638,639,566,567,504,505,810,811,812,813,0,0,0,0,40,41,
670,671,536,537,584,585,0,0,538,539,0,0,0,0,72,73,
702,703,568,569,616,617,0,0,570,571,0,0,0,0,104,105,
734,735,646,647,648,649,650,651,0,0,0,0,0,0,136,137,
766,767,678,679,680,681,682,683,0,0,0,0,0,0,168,169,
6,7,8,711,712,713,714,715,716,717,10,11,6,7,8,9,
38,39,742,743,744,745,746,747,748,749,42,43,38,39,40,41,
70,71,72,73,74,75,70,71,72,73,74,75,70,71,72,73,
102,103,104,105,106,107,102,103,104,105,106,107,102,103,104,105,
134,135,136,137,138,139,134,135,136,137,138,139,134,135,136,137,
166,167,168,169,170,171,166,167,168,169,170,171,166,167,168,169,
0,0,0,0,0,0,0,0,0,0,0,0,0,0,0,0,
0,0,0,0,0,0,0,0,0,0,0,0,0,0,0,0
</chunk>
   <chunk x="-32" y="64" width="16" height="16">
138,139,134,135,136,137,138,139,134,135,136,137,138,139,134,135,
170,171,166,167,168,169,170,171,166,167,168,169,170,171,166,167,
10,11,6,7,8,9,10,11,6,7,8,9,10,11,6,7,
42,43,38,39,40,41,42,43,38,39,40,41,42,43,38,39,
74,75,70,71,72,73,74,75,70,71,72,73,74,75,70,71,
106,107,102,103,104,105,106,107,102,103,104,105,106,107,102,103,
138,139,134,135,136,137,138,139,134,135,136,137,138,139,134,135,
170,171,166,167,168,169,170,171,166,167,168,169,170,171,166,167,
10,11,6,7,8,9,10,11,6,7,8,9,10,11,0,0,
42,43,38,39,40,41,42,43,38,39,40,41,42,43,0,0,
74,75,70,71,72,73,74,75,70,71,72,73,74,75,0,0,
106,107,102,103,104,105,106,107,102,103,104,105,106,107,0,0,
138,139,134,135,136,137,138,139,134,135,136,137,138,139,0,0,
170,171,166,167,168,169,170,171,166,167,168,169,170,171,0,0,
0,0,0,0,0,0,0,0,0,0,0,0,0,0,0,0,
0,0,0,0,0,0,0,0,0,0,0,0,0,0,0,0
</chunk>
   <chunk x="-16" y="64" width="16" height="16">
136,137,138,139,134,135,136,137,138,139,0,0,0,0,144,145,
168,169,170,171,166,167,168,169,170,171,0,0,0,0,176,177,
8,9,10,11,0,0,0,0,0,0,12,13,14,15,16,17,
40,41,42,43,0,0,0,0,0,0,44,45,46,47,48,49,
72,73,74,75,0,0,0,0,80,81,76,77,78,79,80,81,
104,105,106,107,0,0,0,0,112,113,108,109,110,111,112,113,
136,137,138,139,0,0,0,0,144,145,140,141,142,143,144,145,
168,169,170,171,0,0,0,0,176,177,172,173,174,175,176,177,
0,0,0,0,12,13,14,15,16,17,12,13,14,15,16,17,
0,0,0,0,44,45,46,47,48,49,44,45,46,47,48,49,
0,0,80,81,76,77,78,79,80,81,76,77,78,79,80,81,
0,0,112,113,108,109,110,111,112,113,108,109,110,111,112,113,
0,0,144,145,140,141,142,143,144,145,140,141,142,143,144,145,
0,0,176,177,172,173,174,175,176,177,172,173,174,175,176,177,
0,0,0,0,0,0,0,0,0,0,0,0,0,0,0,0,
0,0,0,0,0,0,0,0,0,0,0,0,0,0,0,0
</chunk>
   <chunk x="0" y="64" width="16" height="16">
140,141,142,143,144,145,140,141,142,143,144,145,140,141,142,143,
172,173,174,175,176,177,172,173,174,175,176,177,172,173,174,175,
12,13,14,15,16,17,12,13,14,15,0,0,0,0,0,0,
44,45,46,47,48,49,44,45,46,47,0,0,0,0,0,0,
76,77,78,79,80,81,76,77,78,79,0,0,0,0,0,0,
108,109,110,111,112,113,108,109,110,111,0,0,0,0,0,0,
140,141,142,143,144,145,140,141,142,143,0,0,0,0,0,0,
172,173,174,175,176,177,172,173,174,175,0,0,0,0,0,0,
12,13,14,15,16,17,12,13,14,15,0,0,6,7,8,9,
44,45,46,47,48,49,44,45,46,47,0,0,38,39,40,41,
76,77,78,79,80,81,76,77,78,79,0,0,70,71,72,73,
108,109,110,111,112,113,108,109,110,111,0,0,102,103,104,105,
140,141,142,143,144,145,140,141,142,143,0,0,134,135,136,137,
172,173,174,175,176,177,172,173,174,175,0,0,166,167,168,169,
0,0,0,0,0,0,0,0,0,0,0,0,0,0,0,0,
0,0,0,0,0,0,0,0,0,0,0,0,0,0,0,0
</chunk>
   <chunk x="16" y="64" width="16" height="16">
0,0,134,135,136,137,138,139,134,135,136,137,138,139,1292,1293,
0,0,166,167,168,169,170,171,166,167,0,0,0,0,1324,1325,
0,0,6,7,8,9,10,11,606,607,534,535,866,867,774,775,
0,0,38,39,40,41,42,43,638,639,566,567,898,899,806,807,
0,0,70,71,72,73,74,75,670,671,774,775,776,777,534,535,
0,0,102,103,104,105,106,107,702,703,806,807,808,809,566,567,
0,0,134,135,136,137,138,139,734,735,838,839,840,841,536,537,
0,0,166,167,168,169,170,171,766,767,870,871,872,873,568,569,
10,11,6,7,8,9,10,11,606,607,534,535,472,473,774,775,
42,43,38,39,40,41,42,43,638,639,566,567,504,505,806,807,
74,75,70,71,72,73,74,75,670,671,536,537,774,775,534,535,
106,107,102,103,104,105,106,107,702,703,568,569,806,807,566,567,
138,139,134,135,136,137,138,139,734,735,0,0,0,0,0,0,
170,171,166,167,168,169,170,171,766,767,0,0,0,0,0,0,
0,0,0,0,0,0,0,0,0,0,0,0,0,0,0,0,
0,0,0,0,0,0,0,0,0,0,0,0,0,0,0,0
</chunk>
   <chunk x="32" y="64" width="16" height="16">
1294,1295,2147484941,2147484940,472,473,472,473,472,473,536,537,534,535,536,537,
1326,1327,2147484973,2147484972,504,505,504,505,504,505,568,569,566,567,568,569,
534,535,536,537,472,473,838,839,840,841,774,775,776,777,472,473,
566,567,568,569,504,505,870,871,872,873,806,807,808,809,504,505,
774,775,534,535,774,775,776,777,534,535,838,839,840,841,408,409,
806,807,566,567,806,807,808,809,566,567,870,871,872,873,440,441,
534,535,536,537,838,839,840,841,536,537,536,537,534,535,472,473,
566,567,568,569,870,871,872,873,568,569,568,569,566,567,504,505,
534,535,536,537,774,775,776,777,472,473,774,775,776,777,472,473,
566,567,568,569,806,807,808,809,504,505,806,807,808,809,504,505,
774,775,534,535,838,839,840,841,408,409,838,839,840,841,408,409,
806,807,566,567,870,871,872,873,440,441,870,871,872,873,440,441,
0,0,0,0,0,0,0,0,0,0,0,0,0,0,0,0,
0,0,0,0,0,0,0,0,0,0,0,0,0,0,0,0,
0,0,0,0,0,0,0,0,0,0,0,0,0,0,0,0,
0,0,0,0,0,0,0,0,0,0,0,0,0,0,0,0
</chunk>
   <chunk x="48" y="64" width="16" height="16">
408,409,410,411,474,475,474,475,538,539,540,541,474,475,842,843,
440,441,442,443,506,507,506,507,570,571,572,573,506,507,874,875,
598,599,538,539,540,541,778,779,780,781,540,541,778,779,780,781,
630,631,570,571,572,573,810,811,812,813,572,573,810,811,812,813,
410,411,540,541,538,539,842,843,778,779,780,781,842,843,844,845,
442,443,572,573,570,571,874,875,810,811,812,813,874,875,876,877,
474,475,538,539,540,541,474,475,842,843,844,845,474,475,538,539,
506,507,570,571,572,573,506,507,874,875,876,877,506,507,570,571,
472,473,474,475,538,539,538,539,540,541,538,539,778,779,780,781,
504,505,506,507,570,571,570,571,572,573,570,571,810,811,812,813,
408,409,410,411,474,475,410,411,540,541,540,541,842,843,778,779,
440,441,442,443,506,507,442,443,572,573,572,573,874,875,810,811,
0,0,0,0,0,0,0,0,0,0,0,0,0,0,842,843,
0,0,0,0,0,0,0,0,0,0,0,0,0,0,874,875,
0,0,0,0,0,0,0,0,0,0,0,0,0,0,0,0,
0,0,0,0,0,0,0,0,0,0,0,0,0,0,0,0
</chunk>
   <chunk x="64" y="64" width="16" height="16">
844,845,474,475,538,539,540,541,0,0,0,0,0,0,0,0,
876,877,506,507,570,571,572,573,0,0,0,0,0,0,0,0,
540,541,538,539,540,541,538,539,0,0,0,0,0,0,0,0,
572,573,570,571,572,573,570,571,0,0,0,0,0,0,0,0,
538,539,410,411,540,541,540,541,0,0,0,0,0,0,0,0,
570,571,442,443,572,573,572,573,0,0,0,0,0,0,0,0,
540,541,474,475,538,539,538,539,0,0,582,583,2147484619,2147484618,0,0,
572,573,506,507,570,571,570,571,0,0,614,615,2147484651,2147484650,0,0,
540,541,538,539,540,541,538,539,0,0,0,0,0,0,774,775,
572,573,570,571,572,573,570,571,0,0,0,0,0,0,806,807,
780,781,410,411,540,541,540,541,0,0,0,0,0,0,534,535,
812,813,442,443,572,573,572,573,0,0,0,0,0,0,566,567,
844,845,0,0,0,0,0,0,0,0,0,0,0,0,0,0,
876,877,0,0,0,0,0,0,0,0,0,0,0,0,0,0,
0,0,0,0,0,0,0,0,0,0,0,0,0,0,0,0,
0,0,0,0,0,0,0,0,0,0,0,0,0,0,0,0
</chunk>
   <chunk x="80" y="64" width="16" height="16">
0,0,0,0,536,537,534,535,472,473,536,537,534,535,472,473,
0,0,0,0,568,569,566,567,504,505,568,569,566,567,504,505,
0,0,0,0,472,473,838,839,840,841,774,775,776,777,472,473,
0,0,0,0,504,505,870,871,872,873,806,807,808,809,504,505,
0,0,0,0,774,775,776,777,534,535,838,839,840,841,408,409,
0,0,0,0,806,807,808,809,566,567,870,871,872,873,440,441,
0,0,536,537,838,839,840,841,536,537,536,537,534,535,472,473,
0,0,568,569,870,871,872,873,568,569,568,569,566,567,504,505,
534,535,536,537,774,775,776,777,472,473,536,537,534,535,866,867,
566,567,568,569,806,807,808,809,504,505,568,569,566,567,898,899,
774,775,534,535,838,839,840,841,408,409,534,535,536,537,534,535,
806,807,566,567,870,871,872,873,440,441,566,567,568,569,566,567,
0,0,0,0,0,0,0,0,0,0,0,0,0,0,0,0,
0,0,0,0,0,0,0,0,0,0,0,0,0,0,0,0,
0,0,0,0,0,0,0,0,0,0,0,0,0,0,0,0,
0,0,0,0,0,0,0,0,0,0,0,0,0,0,0,0
</chunk>
   <chunk x="96" y="64" width="16" height="16">
474,475,538,539,540,541,474,475,842,843,844,845,0,0,0,0,
506,507,570,571,572,573,506,507,874,875,876,877,0,0,0,0,
472,473,474,475,538,539,538,539,540,541,538,539,0,0,0,0,
504,505,506,507,570,571,570,571,572,573,570,571,0,0,0,0,
408,409,410,411,474,475,410,411,540,541,540,541,0,0,0,0,
440,441,442,443,506,507,442,443,572,573,572,573,0,0,0,0,
472,473,474,475,538,539,474,475,538,539,538,539,0,0,0,0,
504,505,506,507,570,571,506,507,570,571,570,571,0,0,0,0,
536,537,600,601,542,543,474,475,538,539,538,539,0,0,0,0,
568,569,632,633,574,575,506,507,570,571,570,571,0,0,0,0,
534,535,534,535,534,535,474,475,474,475,538,539,0,0,0,0,
566,567,566,567,566,567,506,507,506,507,570,571,0,0,0,0,
0,0,0,0,0,0,0,0,0,0,0,0,0,0,0,0,
0,0,0,0,0,0,0,0,0,0,0,0,0,0,0,0,
0,0,0,0,0,0,0,0,0,0,0,0,0,0,0,0,
0,0,0,0,0,0,0,0,0,0,0,0,0,0,0,0
</chunk>
  </data>
 </layer>
</map>
